;FLAVOR:Marlin
;TIME:2213
;Filament used: 1.64046m
;Layer height: 0.2
;MINX:44.454
;MINY:95.454
;MINZ:0.25
;MAXX:165.546
;MAXY:128.546
;MAXZ:10.85
;Generated with Cura_SteamEngine 4.7.1
M140 S60
M105
M190 S60
M104 S200
M105
M109 S200
M82 ;absolute extrusion mode
; Script based on an original created by tjjfvi (https://github.com/tjjfvi)
; An up-to-date version of the tjjfvi's original script can be found
; here:  https://csi.t6.fyi/
; Note - This script will only work in Cura V4.2 and above!
; --- Global Settings
; layer_height = 0.2
; smooth_spiralized_contours = True
; magic_mesh_surface_mode = normal
; machine_extruder_count = 1
; --- Single Extruder Settings
; speed_z_hop = 10
; retraction_amount = 5
; retraction_hop = 0.075
; retraction_hop_enabled = True
; retraction_enable = True
; retraction_speed = 50
; retraction_retract_speed = 50
; retraction_prime_speed = 50
; speed_travel = 120

G21 ;metric values
G90 ;absolute positioning
M82 ;set extruder to absolute mode
M107 ;start with the fan off
G28 X0 Y0 ;move X/Y to min endstops
G28 Z0 ;move Z to min endstops
G1 Z15.0 F120 ;move the platform down 15mm
G92 E0 ;zero the extruded length
G1 F200 E3 ;extrude 3mm of feed stock
G92 E0 ;zero the extruded length again
G1 F120
G0 Y20 F120
M117 Printing...
G5
G92 E0
G92 E0
G1 F3000 E-5
;LAYER_COUNT:54
;LAYER:0
M106 S51
M204 S3000
M205 X10 Y10
G1 F600 Z0.325
G0 F4200 X46.294 Y95.926 Z0.325
M204 S500
;TYPE:SKIRT
G1 F600 Z0.25
G1 F3000 E0.06236
G1 F1800 X46.78 Y95.698 E0.08451
G1 X47.293 Y95.545 E0.1066
G1 X47.958 Y95.464 E0.13425
G1 X48.38 Y95.454 E0.15166
G1 X161.295 Y95.454 E4.81092
G1 X161.993 Y95.464 E4.83972
G1 X162.526 Y95.512 E4.8618
G1 X163.047 Y95.638 E4.88392
G1 X163.544 Y95.841 E4.90607
G1 X164.004 Y96.115 E4.92817
G1 X164.419 Y96.454 E4.95028
G1 X164.779 Y96.851 E4.97239
G1 X165.076 Y97.298 E4.99454
G1 X165.303 Y97.783 E5.01663
G1 X165.455 Y98.297 E5.03875
G1 X165.536 Y98.959 E5.06627
G1 X165.546 Y99.38 E5.08365
G1 X165.546 Y108.274 E5.45064
G1 X165.518 Y110.264 E5.53277
G1 X165.503 Y110.826 E5.55596
G1 X165.535 Y114.962 E5.72663
G1 X165.546 Y115.379 E5.74385
G1 X165.546 Y124.259 E6.11027
G1 X165.537 Y124.986 E6.14027
G1 X165.49 Y125.519 E6.16235
G1 X165.365 Y126.041 E6.18449
G1 X165.163 Y126.537 E6.20659
G1 X164.89 Y126.998 E6.2287
G1 X164.552 Y127.414 E6.25082
G1 X164.155 Y127.775 E6.27296
G1 X163.709 Y128.072 E6.29507
G1 X163.224 Y128.3 E6.31718
G1 X162.711 Y128.454 E6.33929
G1 X162.042 Y128.536 E6.3671
G1 X161.62 Y128.546 E6.38451
G1 X48.711 Y128.546 E11.04352
G1 X48.013 Y128.537 E11.07232
G1 X47.479 Y128.49 E11.09444
G1 X46.958 Y128.364 E11.11656
G1 X46.461 Y128.162 E11.1387
G1 X46 Y127.889 E11.16081
G1 X45.585 Y127.55 E11.18292
G1 X45.224 Y127.154 E11.20503
G1 X44.927 Y126.708 E11.22714
G1 X44.699 Y126.223 E11.24925
G1 X44.546 Y125.709 E11.27138
G1 X44.464 Y125.038 E11.29928
G1 X44.454 Y124.608 E11.31702
G1 X44.454 Y115.706 E11.68435
G1 X44.482 Y113.736 E11.76565
G1 X44.497 Y113.174 E11.78885
G1 X44.465 Y109.026 E11.96001
G1 X44.454 Y108.621 E11.97673
G1 X44.454 Y99.675 E12.34587
G1 X44.463 Y99.01 E12.37331
G1 X44.511 Y98.476 E12.39544
G1 X44.637 Y97.955 E12.41755
G1 X44.839 Y97.459 E12.43965
G1 X45.112 Y96.998 E12.46176
G1 X45.451 Y96.583 E12.48387
G1 X45.848 Y96.223 E12.50599
G1 X46.294 Y95.926 E12.5281
M204 S3000
G0 F4200 X46.668 Y96.178
M204 S500
G1 F1800 X47.139 Y95.995 E12.54895
G1 X47.633 Y95.889 E12.5698
G1 X48.29 Y95.852 E12.59695
G1 X161.289 Y95.851 E17.25967
G1 X161.987 Y95.861 E17.28847
G1 X162.49 Y95.908 E17.30932
G1 X162.98 Y96.034 E17.33019
G1 X163.443 Y96.236 E17.35104
G1 X163.869 Y96.508 E17.37189
G1 X164.247 Y96.843 E17.39273
G1 X164.568 Y97.234 E17.41361
G1 X164.823 Y97.671 E17.43449
G1 X165.005 Y98.142 E17.45532
G1 X165.112 Y98.636 E17.47618
G1 X165.148 Y99.29 E17.50321
G1 X165.149 Y108.268 E17.87367
G1 X165.121 Y110.253 E17.95558
G1 X165.105 Y110.818 E17.97891
G1 X165.137 Y114.909 E18.14772
G1 X165.149 Y115.379 E18.16712
G1 X165.149 Y124.254 E18.53333
G1 X165.14 Y124.981 E18.56333
G1 X165.094 Y125.484 E18.58418
G1 X164.969 Y125.974 E18.60504
G1 X164.768 Y126.438 E18.62591
G1 X164.497 Y126.864 E18.64674
G1 X164.162 Y127.243 E18.66761
G1 X163.772 Y127.564 E18.68846
G1 X163.336 Y127.82 E18.70932
G1 X162.865 Y128.004 E18.73019
G1 X162.371 Y128.111 E18.75104
G1 X161.71 Y128.148 E18.77836
G1 X48.716 Y128.149 E23.44087
G1 X48.018 Y128.14 E23.46968
G1 X47.514 Y128.093 E23.49056
G1 X47.025 Y127.968 E23.51139
G1 X46.561 Y127.767 E23.53225
G1 X46.134 Y127.496 E23.55312
G1 X45.756 Y127.161 E23.57396
G1 X45.435 Y126.771 E23.59481
G1 X45.179 Y126.334 E23.61571
G1 X44.996 Y125.863 E23.63656
G1 X44.889 Y125.369 E23.65741
G1 X44.852 Y124.694 E23.68531
G1 X44.851 Y115.712 E24.05593
G1 X44.879 Y113.747 E24.13703
G1 X44.895 Y113.182 E24.16035
G1 X44.863 Y109.091 E24.32916
G1 X44.851 Y108.621 E24.34856
G1 X44.851 Y99.681 E24.71746
G1 X44.86 Y99.016 E24.7449
G1 X44.907 Y98.512 E24.76579
G1 X45.032 Y98.023 E24.78661
G1 X45.234 Y97.559 E24.80749
G1 X45.505 Y97.133 E24.82833
G1 X45.84 Y96.754 E24.8492
G1 X46.231 Y96.434 E24.87005
G1 X46.668 Y96.178 E24.89095
M204 S3000
G1 F3000 E19.89095
;MESH:base-plate-test.stl
G0 F4200 X157.092 Y122.373
M204 S500
;TYPE:WALL-INNER
G1 F3000 E24.95331
G1 F1080 X157.447 Y122.551 E24.9697
G1 X157.833 Y122.638 E24.98602
G1 X158.232 Y122.63 E25.00249
G1 X158.615 Y122.529 E25.01884
G1 X158.964 Y122.336 E25.03529
G1 X159.255 Y122.065 E25.0517
G1 X159.473 Y121.735 E25.06802
G1 X159.605 Y121.362 E25.08435
G1 X159.646 Y120.968 E25.10069
G1 X159.592 Y120.574 E25.1171
G1 X159.442 Y120.204 E25.13358
G1 X159.211 Y119.884 E25.14986
G1 X158.908 Y119.627 E25.16626
G1 X158.553 Y119.449 E25.18264
G1 X158.167 Y119.362 E25.19897
G1 X157.768 Y119.37 E25.21544
G1 X157.385 Y119.471 E25.23178
G1 X157.036 Y119.664 E25.24824
G1 X156.745 Y119.935 E25.26465
G1 X156.527 Y120.265 E25.28097
G1 X156.395 Y120.638 E25.29729
G1 X156.354 Y121.032 E25.31364
G1 X156.408 Y121.426 E25.33005
G1 X156.558 Y121.796 E25.34652
G1 X156.789 Y122.116 E25.36281
G1 X157.092 Y122.373 E25.3792
M204 S3000
G0 F4200 X157.309 Y122.045
M204 S500
;TYPE:WALL-OUTER
G1 F1080 X157.579 Y122.18 E25.39166
G1 X157.873 Y122.246 E25.40409
G1 X158.177 Y122.24 E25.41664
G1 X158.468 Y122.163 E25.42906
G1 X158.733 Y122.017 E25.44154
G1 X158.954 Y121.811 E25.45401
G1 X159.12 Y121.559 E25.46646
G1 X159.221 Y121.275 E25.4789
G1 X159.252 Y120.975 E25.49134
G1 X159.211 Y120.676 E25.5038
G1 X159.097 Y120.395 E25.51631
G1 X158.921 Y120.151 E25.52872
G1 X158.691 Y119.955 E25.54119
G1 X158.421 Y119.82 E25.55365
G1 X158.127 Y119.754 E25.56608
G1 X157.823 Y119.76 E25.57863
G1 X157.532 Y119.837 E25.59105
G1 X157.267 Y119.983 E25.60354
G1 X157.046 Y120.189 E25.616
G1 X156.88 Y120.441 E25.62845
G1 X156.779 Y120.725 E25.64089
G1 X156.748 Y121.025 E25.65334
G1 X156.789 Y121.324 E25.66579
G1 X156.903 Y121.605 E25.6783
G1 X157.079 Y121.849 E25.69072
G1 X157.309 Y122.045 E25.70319
M204 S3000
G0 F4200 X157.488 Y122.134
G0 X157.292 Y122.525
G1 F3000 E20.70319
G0 F4200 X52.964 Y122.336
M204 S500
;TYPE:WALL-INNER
G1 F3000 E25.76555
G1 F1080 X53.255 Y122.065 E25.78196
G1 X53.473 Y121.735 E25.79828
G1 X53.605 Y121.362 E25.8146
G1 X53.646 Y120.968 E25.83095
G1 X53.592 Y120.574 E25.84736
G1 X53.442 Y120.204 E25.86383
G1 X53.211 Y119.884 E25.88012
G1 X52.908 Y119.627 E25.89651
G1 X52.553 Y119.449 E25.9129
G1 X52.167 Y119.362 E25.92923
G1 X51.768 Y119.37 E25.94569
G1 X51.385 Y119.471 E25.96204
G1 X51.036 Y119.664 E25.97849
G1 X50.745 Y119.935 E25.9949
G1 X50.527 Y120.265 E26.01122
G1 X50.395 Y120.638 E26.02755
G1 X50.354 Y121.032 E26.04389
G1 X50.408 Y121.426 E26.0603
G1 X50.558 Y121.796 E26.07678
G1 X50.789 Y122.116 E26.09306
G1 X51.092 Y122.373 E26.10946
G1 X51.447 Y122.551 E26.12584
G1 X51.833 Y122.638 E26.14217
G1 X52.232 Y122.63 E26.15864
G1 X52.615 Y122.529 E26.17498
G1 X52.964 Y122.336 E26.19144
M204 S3000
G0 F4200 X52.733 Y122.017
M204 S500
;TYPE:WALL-OUTER
G1 F1080 X52.954 Y121.811 E26.20391
G1 X53.12 Y121.559 E26.21636
G1 X53.221 Y121.275 E26.2288
G1 X53.252 Y120.975 E26.24124
G1 X53.211 Y120.676 E26.25369
G1 X53.097 Y120.395 E26.26621
G1 X52.921 Y120.151 E26.27862
G1 X52.691 Y119.955 E26.29109
G1 X52.421 Y119.82 E26.30355
G1 X52.127 Y119.754 E26.31598
G1 X51.823 Y119.76 E26.32853
G1 X51.532 Y119.837 E26.34095
G1 X51.267 Y119.983 E26.35343
G1 X51.046 Y120.189 E26.3659
G1 X50.88 Y120.441 E26.37835
G1 X50.779 Y120.725 E26.39079
G1 X50.748 Y121.025 E26.40323
G1 X50.789 Y121.324 E26.41569
G1 X50.903 Y121.605 E26.4282
G1 X51.079 Y121.849 E26.44061
G1 X51.309 Y122.045 E26.45308
G1 X51.579 Y122.18 E26.46554
G1 X51.873 Y122.246 E26.47797
G1 X52.177 Y122.24 E26.49052
G1 X52.468 Y122.163 E26.50294
G1 X52.733 Y122.017 E26.51542
M204 S3000
G0 F4200 X52.879 Y121.881
G0 X53.175 Y122.2
G1 F3000 E21.51542
G0 F4200 X104.833 Y122.638
M204 S500
;TYPE:WALL-INNER
G1 F3000 E26.57779
G1 F1080 X105.232 Y122.63 E26.59425
G1 X105.615 Y122.529 E26.6106
G1 X105.964 Y122.336 E26.62705
G1 X106.255 Y122.065 E26.64346
G1 X106.473 Y121.735 E26.65978
G1 X106.605 Y121.362 E26.67611
G1 X106.646 Y120.968 E26.69245
G1 X106.592 Y120.574 E26.70886
G1 X106.442 Y120.204 E26.72534
G1 X106.211 Y119.884 E26.74162
G1 X105.908 Y119.627 E26.75802
G1 X105.553 Y119.449 E26.7744
G1 X105.167 Y119.362 E26.79073
G1 X104.768 Y119.37 E26.8072
G1 X104.385 Y119.471 E26.82354
G1 X104.036 Y119.664 E26.84
G1 X103.745 Y119.935 E26.85641
G1 X103.527 Y120.265 E26.87273
G1 X103.395 Y120.638 E26.88905
G1 X103.354 Y121.032 E26.9054
G1 X103.408 Y121.426 E26.92181
G1 X103.558 Y121.796 E26.93828
G1 X103.789 Y122.116 E26.95457
G1 X104.092 Y122.373 E26.97096
G1 X104.447 Y122.551 E26.98735
G1 X104.833 Y122.638 E27.00368
M204 S3000
G0 F4200 X104.873 Y122.246
M204 S500
;TYPE:WALL-OUTER
G1 F1080 X105.177 Y122.24 E27.01622
G1 X105.468 Y122.163 E27.02864
G1 X105.733 Y122.017 E27.04113
G1 X105.954 Y121.811 E27.0536
G1 X106.12 Y121.559 E27.06605
G1 X106.221 Y121.275 E27.07849
G1 X106.252 Y120.975 E27.09093
G1 X106.211 Y120.676 E27.10338
G1 X106.097 Y120.395 E27.1159
G1 X105.921 Y120.151 E27.12831
G1 X105.691 Y119.955 E27.14078
G1 X105.421 Y119.82 E27.15324
G1 X105.127 Y119.754 E27.16567
G1 X104.823 Y119.76 E27.17822
G1 X104.532 Y119.837 E27.19064
G1 X104.267 Y119.983 E27.20312
G1 X104.046 Y120.189 E27.21559
G1 X103.88 Y120.441 E27.22804
G1 X103.779 Y120.725 E27.24048
G1 X103.748 Y121.025 E27.25292
G1 X103.789 Y121.324 E27.26538
G1 X103.903 Y121.605 E27.27789
G1 X104.079 Y121.849 E27.2903
G1 X104.309 Y122.045 E27.30277
G1 X104.579 Y122.18 E27.31523
G1 X104.873 Y122.246 E27.32766
M204 S3000
G0 F4200 X105.073 Y122.243
G0 X105.08 Y122.679
G1 F3000 E22.32766
G0 F4200 X96.644 Y122.644
M204 S500
;TYPE:WALL-INNER
G1 F3000 E27.39002
G1 F1080 X96.644 Y115.644 E27.67887
G1 X113.356 Y115.644 E28.36846
G1 X113.356 Y122.644 E28.6573
G1 X144.618 Y122.644 E29.94728
G1 X144.669 Y121.413 E29.99812
G1 X142.347 Y121.204 E30.09432
G1 X142.314 Y121.2 E30.09569
G1 X140.692 Y120.75 E30.16515
G1 X139.164 Y120.008 E30.23524
G1 X137.822 Y119.022 E30.30395
G1 X137.802 Y119.006 E30.30501
G1 X136.645 Y117.78 E30.37457
G1 X135.738 Y116.383 E30.4433
G1 X135.696 Y116.292 E30.44743
G1 X135.54 Y115.918 E30.46416
G1 X135.426 Y115.644 E30.4764
G1 X135.722 Y115.644 E30.48353
G1 X135.723 Y115.644 E30.48357
G1 X161.356 Y115.644 E31.54127
G1 X161.356 Y124.356 E31.90076
G1 X48.644 Y124.356 E36.55164
G1 X48.644 Y115.644 E36.91112
G1 X74.278 Y115.644 E37.96887
G1 X74.279 Y115.644 E37.96891
G1 X74.574 Y115.644 E37.98108
G1 X74.461 Y115.917 E37.98821
G1 X74.28 Y116.354 E38.00773
G1 X73.356 Y117.779 E38.07781
G1 X72.199 Y119.005 E38.14737
G1 X72.178 Y119.022 E38.14848
G1 X70.837 Y120.007 E38.21714
G1 X69.309 Y120.749 E38.28723
G1 X67.689 Y121.199 E38.35661
G1 X67.654 Y121.204 E38.35807
G1 X65.318 Y121.416 E38.45485
G1 X65.395 Y122.644 E38.50563
G1 X96.644 Y122.644 E39.79506
M204 S3000
G0 F4200 X96.253 Y122.253
M204 S500
;TYPE:WALL-OUTER
G1 F1080 X96.253 Y115.253 E40.08391
G1 X113.747 Y115.253 E40.80577
G1 X113.747 Y122.253 E41.09461
G1 X144.243 Y122.253 E42.35298
G1 X144.263 Y121.769 E42.37297
G1 X142.304 Y121.593 E42.45413
G1 X142.241 Y121.586 E42.45674
G1 X140.617 Y121.136 E42.52628
G1 X140.544 Y121.113 E42.52944
G1 X139.004 Y120.365 E42.60008
G1 X138.955 Y120.339 E42.60237
G1 X137.577 Y119.327 E42.67292
G1 X137.535 Y119.293 E42.67515
G1 X136.374 Y118.064 E42.74491
G1 X136.327 Y118.008 E42.74793
G1 X135.398 Y116.577 E42.81833
G1 X135.335 Y116.442 E42.82448
G1 X134.954 Y115.527 E42.86537
G1 X134.84 Y115.253 E42.87762
G1 X135.136 Y115.253 E42.88475
G1 X135.137 Y115.253 E42.88479
G1 X161.747 Y115.253 E43.98281
G1 X161.747 Y124.747 E44.37456
G1 X48.253 Y124.747 E49.0577
G1 X48.253 Y115.253 E49.44946
G1 X74.863 Y115.253 E50.54748
G1 X74.864 Y115.253 E50.54752
G1 X75.16 Y115.253 E50.55973
G1 X75.047 Y115.527 E50.56688
G1 X74.633 Y116.522 E50.61135
G1 X74.609 Y116.567 E50.61345
G1 X73.674 Y118.007 E50.6843
G1 X73.627 Y118.063 E50.68732
G1 X72.466 Y119.292 E50.75708
G1 X72.424 Y119.326 E50.75931
G1 X71.046 Y120.338 E50.82986
G1 X70.997 Y120.364 E50.83215
G1 X69.457 Y121.112 E50.90279
G1 X69.384 Y121.135 E50.90595
G1 X67.761 Y121.585 E50.97545
G1 X67.697 Y121.592 E50.9781
G1 X65.732 Y121.771 E51.05952
G1 X65.762 Y122.253 E51.07945
G1 X96.253 Y122.253 E52.33761
M204 S3000
G0 F4200 X96.253 Y122.053
G0 X96.689 Y122.053
G0 X97.036 Y123.036
M204 S500
;TYPE:SKIN
G1 F1080 X97.036 Y116.036 E52.63445
G1 X112.964 Y116.036 E53.30991
G1 X112.964 Y123.036 E53.60676
G1 X144.994 Y123.036 E54.96504
G1 X145.077 Y121.056 E55.04908
G1 X142.388 Y120.814 E55.16357
G1 X140.831 Y120.381 E55.23211
G1 X139.366 Y119.67 E55.30116
G1 X138.064 Y118.713 E55.36968
G1 X136.956 Y117.539 E55.43814
G1 X136.082 Y116.192 E55.50623
G1 X136.052 Y116.127 E55.50927
G1 X136.014 Y116.036 E55.51345
G1 X160.964 Y116.036 E56.5715
G1 X160.964 Y123.964 E56.9077
G1 X49.036 Y123.964 E61.65419
G1 X49.036 Y116.036 E61.99039
G1 X73.988 Y116.036 E63.04852
G1 X73.933 Y116.168 E63.05459
G1 X73.045 Y117.538 E63.12382
G1 X71.931 Y118.718 E63.19264
G1 X70.635 Y119.669 E63.26081
G1 X69.17 Y120.38 E63.32986
G1 X67.598 Y120.816 E63.39904
G1 X64.903 Y121.06 E63.5138
G1 X65.027 Y123.036 E63.59776
G1 X97.036 Y123.036 E64.95515
M204 S3000
G1 F3000 E59.95515
G0 F4200 X102.96 Y121.038
M204 S500
G1 F3000 E65.01751
G1 F1080 X103.026 Y121.527 E65.03844
G1 X103.212 Y121.988 E65.05952
G1 X103.5 Y122.384 E65.08028
G1 X103.874 Y122.702 E65.1011
G1 X104.314 Y122.923 E65.12198
G1 X104.793 Y123.03 E65.1428
G1 X105.287 Y123.02 E65.16375
G1 X105.762 Y122.895 E65.18458
G1 X106.196 Y122.655 E65.20561
G1 X106.556 Y122.32 E65.22646
G1 X106.827 Y121.911 E65.24727
G1 X106.991 Y121.449 E65.26806
G1 X107.04 Y120.962 E65.28882
G1 X106.974 Y120.473 E65.30974
G1 X106.788 Y120.012 E65.33082
G1 X106.5 Y119.616 E65.35159
G1 X106.126 Y119.298 E65.3724
G1 X105.686 Y119.077 E65.39328
G1 X105.207 Y118.97 E65.4141
G1 X104.713 Y118.98 E65.43505
G1 X104.238 Y119.105 E65.45588
G1 X103.804 Y119.345 E65.47691
G1 X103.444 Y119.68 E65.49776
G1 X103.173 Y120.089 E65.51857
G1 X103.009 Y120.551 E65.53936
G1 X102.96 Y121.038 E65.56012
M204 S3000
G1 F3000 E60.56012
G0 F4200 X54.04 Y120.962
M204 S500
G1 F3000 E65.62248
G1 F1080 X53.974 Y120.473 E65.6434
G1 X53.788 Y120.012 E65.66449
G1 X53.5 Y119.616 E65.68525
G1 X53.126 Y119.298 E65.70607
G1 X52.686 Y119.077 E65.72695
G1 X52.207 Y118.97 E65.74776
G1 X51.713 Y118.98 E65.76871
G1 X51.238 Y119.105 E65.78954
G1 X50.804 Y119.345 E65.81057
G1 X50.444 Y119.68 E65.83143
G1 X50.173 Y120.089 E65.85223
G1 X50.009 Y120.551 E65.87302
G1 X49.96 Y121.038 E65.89378
G1 X50.026 Y121.527 E65.91471
G1 X50.212 Y121.988 E65.93579
G1 X50.5 Y122.384 E65.95655
G1 X50.874 Y122.702 E65.97737
G1 X51.314 Y122.923 E65.99825
G1 X51.793 Y123.03 E66.01906
G1 X52.287 Y123.02 E66.04002
G1 X52.762 Y122.895 E66.06084
G1 X53.196 Y122.655 E66.08188
G1 X53.556 Y122.32 E66.10273
G1 X53.827 Y121.911 E66.12354
G1 X53.991 Y121.449 E66.14433
G1 X54.04 Y120.962 E66.16508
M204 S3000
G1 F3000 E61.16508
G0 F4200 X155.96 Y121.038
M204 S500
G1 F3000 E66.22744
G1 F1080 X156.026 Y121.527 E66.24837
G1 X156.212 Y121.988 E66.26945
G1 X156.5 Y122.384 E66.29021
