;FLAVOR:Marlin
;TIME:1004
;Filament used: 0.898849m
;Layer height: 0.2
;MINX:74.954
;MINY:85.954
;MINZ:0.25
;MAXX:135.025
;MAXY:119.046
;MAXZ:4.85
;Generated with Cura_SteamEngine 4.7.1
M140 S60
M105
M190 S60
M104 S200
M105
M109 S200
M82 ;absolute extrusion mode
; Script based on an original created by tjjfvi (https://github.com/tjjfvi)
; An up-to-date version of the tjjfvi's original script can be found
; here:  https://csi.t6.fyi/
; Note - This script will only work in Cura V4.2 and above!
; --- Global Settings
; layer_height = 0.2
; smooth_spiralized_contours = True
; magic_mesh_surface_mode = normal
; machine_extruder_count = 1
; --- Single Extruder Settings
; speed_z_hop = 10
; retraction_amount = 5
; retraction_hop = 0.075
; retraction_hop_enabled = True
; retraction_enable = True
; retraction_speed = 50
; retraction_retract_speed = 50
; retraction_prime_speed = 50
; speed_travel = 120

G21 ;metric values
G90 ;absolute positioning
M82 ;set extruder to absolute mode
M107 ;start with the fan off
G28 X0 Y0 ;move X/Y to min endstops
G28 Z0 ;move Z to min endstops
G1 Z15.0 F120 ;move the platform down 15mm
G92 E0 ;zero the extruded length
G1 F200 E3 ;extrude 3mm of feed stock
G92 E0 ;zero the extruded length again
G1 F120
G0 Y20 F120
M117 Printing...
G5
G92 E0
G92 E0
G1 F3000 E-5
;LAYER_COUNT:24
;LAYER:0
M106 S51
M204 S3000
M205 X10 Y10
G1 F600 Z0.325
G0 F4200 X76.352 Y86.721 Z0.325
M204 S500
;TYPE:SKIRT
G1 F600 Z0.25
G1 F3000 E0.06236
G1 F1800 X76.798 Y86.424 E0.08447
G1 X77.284 Y86.197 E0.10661
G1 X77.798 Y86.045 E0.12872
G1 X78.459 Y85.964 E0.1562
G1 X78.88 Y85.954 E0.17358
G1 X117.842 Y85.954 E1.78128
G1 X118.524 Y85.964 E1.80943
G1 X118.725 Y85.973 E1.81773
G1 X119.548 Y86.032 E1.85178
G1 X120.475 Y86.113 E1.89017
G1 X121.078 Y86.174 E1.91518
G1 X121.592 Y86.264 E1.93671
G1 X122.444 Y86.478 E1.97296
G1 X123.237 Y86.691 E2.00684
G1 X123.877 Y86.872 E2.03429
G1 X124.366 Y87.049 E2.05575
G1 X125.203 Y87.424 E2.09359
G1 X125.877 Y87.738 E2.12427
G1 X126.509 Y88.043 E2.15323
G1 X126.961 Y88.304 E2.17477
G1 X127.708 Y88.809 E2.21197
G1 X128.305 Y89.227 E2.24205
G1 X128.907 Y89.661 E2.27267
G1 X129.308 Y89.996 E2.29423
G1 X129.919 Y90.588 E2.32934
G1 X130.515 Y91.185 E2.36414
G1 X130.968 Y91.651 E2.39096
G1 X131.301 Y92.047 E2.41231
G1 X131.84 Y92.792 E2.45025
G1 X132.26 Y93.391 E2.48044
G1 X132.672 Y93.999 E2.51075
G1 X132.927 Y94.44 E2.53177
G1 X133.322 Y95.251 E2.56899
G1 X133.643 Y95.94 E2.60035
G1 X133.931 Y96.581 E2.62935
G1 X134.11 Y97.071 E2.65088
G1 X134.358 Y97.946 E2.68841
G1 X134.548 Y98.653 E2.71861
G1 X134.721 Y99.334 E2.74761
G1 X134.813 Y99.846 E2.76907
G1 X134.901 Y100.689 E2.80405
G1 X134.977 Y101.563 E2.84025
G1 X135.024 Y102.204 E2.86677
G1 X135.025 Y102.72 E2.88806
G1 X134.958 Y103.66 E2.92694
G1 X134.89 Y104.432 E2.95892
G1 X134.825 Y105.079 E2.98576
G1 X134.735 Y105.595 E3.00737
G1 X134.508 Y106.497 E3.04575
G1 X134.309 Y107.237 E3.07737
G1 X134.128 Y107.877 E3.10481
G1 X133.951 Y108.365 E3.12623
G1 X133.575 Y109.205 E3.16421
G1 X133.253 Y109.897 E3.1957
G1 X132.962 Y110.501 E3.22337
G1 X132.701 Y110.954 E3.24494
G1 X132.176 Y111.73 E3.2836
G1 X131.771 Y112.307 E3.31269
G1 X131.341 Y112.905 E3.34308
G1 X131.004 Y113.308 E3.36476
G1 X130.402 Y113.929 E3.40045
G1 X129.812 Y114.518 E3.43485
G1 X129.343 Y114.973 E3.46181
G1 X128.952 Y115.302 E3.4829
G1 X128.237 Y115.82 E3.51933
G1 X127.571 Y116.287 E3.55289
G1 X127.003 Y116.672 E3.58121
G1 X126.558 Y116.929 E3.60241
G1 X125.761 Y117.316 E3.63897
G1 X125.087 Y117.63 E3.66965
G1 X124.417 Y117.931 E3.69996
G1 X123.93 Y118.109 E3.72136
G1 X123.054 Y118.358 E3.75893
G1 X122.306 Y118.559 E3.79089
G1 X121.666 Y118.722 E3.81815
G1 X121.147 Y118.814 E3.83989
G1 X120.258 Y118.905 E3.87677
G1 X119.41 Y118.979 E3.91189
G1 X118.8 Y119.024 E3.93713
G1 X118.589 Y119.034 E3.94585
G1 X117.794 Y119.046 E3.97866
G1 X79.205 Y119.046 E5.57097
G1 X78.507 Y119.036 E5.59977
G1 X77.974 Y118.988 E5.62186
G1 X77.453 Y118.862 E5.64397
G1 X76.956 Y118.659 E5.66613
G1 X76.496 Y118.385 E5.68822
G1 X76.081 Y118.046 E5.71033
G1 X75.721 Y117.649 E5.73245
G1 X75.424 Y117.202 E5.75459
G1 X75.197 Y116.717 E5.77669
G1 X75.045 Y116.203 E5.7988
G1 X74.964 Y115.537 E5.82649
G1 X74.954 Y115.108 E5.84419
G1 X74.954 Y90.196 E6.87215
G1 X74.964 Y89.507 E6.90058
G1 X75.012 Y88.973 E6.9227
G1 X75.139 Y88.452 E6.94483
G1 X75.341 Y87.956 E6.96693
G1 X75.615 Y87.495 E6.98906
G1 X75.955 Y87.08 E7.0112
G1 X76.352 Y86.721 E7.03328
M204 S3000
G0 F4200 X76.735 Y86.932
M204 S500
G1 F1800 X77.171 Y86.677 E7.05412
G1 X77.643 Y86.494 E7.07501
G1 X78.137 Y86.388 E7.09586
G1 X78.79 Y86.352 E7.12285
G1 X117.836 Y86.351 E8.73402
G1 X118.518 Y86.361 E8.76216
G1 X118.697 Y86.369 E8.76955
G1 X119.513 Y86.427 E8.80331
G1 X120.435 Y86.508 E8.8415
G1 X121.038 Y86.569 E8.86651
G1 X121.495 Y86.649 E8.88566
G1 X122.396 Y86.876 E8.924
G1 X123.129 Y87.073 E8.95531
G1 X123.769 Y87.254 E8.98276
G1 X124.204 Y87.412 E9.00186
G1 X125.036 Y87.784 E9.03946
G1 X125.704 Y88.096 E9.06988
G1 X126.336 Y88.401 E9.09884
G1 X126.739 Y88.633 E9.11803
G1 X127.48 Y89.134 E9.15494
G1 X128.111 Y89.577 E9.18675
G1 X128.675 Y89.983 E9.21543
G1 X129.031 Y90.281 E9.23458
G1 X129.638 Y90.869 E9.26945
G1 X130.231 Y91.462 E9.30406
G1 X130.684 Y91.928 E9.33088
G1 X130.98 Y92.28 E9.34985
G1 X131.486 Y92.978 E9.38543
G1 X131.931 Y93.613 E9.41742
G1 X132.343 Y94.221 E9.44773
G1 X132.571 Y94.614 E9.46648
G1 X132.962 Y95.418 E9.50337
G1 X133.281 Y96.103 E9.53455
G1 X133.569 Y96.744 E9.56354
G1 X133.728 Y97.18 E9.58269
G1 X133.975 Y98.049 E9.61997
G1 X134.164 Y98.75 E9.64993
G1 X134.337 Y99.431 E9.67892
G1 X134.418 Y99.887 E9.69803
G1 X134.511 Y100.783 E9.73521
G1 X134.581 Y101.592 E9.76871
G1 X134.628 Y102.233 E9.79523
G1 X134.629 Y102.692 E9.81417
G1 X134.563 Y103.625 E9.85277
G1 X134.495 Y104.393 E9.88458
G1 X134.43 Y105.04 E9.91141
G1 X134.35 Y105.498 E9.9306
G1 X134.125 Y106.394 E9.96872
G1 X133.927 Y107.129 E10.00013
G1 X133.746 Y107.769 E10.02757
G1 X133.589 Y108.203 E10.04662
G1 X133.215 Y109.038 E10.08437
G1 X132.895 Y109.724 E10.1156
G1 X132.604 Y110.328 E10.14327
G1 X132.372 Y110.731 E10.16246
G1 X131.851 Y111.502 E10.20085
G1 X131.448 Y112.076 E10.22979
G1 X131.018 Y112.674 E10.26019
G1 X130.718 Y113.032 E10.27946
G1 X130.121 Y113.648 E10.31486
G1 X129.536 Y114.233 E10.34899
G1 X129.067 Y114.688 E10.37596
G1 X128.719 Y114.98 E10.3947
G1 X128.009 Y115.495 E10.4309
G1 X127.348 Y115.958 E10.4642
G1 X126.78 Y116.343 E10.49251
G1 X126.385 Y116.572 E10.51135
G1 X125.594 Y116.956 E10.54763
G1 X124.924 Y117.268 E10.57813
G1 X124.254 Y117.569 E10.60844
G1 X123.821 Y117.727 E10.62746
G1 X122.951 Y117.975 E10.66479
G1 X122.208 Y118.174 E10.69653
G1 X121.568 Y118.337 E10.72378
G1 X121.107 Y118.419 E10.7431
G1 X120.224 Y118.51 E10.77973
G1 X119.38 Y118.583 E10.81468
G1 X118.77 Y118.628 E10.83992
G1 X118.583 Y118.637 E10.84765
G1 X117.788 Y118.649 E10.88045
G1 X79.211 Y118.649 E12.47227
G1 X78.513 Y118.639 E12.50108
G1 X78.01 Y118.592 E12.52192
G1 X77.52 Y118.466 E12.5428
G1 X77.057 Y118.264 E12.56364
G1 X76.631 Y117.992 E12.5845
G1 X76.253 Y117.657 E12.60534
G1 X75.932 Y117.266 E12.62621
G1 X75.677 Y116.829 E12.64709
G1 X75.495 Y116.358 E12.66793
G1 X75.388 Y115.864 E12.68878
G1 X75.352 Y115.195 E12.71643
G1 X75.351 Y90.202 E13.74772
G1 X75.361 Y89.513 E13.77616
G1 X75.409 Y89.009 E13.79705
G1 X75.535 Y88.52 E13.81789
G1 X75.736 Y88.056 E13.83875
G1 X76.008 Y87.63 E13.85961
G1 X76.344 Y87.252 E13.88048
G1 X76.735 Y86.932 E13.90132
M204 S3000
G1 F3000 E8.90132
;MESH:hip-connector-motor-side.stl
G0 F4200 X117.735 Y108.802
M204 S500
;TYPE:WALL-INNER
G1 F3000 E13.96369
G1 F1080 X119.265 Y108.802 E14.02682
G1 X120.751 Y108.436 E14.08997
G1 X122.107 Y107.724 E14.15317
G1 X123.253 Y106.71 E14.21631
G1 X124.122 Y105.45 E14.27947
G1 X124.664 Y104.019 E14.34261
G1 X124.848 Y102.5 E14.40574
G1 X124.664 Y100.981 E14.46888
G1 X124.122 Y99.55 E14.53202
G1 X123.253 Y98.29 E14.59518
G1 X122.107 Y97.276 E14.65832
G1 X120.751 Y96.564 E14.72152
G1 X119.265 Y96.198 E14.78467
G1 X117.735 Y96.198 E14.8478
G1 X116.249 Y96.564 E14.91095
G1 X114.893 Y97.276 E14.97415
G1 X113.747 Y98.29 E15.03729
G1 X112.878 Y99.55 E15.10045
G1 X112.336 Y100.981 E15.16359
G1 X112.152 Y102.5 E15.22673
G1 X112.336 Y104.019 E15.28986
G1 X112.878 Y105.45 E15.35301
G1 X113.747 Y106.71 E15.41616
G1 X114.893 Y107.724 E15.47931
G1 X116.249 Y108.436 E15.5425
G1 X117.735 Y108.802 E15.60565
M204 S3000
G0 F4200 X117.782 Y108.411
M204 S500
;TYPE:WALL-OUTER
G1 F1080 X119.218 Y108.411 E15.66491
G1 X120.611 Y108.068 E15.7241
G1 X121.883 Y107.4 E15.78339
G1 X122.958 Y106.449 E15.84261
G1 X123.773 Y105.267 E15.90186
G1 X124.282 Y103.925 E15.96108
G1 X124.454 Y102.5 E16.02031
G1 X124.282 Y101.075 E16.07953
G1 X123.773 Y99.733 E16.13876
G1 X122.958 Y98.551 E16.198
G1 X121.883 Y97.6 E16.25723
G1 X120.611 Y96.932 E16.31651
G1 X119.218 Y96.589 E16.37571
G1 X117.782 Y96.589 E16.43496
G1 X116.389 Y96.932 E16.49416
G1 X115.117 Y97.6 E16.55344
G1 X114.042 Y98.551 E16.61267
G1 X113.227 Y99.733 E16.67191
G1 X112.718 Y101.075 E16.73114
G1 X112.546 Y102.5 E16.79036
G1 X112.718 Y103.925 E16.84959
G1 X113.227 Y105.267 E16.90882
G1 X114.042 Y106.449 E16.96806
G1 X115.117 Y107.4 E17.02728
G1 X116.389 Y108.068 E17.08657
G1 X117.782 Y108.411 E17.14576
M204 S3000
G0 F4200 X117.982 Y108.411
G0 X117.982 Y108.847
G1 F3000 E12.14576
G0 F4200 X89.82 Y96.869
M204 S500
;TYPE:WALL-INNER
G1 F3000 E17.20813
G1 F1080 X90.439 Y96.716 E17.23444
G1 X91.005 Y96.419 E17.26081
G1 X91.483 Y95.996 E17.28715
G1 X91.846 Y95.47 E17.31352
G1 X92.073 Y94.874 E17.33984
G1 X92.148 Y94.24 E17.36618
G1 X92.073 Y93.606 E17.39253
G1 X91.846 Y93.01 E17.41884
G1 X91.483 Y92.484 E17.44521
G1 X91.005 Y92.061 E17.47155
G1 X90.439 Y91.764 E17.49793
G1 X89.82 Y91.611 E17.52424
G1 X89.18 Y91.611 E17.55065
G1 X88.561 Y91.764 E17.57696
G1 X87.995 Y92.061 E17.60333
G1 X87.517 Y92.484 E17.62967
G1 X87.154 Y93.01 E17.65604
G1 X86.927 Y93.606 E17.68236
G1 X86.852 Y94.24 E17.7087
G1 X86.927 Y94.874 E17.73504
G1 X87.154 Y95.47 E17.76136
G1 X87.517 Y95.996 E17.78773
G1 X87.995 Y96.419 E17.81407
G1 X88.561 Y96.716 E17.84044
G1 X89.18 Y96.869 E17.86676
G1 X89.82 Y96.869 E17.89316
M204 S3000
G0 F4200 X89.772 Y96.478
M204 S500
;TYPE:WALL-OUTER
G1 F1080 X90.299 Y96.348 E17.91556
G1 X90.781 Y96.095 E17.93802
G1 X91.188 Y95.735 E17.96044
G1 X91.497 Y95.287 E17.9829
G1 X91.69 Y94.78 E18.00529
G1 X91.754 Y94.24 E18.02772
G1 X91.69 Y93.7 E18.05016
G1 X91.497 Y93.193 E18.07255
G1 X91.188 Y92.745 E18.095
G1 X90.781 Y92.385 E18.11743
G1 X90.299 Y92.132 E18.13989
G1 X89.772 Y92.002 E18.16229
G1 X89.228 Y92.002 E18.18473
G1 X88.701 Y92.132 E18.20713
G1 X88.219 Y92.385 E18.22959
G1 X87.812 Y92.745 E18.25201
G1 X87.503 Y93.193 E18.27447
G1 X87.31 Y93.7 E18.29686
G1 X87.246 Y94.24 E18.31929
G1 X87.31 Y94.78 E18.34173
G1 X87.503 Y95.287 E18.36412
G1 X87.812 Y95.735 E18.38657
G1 X88.219 Y96.095 E18.409
G1 X88.701 Y96.348 E18.43146
G1 X89.228 Y96.478 E18.45386
G1 X89.772 Y96.478 E18.4763
M204 S3000
G0 F4200 X89.966 Y96.431
G0 X90.069 Y96.854
G1 F3000 E13.4763
G0 F4200 X83.82 Y96.869
M204 S500
;TYPE:WALL-INNER
G1 F3000 E18.53867
G1 F1080 X84.439 Y96.716 E18.56498
G1 X85.005 Y96.419 E18.59135
G1 X85.483 Y95.996 E18.61769
G1 X85.846 Y95.47 E18.64406
G1 X86.073 Y94.874 E18.67038
G1 X86.148 Y94.24 E18.69672
G1 X86.073 Y93.606 E18.72306
G1 X85.846 Y93.01 E18.74938
G1 X85.483 Y92.484 E18.77575
G1 X85.005 Y92.061 E18.80209
G1 X84.439 Y91.764 E18.82846
G1 X83.82 Y91.611 E18.85477
G1 X83.18 Y91.611 E18.88118
G1 X82.561 Y91.764 E18.90749
G1 X81.995 Y92.061 E18.93387
G1 X81.517 Y92.484 E18.96021
G1 X81.154 Y93.01 E18.98658
G1 X80.927 Y93.606 E19.01289
G1 X80.852 Y94.24 E19.03924
G1 X80.927 Y94.874 E19.06558
G1 X81.154 Y95.47 E19.0919
G1 X81.517 Y95.996 E19.11827
G1 X81.995 Y96.419 E19.14461
G1 X82.561 Y96.716 E19.17098
G1 X83.18 Y96.869 E19.19729
G1 X83.82 Y96.869 E19.2237
M204 S3000
G0 F4200 X83.772 Y96.478
M204 S500
;TYPE:WALL-OUTER
G1 F1080 X84.299 Y96.348 E19.2461
G1 X84.781 Y96.095 E19.26856
G1 X85.188 Y95.735 E19.29098
G1 X85.497 Y95.287 E19.31344
G1 X85.69 Y94.78 E19.33582
G1 X85.754 Y94.24 E19.35826
G1 X85.69 Y93.7 E19.3807
G1 X85.497 Y93.193 E19.40309
G1 X85.188 Y92.745 E19.42554
G1 X84.781 Y92.385 E19.44796
G1 X84.299 Y92.132 E19.47043
G1 X83.772 Y92.002 E19.49282
G1 X83.228 Y92.002 E19.51527
G1 X82.701 Y92.132 E19.53767
G1 X82.219 Y92.385 E19.56013
G1 X81.812 Y92.745 E19.58255
G1 X81.503 Y93.193 E19.60501
G1 X81.31 Y93.7 E19.62739
G1 X81.246 Y94.24 E19.64983
G1 X81.31 Y94.78 E19.67227
G1 X81.503 Y95.287 E19.69466
G1 X81.812 Y95.735 E19.71711
G1 X82.219 Y96.095 E19.73953
G1 X82.701 Y96.348 E19.762
G1 X83.228 Y96.478 E19.78439
G1 X83.772 Y96.478 E19.80684
M204 S3000
G0 F4200 X83.966 Y96.431
G0 X84.069 Y96.854
G1 F3000 E14.80684
G0 F4200 X83.82 Y113.389
M204 S500
;TYPE:WALL-INNER
G1 F3000 E19.8692
G1 F1080 X84.439 Y113.236 E19.89551
G1 X85.005 Y112.939 E19.92189
G1 X85.483 Y112.516 E19.94823
G1 X85.846 Y111.99 E19.9746
G1 X86.073 Y111.394 E20.00091
G1 X86.148 Y110.76 E20.02726
G1 X86.073 Y110.126 E20.0536
G1 X85.846 Y109.53 E20.07992
G1 X85.483 Y109.004 E20.10629
G1 X85.005 Y108.581 E20.13263
G1 X84.439 Y108.284 E20.159
G1 X83.82 Y108.131 E20.18531
G1 X83.18 Y108.131 E20.21172
G1 X82.561 Y108.284 E20.23803
G1 X81.995 Y108.581 E20.26441
G1 X81.517 Y109.004 E20.29075
G1 X81.154 Y109.53 E20.31712
G1 X80.927 Y110.126 E20.34343
G1 X80.852 Y110.76 E20.36978
G1 X80.927 Y111.394 E20.39612
G1 X81.154 Y111.99 E20.42244
G1 X81.517 Y112.516 E20.44881
G1 X81.995 Y112.939 E20.47515
G1 X82.561 Y113.236 E20.50152
G1 X83.18 Y113.389 E20.52783
G1 X83.82 Y113.389 E20.55424
M204 S3000
G0 F4200 X83.772 Y112.998
M204 S500
;TYPE:WALL-OUTER
G1 F1080 X84.299 Y112.868 E20.57664
G1 X84.781 Y112.615 E20.5991
G1 X85.188 Y112.255 E20.62152
G1 X85.497 Y111.807 E20.64398
G1 X85.69 Y111.3 E20.66636
G1 X85.754 Y110.76 E20.6888
G1 X85.69 Y110.22 E20.71124
G1 X85.497 Y109.713 E20.73362
G1 X85.188 Y109.265 E20.75608
G1 X84.781 Y108.905 E20.7785
G1 X84.299 Y108.652 E20.80096
G1 X83.772 Y108.522 E20.82336
G1 X83.228 Y108.522 E20.84581
G1 X82.701 Y108.652 E20.86821
G1 X82.219 Y108.905 E20.89067
G1 X81.812 Y109.265 E20.91309
G1 X81.503 Y109.713 E20.93555
G1 X81.31 Y110.22 E20.95793
G1 X81.246 Y110.76 E20.98037
G1 X81.31 Y111.3 E21.00281
G1 X81.503 Y111.807 E21.02519
G1 X81.812 Y112.255 E21.04765
G1 X82.219 Y112.615 E21.07007
G1 X82.701 Y112.868 E21.09253
G1 X83.228 Y112.998 E21.11493
G1 X83.772 Y112.998 E21.13738
M204 S3000
G0 F4200 X83.966 Y112.951
G0 X84.069 Y113.374
G1 F3000 E16.13738
G0 F4200 X89.82 Y113.389
M204 S500
;TYPE:WALL-INNER
G1 F3000 E21.19974
G1 F1080 X90.439 Y113.236 E21.22605
G1 X91.005 Y112.939 E21.25243
G1 X91.483 Y112.516 E21.27876
G1 X91.846 Y111.99 E21.30514
G1 X92.073 Y111.394 E21.33145
G1 X92.148 Y110.76 E21.3578
G1 X92.073 Y110.126 E21.38414
G1 X91.846 Y109.53 E21.41046
G1 X91.483 Y109.004 E21.43683
G1 X91.005 Y108.581 E21.46316
G1 X90.439 Y108.284 E21.48954
G1 X89.82 Y108.131 E21.51585
G1 X89.18 Y108.131 E21.54226
G1 X88.561 Y108.284 E21.56857
G1 X87.995 Y108.581 E21.59495
G1 X87.517 Y109.004 E21.62128
G1 X87.154 Y109.53 E21.64765
G1 X86.927 Y110.126 E21.67397
G1 X86.852 Y110.76 E21.70031
G1 X86.927 Y111.394 E21.72666
G1 X87.154 Y111.99 E21.75297
G1 X87.517 Y112.516 E21.77935
G1 X87.995 Y112.939 E21.80568
G1 X88.561 Y113.236 E21.83206
G1 X89.18 Y113.389 E21.85837
G1 X89.82 Y113.389 E21.88478
M204 S3000
G0 F4200 X89.772 Y112.998
M204 S500
;TYPE:WALL-OUTER
G1 F1080 X90.299 Y112.868 E21.90718
G1 X90.781 Y112.615 E21.92964
G1 X91.188 Y112.255 E21.95206
G1 X91.497 Y111.807 E21.97452
G1 X91.69 Y111.3 E21.9969
G1 X91.754 Y110.76 E22.01934
G1 X91.69 Y110.22 E22.04178
G1 X91.497 Y109.713 E22.06416
G1 X91.188 Y109.265 E22.08662
G1 X90.781 Y108.905 E22.10904
G1 X90.299 Y108.652 E22.1315
G1 X89.772 Y108.522 E22.1539
G1 X89.228 Y108.522 E22.17635
G1 X88.701 Y108.652 E22.19874
G1 X88.219 Y108.905 E22.22121
G1 X87.812 Y109.265 E22.24363
G1 X87.503 Y109.713 E22.26608
G1 X87.31 Y110.22 E22.28847
G1 X87.246 Y110.76 E22.31091
G1 X87.31 Y111.3 E22.33335
G1 X87.503 Y111.807 E22.35573
G1 X87.812 Y112.255 E22.37819
