;FLAVOR:Marlin
;TIME:6210
;Filament used: 5.02433m
;Layer height: 0.2
;MINX:22.499
;MINY:44.454
;MINZ:0.25
;MAXX:135.025
;MAXY:165.546
;MAXZ:14.85
;Generated with Cura_SteamEngine 4.7.1
M140 S60
M105
M190 S60
M104 S200
M105
M109 S200
M82 ;absolute extrusion mode
; Script based on an original created by tjjfvi (https://github.com/tjjfvi)
; An up-to-date version of the tjjfvi's original script can be found
; here:  https://csi.t6.fyi/
; Note - This script will only work in Cura V4.2 and above!
; --- Global Settings
; layer_height = 0.2
; smooth_spiralized_contours = True
; magic_mesh_surface_mode = normal
; machine_extruder_count = 1
; --- Single Extruder Settings
; speed_z_hop = 10
; retraction_amount = 5
; retraction_hop = 0.075
; retraction_hop_enabled = True
; retraction_enable = True
; retraction_speed = 50
; retraction_retract_speed = 50
; retraction_prime_speed = 50
; speed_travel = 120

G21 ;metric values
G90 ;absolute positioning
M82 ;set extruder to absolute mode
M107 ;start with the fan off
G28 X0 Y0 ;move X/Y to min endstops
G28 Z0 ;move Z to min endstops
G1 Z15.0 F120 ;move the platform down 15mm
G92 E0 ;zero the extruded length
G1 F200 E3 ;extrude 3mm of feed stock
G92 E0 ;zero the extruded length again
G1 F120
G0 Y20 F120
M117 Printing...
G5
G92 E0
G92 E0
G1 F3000 E-5
;LAYER_COUNT:74
;LAYER:0
M106 S51
M204 S3000
M205 X10 Y10
G1 F600 Z0.325
G0 F4200 X36.576 Y76.78 Z0.325
M204 S500
;TYPE:SKIRT
G1 F600 Z0.25
G1 F3000 E0.06236
G1 F1800 X37.653 Y76.294 E0.11112
G1 X38.233 Y76.041 E0.13723
G1 X40.71 Y74.875 E0.2502
G1 X43.147 Y73.642 E0.36289
G1 X45.552 Y72.339 E0.47576
G1 X47.886 Y70.986 E0.58708
G1 X50.232 Y69.538 E0.70084
G1 X52.466 Y68.071 E0.81112
G1 X54.748 Y66.476 E0.926
G1 X56.909 Y64.875 E1.03698
G1 X59.087 Y63.162 E1.15132
G1 X61.14 Y61.451 E1.26159
G1 X63.203 Y59.631 E1.37511
G1 X65.199 Y57.769 E1.48775
G1 X67.133 Y55.856 E1.6
G1 X69.037 Y53.866 E1.71364
G1 X70.845 Y51.866 E1.82489
G1 X72.607 Y49.803 E1.93684
G1 X74.334 Y47.66 E2.05041
G1 X75.455 Y46.187 E2.12679
G1 X75.734 Y45.833 E2.14539
G1 X76.096 Y45.438 E2.1675
G1 X76.513 Y45.101 E2.18962
G1 X76.975 Y44.83 E2.21172
G1 X77.473 Y44.631 E2.23385
G1 X77.994 Y44.507 E2.25595
G1 X78.78 Y44.455 E2.28845
G1 X117.842 Y44.454 E3.90028
G1 X118.524 Y44.464 E3.92843
G1 X118.725 Y44.473 E3.93673
G1 X119.548 Y44.532 E3.97077
G1 X120.475 Y44.613 E4.00917
G1 X121.078 Y44.674 E4.03418
G1 X121.592 Y44.764 E4.05571
G1 X122.444 Y44.978 E4.09196
G1 X123.237 Y45.191 E4.12584
G1 X123.877 Y45.372 E4.15329
G1 X124.366 Y45.549 E4.17475
G1 X125.205 Y45.925 E4.21268
G1 X125.884 Y46.242 E4.2436
G1 X126.508 Y46.543 E4.27219
G1 X126.961 Y46.804 E4.29376
G1 X127.708 Y47.309 E4.33097
G1 X128.305 Y47.727 E4.36104
G1 X128.907 Y48.161 E4.39167
G1 X129.307 Y48.495 E4.41317
G1 X129.911 Y49.08 E4.44787
G1 X130.515 Y49.685 E4.48314
G1 X130.968 Y50.151 E4.50996
G1 X131.301 Y50.547 E4.53131
G1 X131.84 Y51.292 E4.56925
G1 X132.26 Y51.891 E4.59944
G1 X132.672 Y52.499 E4.62974
G1 X132.927 Y52.94 E4.65076
G1 X133.322 Y53.751 E4.68799
G1 X133.643 Y54.44 E4.71935
G1 X133.932 Y55.083 E4.74844
G1 X134.11 Y55.572 E4.76991
G1 X134.348 Y56.407 E4.80574
G1 X134.544 Y57.14 E4.83705
G1 X134.723 Y57.848 E4.86718
G1 X134.813 Y58.355 E4.88843
G1 X134.907 Y59.25 E4.92556
G1 X134.976 Y60.055 E4.9589
G1 X135.024 Y60.7 E4.98559
G1 X135.025 Y61.221 E5.00709
G1 X134.959 Y62.14 E5.04511
G1 X134.888 Y62.953 E5.07878
G1 X134.819 Y63.62 E5.10645
G1 X134.756 Y64.014 E5.12292
G1 X134.565 Y64.891 E5.15995
G1 X134.366 Y65.737 E5.19581
G1 X133.822 Y68.395 E5.30777
G1 X133.348 Y71.096 E5.42092
G1 X132.953 Y73.794 E5.53344
G1 X132.637 Y76.478 E5.64495
G1 X132.392 Y79.231 E5.759
G1 X132.229 Y81.92 E5.87016
G1 X132.141 Y84.651 E5.98291
G1 X132.129 Y87.382 E6.0956
G1 X132.196 Y90.115 E6.20841
G1 X132.339 Y92.837 E6.32088
G1 X132.556 Y95.512 E6.43162
G1 X132.862 Y98.31 E6.54777
G1 X133.043 Y99.686 E6.60503
G1 X133.222 Y100.98 E6.65894
G1 X133.395 Y102.415 E6.71858
G1 X133.463 Y103.041 E6.74456
G1 X133.483 Y103.366 E6.758
G1 X133.501 Y104.401 E6.80071
G1 X133.501 Y105.843 E6.86021
G1 X133.492 Y106.474 E6.88625
G1 X133.473 Y106.792 E6.8994
G1 X133.363 Y107.853 E6.94341
G1 X133.194 Y109.246 E7.00131
G1 X133.007 Y110.628 E7.05886
G1 X132.675 Y113.377 E7.17312
G1 X132.424 Y116.097 E7.28583
G1 X132.25 Y118.825 E7.39863
G1 X132.154 Y121.553 E7.51126
G1 X132.133 Y124.286 E7.62404
G1 X132.19 Y126.978 E7.73514
G1 X132.327 Y129.741 E7.84929
G1 X132.537 Y132.433 E7.96071
G1 X132.824 Y135.131 E8.07267
G1 X133.189 Y137.842 E8.18554
G1 X133.635 Y140.555 E8.29899
G1 X134.15 Y143.22 E8.411
G1 X134.459 Y144.613 E8.46987
G1 X134.477 Y144.742 E8.47525
G1 X134.745 Y145.939 E8.52586
G1 X134.813 Y146.352 E8.54313
G1 X134.906 Y147.255 E8.58059
G1 X134.976 Y148.054 E8.61369
G1 X135.024 Y148.7 E8.64042
G1 X135.025 Y149.22 E8.66187
G1 X134.959 Y150.141 E8.69997
G1 X134.893 Y150.894 E8.73117
G1 X134.821 Y151.595 E8.76024
G1 X134.732 Y152.102 E8.78148
G1 X134.509 Y152.992 E8.81934
G1 X134.316 Y153.709 E8.84998
G1 X134.129 Y154.373 E8.87845
G1 X133.951 Y154.865 E8.90004
G1 X133.571 Y155.715 E8.93846
G1 X133.253 Y156.397 E8.96951
G1 X132.962 Y157.001 E8.99717
G1 X132.701 Y157.454 E9.01874
G1 X132.176 Y158.23 E9.0574
G1 X131.771 Y158.807 E9.08649
G1 X131.341 Y159.405 E9.11688
G1 X131.004 Y159.808 E9.13856
G1 X130.402 Y160.429 E9.17425
G1 X129.812 Y161.018 E9.20865
G1 X129.343 Y161.473 E9.23561
G1 X128.952 Y161.802 E9.2567
G1 X128.237 Y162.32 E9.29313
G1 X127.571 Y162.787 E9.3267
G1 X127.003 Y163.172 E9.35501
G1 X126.558 Y163.429 E9.37621
G1 X125.761 Y163.816 E9.41277
G1 X125.087 Y164.13 E9.44345
G1 X124.417 Y164.431 E9.47376
G1 X123.93 Y164.609 E9.49516
G1 X123.054 Y164.858 E9.53274
G1 X122.306 Y165.059 E9.5647
G1 X121.666 Y165.222 E9.59195
G1 X121.147 Y165.314 E9.6137
G1 X120.258 Y165.405 E9.65057
G1 X119.41 Y165.479 E9.6857
G1 X118.8 Y165.524 E9.71094
G1 X118.589 Y165.534 E9.71965
G1 X117.794 Y165.546 E9.75246
G1 X79.206 Y165.546 E11.34473
G1 X78.504 Y165.536 E11.3737
G1 X77.97 Y165.488 E11.39582
G1 X77.449 Y165.362 E11.41794
G1 X76.953 Y165.159 E11.44006
G1 X76.492 Y164.885 E11.46219
G1 X76.077 Y164.546 E11.4843
G1 X75.695 Y164.12 E11.50791
G1 X75.064 Y163.292 E11.55086
G1 X73.381 Y161.148 E11.66333
G1 X71.648 Y159.065 E11.77514
G1 X69.818 Y156.988 E11.88937
G1 X67.974 Y155.011 E12.00092
G1 X66.071 Y153.08 E12.11279
G1 X64.092 Y151.185 E12.22585
G1 X62.074 Y149.358 E12.33818
G1 X59.993 Y147.58 E12.45112
G1 X57.873 Y145.868 E12.56356
G1 X55.725 Y144.235 E12.6749
G1 X53.477 Y142.622 E12.78907
G1 X51.237 Y141.109 E12.90061
G1 X48.915 Y139.634 E13.01412
G1 X46.592 Y138.25 E13.1257
G1 X44.204 Y136.917 E13.23855
G1 X41.791 Y135.656 E13.35089
G1 X39.319 Y134.454 E13.46431
G1 X36.849 Y133.339 E13.57614
G1 X36.608 Y133.233 E13.587
G1 X36.135 Y132.981 E13.60912
G1 X35.705 Y132.662 E13.63121
G1 X35.326 Y132.282 E13.65335
G1 X35.022 Y131.871 E13.67445
G1 X34.327 Y130.776 E13.72796
G1 X32.864 Y128.535 E13.8384
G1 X31.289 Y126.267 E13.95233
G1 X29.688 Y124.094 E14.06371
G1 X29.289 Y123.585 E14.0904
G1 X28.578 Y122.653 E14.13877
G1 X28.51 Y122.561 E14.14349
G1 X27.854 Y121.64 E14.19014
G1 X27.04 Y120.456 E14.24943
G1 X26.685 Y119.925 E14.27579
G1 X26.517 Y119.648 E14.28916
G1 X26.014 Y118.725 E14.33253
G1 X25.355 Y117.463 E14.39128
G1 X25.062 Y116.882 E14.41813
G1 X24.933 Y116.595 E14.43111
G1 X24.563 Y115.667 E14.47234
G1 X24.054 Y114.319 E14.53179
G1 X23.822 Y113.676 E14.56
G1 X23.729 Y113.377 E14.57292
G1 X23.468 Y112.39 E14.61505
G1 X23.119 Y110.971 E14.67534
G1 X22.978 Y110.361 E14.70118
G1 X22.92 Y110.046 E14.71439
G1 X22.777 Y109.012 E14.75747
G1 X22.608 Y107.618 E14.81541
G1 X22.535 Y106.937 E14.84367
G1 X22.516 Y106.617 E14.8569
G1 X22.499 Y105.634 E14.89747
G1 X22.499 Y104.157 E14.95841
G1 X22.508 Y103.526 E14.98445
G1 X22.527 Y103.208 E14.9976
G1 X22.637 Y102.146 E15.04165
G1 X22.81 Y100.722 E15.10084
G1 X22.893 Y100.111 E15.12629
G1 X22.949 Y99.801 E15.13929
G1 X23.18 Y98.781 E15.18244
G1 X23.52 Y97.394 E15.24137
G1 X23.683 Y96.771 E15.26794
G1 X23.777 Y96.467 E15.28107
G1 X24.14 Y95.453 E15.32551
G1 X24.648 Y94.11 E15.38476
G1 X24.876 Y93.533 E15.41036
G1 X25.003 Y93.248 E15.42324
G1 X25.456 Y92.342 E15.46503
G1 X26.121 Y91.072 E15.52419
G1 X26.441 Y90.482 E15.55188
G1 X26.6 Y90.216 E15.56467
G1 X27.185 Y89.331 E15.60844
G1 X27.988 Y88.164 E15.6669
G1 X28.402 Y87.58 E15.69644
G1 X28.716 Y87.161 E15.71804
G1 X30.002 Y85.498 E15.80479
G1 X31.591 Y83.32 E15.91603
G1 X33.136 Y81.069 E16.02869
G1 X35.019 Y78.132 E16.17265
G1 X35.181 Y77.899 E16.18436
G1 X35.534 Y77.496 E16.20647
G1 X35.943 Y77.149 E16.2286
G1 X36.576 Y76.78 E16.25883
M204 S3000
G0 F4200 X36.74 Y77.142
M204 S500
G1 F1800 X37.812 Y76.658 E16.30737
G1 X38.413 Y76.396 E16.33442
G1 X40.881 Y75.234 E16.44698
G1 X43.31 Y74.005 E16.55931
G1 X45.736 Y72.691 E16.67315
G1 X48.116 Y71.311 E16.78668
G1 X50.422 Y69.888 E16.89849
G1 X52.706 Y68.388 E17.01124
G1 X54.968 Y66.808 E17.12509
G1 X57.164 Y65.18 E17.23789
G1 X59.326 Y63.48 E17.35138
G1 X61.413 Y61.74 E17.4635
G1 X63.475 Y59.921 E17.57696
G1 X65.469 Y58.061 E17.68948
G1 X67.419 Y56.133 E17.80263
G1 X69.303 Y54.163 E17.91511
G1 X71.16 Y52.109 E18.02937
G1 X72.906 Y50.064 E18.14032
G1 X74.645 Y47.905 E18.25472
G1 X75.767 Y46.433 E18.33109
G1 X76.046 Y46.079 E18.34969
G1 X76.389 Y45.708 E18.37054
G1 X76.786 Y45.395 E18.3914
G1 X77.228 Y45.15 E18.41225
G1 X77.703 Y44.976 E18.43312
G1 X78.199 Y44.88 E18.45397
G1 X78.791 Y44.852 E18.47843
G1 X117.836 Y44.851 E20.08955
G1 X118.518 Y44.861 E20.1177
G1 X118.697 Y44.869 E20.12509
G1 X119.513 Y44.927 E20.15885
G1 X120.435 Y45.008 E20.19704
G1 X121.038 Y45.069 E20.22205
G1 X121.495 Y45.149 E20.24119
G1 X122.396 Y45.376 E20.27953
G1 X123.129 Y45.573 E20.31085
G1 X123.769 Y45.754 E20.3383
G1 X124.204 Y45.912 E20.35739
G1 X125.037 Y46.285 E20.39505
G1 X125.712 Y46.6 E20.42579
G1 X126.336 Y46.901 E20.45438
G1 X126.739 Y47.133 E20.47357
G1 X127.48 Y47.634 E20.51047
G1 X128.111 Y48.077 E20.54229
G1 X128.675 Y48.483 E20.57096
G1 X129.031 Y48.78 E20.59009
G1 X129.593 Y49.324 E20.62237
G1 X130.231 Y49.962 E20.6596
G1 X130.684 Y50.428 E20.68642
G1 X130.98 Y50.78 E20.70539
G1 X131.486 Y51.478 E20.74097
G1 X131.931 Y52.113 E20.77296
G1 X132.343 Y52.721 E20.80327
G1 X132.571 Y53.114 E20.82202
G1 X132.962 Y53.918 E20.85891
G1 X133.281 Y54.603 E20.89009
G1 X133.57 Y55.246 E20.91918
G1 X133.729 Y55.681 E20.93829
G1 X133.952 Y56.464 E20.97188
G1 X134.159 Y57.237 E21.0049
G1 X134.338 Y57.945 E21.03504
G1 X134.419 Y58.396 E21.05394
G1 X134.511 Y59.285 E21.09082
G1 X134.58 Y60.085 E21.12395
G1 X134.628 Y60.73 E21.15064
G1 X134.629 Y61.193 E21.16975
G1 X134.564 Y62.105 E21.20748
G1 X134.493 Y62.912 E21.2409
G1 X134.424 Y63.579 E21.26857
G1 X134.368 Y63.929 E21.2832
G1 X134.178 Y64.8 E21.31999
G1 X133.981 Y65.638 E21.35551
G1 X133.433 Y68.318 E21.46838
G1 X132.956 Y71.034 E21.58217
G1 X132.561 Y73.73 E21.6946
G1 X132.239 Y76.464 E21.80819
G1 X131.998 Y79.173 E21.92042
G1 X131.831 Y81.919 E22.03394
G1 X131.744 Y84.636 E22.14611
G1 X131.732 Y87.391 E22.25979
G1 X131.799 Y90.11 E22.37202
G1 X131.944 Y92.889 E22.48684
G1 X132.162 Y95.569 E22.5978
G1 X132.462 Y98.312 E22.71166
G1 X132.652 Y99.766 E22.77216
G1 X132.828 Y101.028 E22.82474
G1 X133 Y102.458 E22.88417
G1 X133.068 Y103.084 E22.91016
G1 X133.087 Y103.373 E22.92211
G1 X133.104 Y104.345 E22.96222
G1 X133.104 Y105.838 E23.02383
G1 X133.095 Y106.469 E23.04987
G1 X133.078 Y106.751 E23.06152
G1 X132.969 Y107.805 E23.10525
G1 X132.801 Y109.193 E23.16294
G1 X132.607 Y110.626 E23.22261
G1 X132.277 Y113.36 E23.33624
G1 X132.031 Y116.026 E23.44672
G1 X131.853 Y118.822 E23.56232
G1 X131.757 Y121.536 E23.67438
G1 X131.736 Y124.291 E23.78807
G1 X131.794 Y127.007 E23.90016
G1 X131.93 Y129.756 E24.01373
G1 X132.142 Y132.47 E24.12606
G1 X132.433 Y135.21 E24.23976
G1 X132.793 Y137.879 E24.35089
G1 X133.242 Y140.618 E24.46542
G1 X133.763 Y143.31 E24.57856
G1 X134.071 Y144.699 E24.63727
G1 X134.087 Y144.811 E24.64194
G1 X134.358 Y146.025 E24.69326
G1 X134.418 Y146.393 E24.70865
G1 X134.511 Y147.29 E24.74586
G1 X134.58 Y148.083 E24.77871
G1 X134.628 Y148.729 E24.80544
G1 X134.629 Y149.192 E24.82454
G1 X134.564 Y150.106 E24.86235
G1 X134.498 Y150.854 E24.89334
G1 X134.426 Y151.555 E24.92241
G1 X134.347 Y152.006 E24.94131
G1 X134.125 Y152.89 E24.97892
G1 X133.934 Y153.601 E25.00929
G1 X133.747 Y154.265 E25.03776
G1 X133.589 Y154.703 E25.05697
G1 X133.211 Y155.547 E25.09513
G1 X132.895 Y156.224 E25.12596
G1 X132.604 Y156.828 E25.15363
G1 X132.372 Y157.231 E25.17281
G1 X131.851 Y158.002 E25.21121
G1 X131.448 Y158.576 E25.24015
G1 X131.018 Y159.174 E25.27054
G1 X130.718 Y159.532 E25.28982
G1 X130.121 Y160.148 E25.32521
G1 X129.536 Y160.733 E25.35935
G1 X129.067 Y161.188 E25.38631
G1 X128.719 Y161.48 E25.40506
G1 X128.009 Y161.995 E25.44125
G1 X127.348 Y162.458 E25.47455
G1 X126.78 Y162.843 E25.50287
G1 X126.385 Y163.072 E25.52171
G1 X125.594 Y163.456 E25.55799
G1 X124.924 Y163.768 E25.58849
G1 X124.254 Y164.069 E25.61879
G1 X123.821 Y164.227 E25.63781
G1 X122.951 Y164.475 E25.67514
G1 X122.208 Y164.674 E25.70688
G1 X121.568 Y164.837 E25.73413
G1 X121.107 Y164.919 E25.75345
G1 X120.224 Y165.01 E25.79008
G1 X119.38 Y165.083 E25.82504
G1 X118.77 Y165.128 E25.85028
G1 X118.583 Y165.137 E25.858
G1 X117.788 Y165.149 E25.89081
G1 X79.211 Y165.149 E27.48263
G1 X78.509 Y165.139 E27.5116
G1 X78.006 Y165.092 E27.53244
G1 X77.517 Y164.966 E27.55328
G1 X77.053 Y164.764 E27.57416
G1 X76.627 Y164.493 E27.595
G1 X76.249 Y164.157 E27.61586
G1 X76.011 Y163.879 E27.63097
G1 X75.408 Y163.088 E27.67201
G1 X73.698 Y160.911 E27.78624
G1 X71.923 Y158.775 E27.90083
G1 X70.125 Y156.736 E28.01301
G1 X68.249 Y154.723 E28.12655
G1 X66.365 Y152.812 E28.23728
G1 X64.371 Y150.903 E28.35119
G1 X62.317 Y149.044 E28.4655
G1 X60.239 Y147.269 E28.57827
G1 X58.135 Y145.569 E28.68989
G1 X55.936 Y143.897 E28.80388
G1 X53.711 Y142.3 E28.91689
G1 X51.444 Y140.769 E29.02977
G1 X49.152 Y139.313 E29.14181
G1 X46.784 Y137.902 E29.25555
G1 X44.403 Y136.573 E29.36807
G1 X41.956 Y135.295 E29.48198
G1 X39.492 Y134.096 E29.59506
G1 X37.009 Y132.975 E29.70747
G1 X36.768 Y132.869 E29.71833
G1 X36.323 Y132.63 E29.73918
G1 X35.921 Y132.323 E29.76005
G1 X35.572 Y131.957 E29.78092
G1 X35.357 Y131.658 E29.79611
G1 X34.663 Y130.566 E29.8495
G1 X33.193 Y128.312 E29.96054
G1 X31.605 Y126.026 E30.0754
G1 X30.01 Y123.862 E30.18632
G1 X29.633 Y123.382 E30.21151
G1 X28.894 Y122.412 E30.26183
G1 X28.833 Y122.33 E30.26604
G1 X28.181 Y121.416 E30.31237
G1 X27.37 Y120.235 E30.37149
G1 X27.015 Y119.704 E30.39784
G1 X26.866 Y119.458 E30.40971
G1 X26.366 Y118.541 E30.45281
G1 X25.71 Y117.284 E30.51132
G1 X25.417 Y116.703 E30.53817
G1 X25.301 Y116.448 E30.54973
G1 X24.955 Y115.58 E30.58828
G1 X24.428 Y114.185 E30.64982
G1 X24.196 Y113.542 E30.67802
G1 X24.113 Y113.275 E30.68956
G1 X23.854 Y112.295 E30.73139
G1 X23.506 Y110.881 E30.79147
G1 X23.365 Y110.271 E30.81731
G1 X23.313 Y109.991 E30.82906
G1 X23.171 Y108.964 E30.87184
G1 X23.003 Y107.576 E30.92953
G1 X22.93 Y106.895 E30.95779
G1 X22.912 Y106.61 E30.96958
G1 X22.896 Y105.69 E31.00754
G1 X22.896 Y104.162 E31.07059
G1 X22.905 Y103.531 E31.09663
G1 X22.922 Y103.249 E31.10829
G1 X23.031 Y102.194 E31.15206
G1 X23.203 Y100.775 E31.21104
G1 X23.286 Y100.164 E31.23648
G1 X23.336 Y99.888 E31.24805
G1 X23.566 Y98.875 E31.29092
G1 X23.918 Y97.442 E31.35181
G1 X24.067 Y96.871 E31.37616
G1 X24.15 Y96.6 E31.38785
G1 X24.511 Y95.594 E31.43195
G1 X25.017 Y94.256 E31.49098
G1 X25.245 Y93.679 E31.51658
G1 X25.358 Y93.426 E31.52802
G1 X25.808 Y92.526 E31.56954
G1 X26.47 Y91.261 E31.62845
G1 X26.79 Y90.671 E31.65615
G1 X26.932 Y90.434 E31.66755
G1 X27.512 Y89.556 E31.71097
G1 X28.312 Y88.394 E31.76918
G1 X28.726 Y87.81 E31.79872
G1 X29.03 Y87.404 E31.81965
G1 X30.332 Y85.72 E31.90748
G1 X31.909 Y83.558 E32.0179
G1 X33.472 Y81.281 E32.13187
G1 X35.353 Y78.347 E32.27568
G1 X35.499 Y78.138 E32.2862
G1 X35.833 Y77.758 E32.30707
G1 X36.223 Y77.437 E32.32791
G1 X36.74 Y77.142 E32.35248
M204 S3000
G1 F3000 E27.35248
G0 F4200 X82.845 Y139.794
M204 S500
;TYPE:SUPPORT
G1 F3000 E32.41484
