;FLAVOR:Marlin
;TIME:2679
;Filament used: 2.49297m
;Layer height: 0.2
;MINX:70.841
;MINY:66.762
;MINZ:0.25
;MAXX:139.159
;MAXY:123.193
;MAXZ:19.85
;Generated with Cura_SteamEngine 4.7.1
M140 S60
M105
M190 S60
M104 S200
M105
M109 S200
M82 ;absolute extrusion mode
; Script based on an original created by tjjfvi (https://github.com/tjjfvi)
; An up-to-date version of the tjjfvi's original script can be found
; here:  https://csi.t6.fyi/
; Note - This script will only work in Cura V4.2 and above!
; --- Global Settings
; layer_height = 0.2
; smooth_spiralized_contours = True
; magic_mesh_surface_mode = normal
; machine_extruder_count = 1
; --- Single Extruder Settings
; speed_z_hop = 10
; retraction_amount = 5
; retraction_hop = 0.075
; retraction_hop_enabled = True
; retraction_enable = True
; retraction_speed = 50
; retraction_retract_speed = 50
; retraction_prime_speed = 50
; speed_travel = 120

G21 ;metric values
G90 ;absolute positioning
M82 ;set extruder to absolute mode
M107 ;start with the fan off
G28 X0 Y0 ;move X/Y to min endstops
G28 Z0 ;move Z to min endstops
G1 Z15.0 F120 ;move the platform down 15mm
G92 E0 ;zero the extruded length
G1 F200 E3 ;extrude 3mm of feed stock
G92 E0 ;zero the extruded length again
G1 F120
G0 Y20 F120
M117 Printing...
G5
G92 E0
G92 E0
G1 F3000 E-5
;LAYER_COUNT:99
;LAYER:0
M106 S51
M204 S3000
M205 X10 Y10
G1 F600 Z0.325
G0 F4200 X72.772 Y81.142 Z0.325
M204 S500
;TYPE:SKIRT
G1 F600 Z0.25
G1 F3000 E0.06236
G1 F1800 X73.306 Y80.702 E0.09091
G1 X73.922 Y80.307 E0.12111
G1 X74.721 Y79.861 E0.15887
G1 X75.639 Y79.364 E0.20194
G1 X77.94 Y78.035 E0.31159
G1 X80.213 Y76.634 E0.42176
G1 X80.539 Y76.42 E0.43786
G1 X81.583 Y75.755 E0.48893
G1 X82.188 Y75.418 E0.51751
G1 X82.827 Y75.152 E0.54607
G1 X83.492 Y74.962 E0.57461
G1 X83.955 Y74.877 E0.59403
G1 X84.785 Y74.759 E0.62862
G1 X85.981 Y74.605 E0.67838
G1 X88.615 Y74.19 E0.78841
G1 X91.219 Y73.704 E0.89772
G1 X93.808 Y73.144 E1.00702
G1 X96.378 Y72.513 E1.11621
G1 X98.939 Y71.805 E1.22585
G1 X101.501 Y71.019 E1.33643
G1 X104.02 Y70.167 E1.44616
G1 X106.501 Y69.25 E1.5553
G1 X108.976 Y68.254 E1.66539
G1 X109.952 Y67.825 E1.70938
G1 X110.011 Y67.801 E1.71201
G1 X111.295 Y67.253 E1.76961
G1 X111.946 Y67.019 E1.79816
G1 X112.62 Y66.861 E1.82673
G1 X113.446 Y66.775 E1.86099
G1 X114.132 Y66.762 E1.8893
G1 X116.113 Y66.762 E1.97105
G1 X116.9 Y66.773 E2.00352
G1 X117.591 Y66.822 E2.03211
G1 X118.271 Y66.951 E2.06067
G1 X118.931 Y67.158 E2.08921
G1 X119.564 Y67.439 E2.11779
G1 X120.159 Y67.792 E2.14634
G1 X120.896 Y68.377 E2.18516
G1 X121.983 Y69.388 E2.24642
G1 X122.561 Y69.936 E2.27928
G1 X124.527 Y71.696 E2.38816
G1 X126.577 Y73.429 E2.49893
G1 X128.639 Y75.077 E2.60785
G1 X130.776 Y76.686 E2.71823
G1 X132.934 Y78.217 E2.82741
G1 X135.162 Y79.705 E2.93796
G1 X135.893 Y80.168 E2.97367
G1 X136.438 Y80.525 E3.00055
G1 X136.994 Y80.937 E3.02911
G1 X137.5 Y81.41 E3.05769
G1 X137.947 Y81.938 E3.08623
G1 X138.33 Y82.515 E3.11481
G1 X138.644 Y83.131 E3.14334
G1 X138.885 Y83.78 E3.17191
G1 X139.05 Y84.452 E3.20046
G1 X139.146 Y85.355 E3.23793
G1 X139.159 Y85.864 E3.25894
G1 X139.158 Y89.223 E3.39754
G1 X139.148 Y89.947 E3.42742
G1 X139.099 Y90.637 E3.45597
G1 X138.97 Y91.317 E3.48453
G1 X138.653 Y92.252 E3.52526
G1 X138.162 Y93.382 E3.5761
G1 X137.984 Y93.776 E3.59394
G1 X136.957 Y96.237 E3.70398
G1 X136.011 Y98.694 E3.81262
G1 X135.116 Y101.237 E3.92386
G1 X134.306 Y103.761 E4.03324
G1 X133.563 Y106.322 E4.14327
G1 X132.891 Y108.911 E4.25364
G1 X132.304 Y111.471 E4.36202
G1 X131.79 Y114.029 E4.46968
G1 X131.333 Y116.709 E4.58186
G1 X131.111 Y118.123 E4.64092
G1 X130.964 Y118.799 E4.66947
G1 X130.74 Y119.454 E4.69803
G1 X130.442 Y120.079 E4.72661
G1 X130.074 Y120.665 E4.75516
G1 X129.641 Y121.205 E4.78372
G1 X129.149 Y121.691 E4.81226
G1 X128.603 Y122.118 E4.84086
G1 X128.013 Y122.478 E4.86938
G1 X127.384 Y122.768 E4.89796
G1 X126.727 Y122.984 E4.92649
G1 X126.048 Y123.122 E4.95509
G1 X125.359 Y123.182 E4.98362
G1 X124.87 Y123.193 E5.00381
G1 X85.413 Y123.192 E6.63193
G1 X84.714 Y123.181 E6.66078
G1 X84.023 Y123.13 E6.68937
G1 X83.344 Y123 E6.7179
G1 X82.683 Y122.793 E6.74648
G1 X82.051 Y122.51 E6.77505
G1 X81.456 Y122.157 E6.8036
G1 X80.906 Y121.738 E6.83213
G1 X80.407 Y121.257 E6.86073
G1 X79.968 Y120.723 E6.88925
G1 X79.593 Y120.141 E6.91782
G1 X79.287 Y119.52 E6.94639
G1 X79.055 Y118.868 E6.97495
G1 X78.875 Y118.037 E7.01003
G1 X78.856 Y117.907 E7.01545
G1 X78.436 Y115.244 E7.12669
G1 X77.943 Y112.61 E7.23727
G1 X77.384 Y110.032 E7.34612
G1 X76.75 Y107.457 E7.45555
G1 X76.046 Y104.91 E7.56458
G1 X75.249 Y102.316 E7.67656
G1 X74.411 Y99.841 E7.78438
G1 X73.484 Y97.338 E7.89452
G1 X72.483 Y94.852 E8.0051
G1 X71.382 Y92.329 E8.11869
G1 X71.326 Y92.197 E8.12461
G1 X71.093 Y91.545 E8.15318
G1 X70.937 Y90.871 E8.18173
G1 X70.852 Y90.024 E8.21685
G1 X70.841 Y89.536 E8.23699
G1 X70.842 Y86.122 E8.37787
G1 X70.852 Y85.45 E8.4056
G1 X70.902 Y84.76 E8.43414
G1 X71.031 Y84.08 E8.4627
G1 X71.238 Y83.419 E8.49128
G1 X71.52 Y82.787 E8.51984
G1 X71.873 Y82.192 E8.54839
G1 X72.292 Y81.641 E8.57695
G1 X72.772 Y81.142 E8.60552
M204 S3000
G0 F4200 X73.159 Y81.328
M204 S500
G1 F1800 X73.688 Y80.918 E8.63314
G1 X74.116 Y80.653 E8.65391
G1 X74.91 Y80.21 E8.69143
G1 X75.834 Y79.711 E8.73476
G1 X78.142 Y78.377 E8.84476
G1 X80.412 Y76.977 E8.95481
G1 X80.753 Y76.755 E8.9716
G1 X81.797 Y76.09 E9.02268
G1 X82.381 Y75.765 E9.05025
G1 X83 Y75.512 E9.07785
G1 X83.645 Y75.335 E9.10545
G1 X84.012 Y75.27 E9.12082
G1 X84.836 Y75.153 E9.15517
G1 X86.022 Y75 E9.20451
G1 X88.672 Y74.582 E9.31521
G1 X91.311 Y74.09 E9.42598
G1 X93.881 Y73.534 E9.53448
G1 X96.465 Y72.9 E9.64427
G1 X99.066 Y72.181 E9.75562
G1 X101.63 Y71.394 E9.86629
G1 X104.138 Y70.546 E9.97553
G1 X106.681 Y69.606 E10.08741
G1 X109.104 Y68.631 E10.19518
G1 X110.112 Y68.188 E10.24061
G1 X111.45 Y67.618 E10.30062
G1 X112.08 Y67.393 E10.32823
G1 X112.732 Y67.244 E10.35582
G1 X113.459 Y67.172 E10.38597
G1 X114.137 Y67.159 E10.41395
G1 X116.113 Y67.159 E10.49549
G1 X116.895 Y67.17 E10.52776
G1 X117.562 Y67.219 E10.55536
G1 X118.218 Y67.348 E10.58294
G1 X118.854 Y67.554 E10.61053
G1 X119.461 Y67.834 E10.63811
G1 X120.031 Y68.185 E10.66573
G1 X120.626 Y68.667 E10.69733
G1 X121.71 Y69.676 E10.75844
G1 X122.285 Y70.221 E10.79113
G1 X124.29 Y72.016 E10.90217
G1 X126.313 Y73.726 E11.01147
G1 X128.417 Y75.408 E11.12263
G1 X130.528 Y76.997 E11.23165
G1 X132.728 Y78.558 E11.34296
G1 X134.939 Y80.035 E11.45268
G1 X135.752 Y80.55 E11.49239
G1 X136.221 Y80.857 E11.51552
G1 X136.758 Y81.256 E11.54313
G1 X137.243 Y81.716 E11.57071
G1 X137.67 Y82.231 E11.59831
G1 X138.032 Y82.793 E11.6259
G1 X138.325 Y83.394 E11.65349
G1 X138.544 Y84.026 E11.68109
G1 X138.686 Y84.68 E11.7087
G1 X138.749 Y85.367 E11.73717
G1 X138.762 Y85.864 E11.75768
G1 X138.761 Y89.217 E11.89604
G1 X138.751 Y89.941 E11.92592
G1 X138.702 Y90.608 E11.95351
G1 X138.574 Y91.265 E11.98113
G1 X138.288 Y92.094 E12.01732
G1 X137.764 Y93.3 E12.07158
G1 X137.605 Y93.652 E12.08751
G1 X136.588 Y96.089 E12.19648
G1 X135.638 Y98.555 E12.30552
G1 X134.746 Y101.088 E12.41633
G1 X133.917 Y103.676 E12.52847
G1 X133.182 Y106.207 E12.63722
G1 X132.508 Y108.803 E12.74789
G1 X131.918 Y111.375 E12.85678
G1 X131.393 Y113.993 E12.96696
G1 X130.943 Y116.628 E13.07726
G1 X130.918 Y116.797 E13.08431
G1 X130.719 Y118.061 E13.13711
G1 X130.576 Y118.715 E13.16473
G1 X130.355 Y119.346 E13.19232
G1 X130.061 Y119.947 E13.21993
G1 X129.698 Y120.508 E13.2475
G1 X129.27 Y121.022 E13.2751
G1 X128.784 Y121.481 E13.30268
G1 X128.246 Y121.879 E13.3303
G1 X127.665 Y122.21 E13.35789
G1 X127.049 Y122.47 E13.38548
G1 X126.406 Y122.654 E13.41308
G1 X125.745 Y122.759 E13.44069
G1 X125.027 Y122.794 E13.47036
G1 X124.87 Y122.796 E13.47683
G1 X85.419 Y122.795 E15.10472
G1 X84.72 Y122.784 E15.13356
G1 X84.053 Y122.734 E15.16116
G1 X83.397 Y122.604 E15.18876
G1 X82.761 Y122.397 E15.21636
G1 X82.154 Y122.116 E15.24396
G1 X81.586 Y121.764 E15.27153
G1 X81.063 Y121.347 E15.29913
G1 X80.593 Y120.87 E15.32676
G1 X80.184 Y120.341 E15.35435
G1 X79.841 Y119.767 E15.38195
G1 X79.569 Y119.156 E15.40954
G1 X79.372 Y118.517 E15.43713
G1 X79.268 Y117.98 E15.4597
G1 X79.256 Y117.893 E15.46333
G1 X78.828 Y115.18 E15.57666
G1 X78.333 Y112.537 E15.68762
G1 X77.775 Y109.957 E15.79654
G1 X77.127 Y107.328 E15.90826
G1 X76.425 Y104.791 E16.01688
G1 X75.635 Y102.219 E16.12791
G1 X74.786 Y99.711 E16.23716
G1 X73.856 Y97.199 E16.34769
G1 X72.858 Y94.723 E16.45785
G1 X71.747 Y92.174 E16.57258
G1 X71.691 Y92.042 E16.5785
G1 X71.467 Y91.411 E16.60613
G1 X71.32 Y90.759 E16.63371
G1 X71.249 Y90.013 E16.66463
G1 X71.238 Y89.536 E16.68432
G1 X71.239 Y86.128 E16.82494
G1 X71.249 Y85.456 E16.85268
G1 X71.299 Y84.789 E16.88028
G1 X71.428 Y84.133 E16.90786
G1 X71.634 Y83.496 E16.93549
G1 X71.915 Y82.89 E16.96305
G1 X72.266 Y82.32 E16.99067
G1 X72.683 Y81.797 E17.01827
G1 X73.159 Y81.328 E17.04585
M204 S3000
G0 F4200 X73.545 Y81.521
M204 S500
G1 F1800 X74.309 Y81 E17.08401
G1 X75.099 Y80.559 E17.12134
G1 X76.017 Y80.063 E17.16439
G1 X78.371 Y78.702 E17.27659
G1 X80.6 Y77.328 E17.38464
G1 X80.966 Y77.09 E17.40266
G1 X82.01 Y76.425 E17.45373
G1 X82.574 Y76.113 E17.48033
G1 X83.172 Y75.873 E17.50692
G1 X84.068 Y75.663 E17.54489
G1 X84.887 Y75.547 E17.57902
G1 X86.064 Y75.395 E17.62799
G1 X88.736 Y74.974 E17.73961
G1 X91.397 Y74.478 E17.8513
G1 X93.981 Y73.919 E17.96039
G1 X96.569 Y73.284 E18.07035
G1 X99.174 Y72.564 E18.18187
G1 X101.737 Y71.777 E18.2925
G1 X104.298 Y70.911 E18.40406
G1 X106.789 Y69.99 E18.51364
G1 X109.287 Y68.985 E18.62475
G1 X110.272 Y68.552 E18.66915
G1 X111.606 Y67.983 E18.72899
G1 X112.214 Y67.767 E18.75561
G1 X112.843 Y67.629 E18.78219
G1 X113.473 Y67.569 E18.8083
G1 X114.141 Y67.556 E18.83587
G1 X116.113 Y67.556 E18.91724
G1 X116.889 Y67.567 E18.94926
G1 X117.532 Y67.616 E18.97587
G1 X118.164 Y67.744 E19.00248
G1 X118.774 Y67.949 E19.02904
G1 X119.355 Y68.229 E19.05565
G1 X119.897 Y68.578 E19.08225
G1 X120.356 Y68.958 E19.10684
G1 X121.437 Y69.964 E19.16777
G1 X122.027 Y70.524 E19.20133
G1 X124.013 Y72.301 E19.3113
G1 X126.07 Y74.04 E19.42245
G1 X128.174 Y75.722 E19.5336
G1 X130.287 Y77.312 E19.64271
G1 X132.499 Y78.882 E19.75464
G1 X134.717 Y80.364 E19.86471
G1 X135.534 Y80.882 E19.90463
G1 X136.003 Y81.189 E19.92776
G1 X136.52 Y81.575 E19.95438
G1 X136.985 Y82.022 E19.981
G1 X137.39 Y82.522 E20.00755
G1 X137.731 Y83.07 E20.03418
G1 X138.002 Y83.655 E20.06079
G1 X138.197 Y84.269 E20.08737
G1 X138.316 Y84.902 E20.11395
G1 X138.363 Y85.704 E20.1471
G1 X138.365 Y85.864 E20.1537
G1 X138.365 Y89.212 E20.29185
G1 X138.355 Y89.936 E20.32173
G1 X138.306 Y90.579 E20.34833
G1 X138.178 Y91.21 E20.3749
G1 X137.924 Y91.936 E20.40664
G1 X137.402 Y93.137 E20.46068
G1 X137.245 Y93.484 E20.47639
G1 X136.22 Y95.94 E20.58621
G1 X135.27 Y98.407 E20.69529
G1 X134.367 Y100.971 E20.80746
G1 X133.541 Y103.548 E20.91912
G1 X132.797 Y106.11 E21.02921
G1 X132.12 Y108.718 E21.14039
G1 X131.525 Y111.313 E21.25025
G1 X131.007 Y113.896 E21.35895
G1 X130.543 Y116.611 E21.47261
G1 X130.526 Y116.736 E21.47781
G1 X130.327 Y118 E21.53061
G1 X130.187 Y118.629 E21.5572
G1 X129.971 Y119.236 E21.58379
G1 X129.681 Y119.812 E21.6104
G1 X129.322 Y120.347 E21.63698
G1 X128.9 Y120.834 E21.66357
G1 X128.42 Y121.265 E21.69019
G1 X127.891 Y121.634 E21.7168
G1 X127.321 Y121.934 E21.74338
G1 X126.718 Y122.161 E21.76997
G1 X126.091 Y122.312 E21.79658
G1 X125.337 Y122.388 E21.82785
G1 X124.87 Y122.399 E21.84713
G1 X85.425 Y122.398 E23.47476
G1 X84.726 Y122.387 E23.50361
G1 X84.084 Y122.337 E23.53018
G1 X83.452 Y122.208 E23.55679
G1 X82.841 Y122.002 E23.5834
G1 X82.261 Y121.721 E23.60999
G1 X81.72 Y121.371 E23.63658
G1 X81.226 Y120.957 E23.66318
G1 X80.787 Y120.485 E23.68978
G1 X80.41 Y119.962 E23.71638
G1 X80.101 Y119.396 E23.74299
G1 X79.864 Y118.797 E23.76957
G1 X79.661 Y117.924 E23.80655
G1 X79.637 Y117.756 E23.81356
G1 X79.219 Y115.111 E23.92405
G1 X78.728 Y112.485 E24.03429
G1 X78.157 Y109.849 E24.14558
G1 X77.521 Y107.264 E24.25543
G1 X76.804 Y104.673 E24.36636
G1 X76.007 Y102.079 E24.47833
G1 X75.154 Y99.561 E24.58803
G1 X74.228 Y97.061 E24.69804
G1 X73.23 Y94.581 E24.80835
G1 X72.113 Y92.018 E24.92372
G1 X72.057 Y91.886 E24.92963
G1 X71.842 Y91.279 E24.9562
G1 X71.705 Y90.649 E24.98281
G1 X71.646 Y90.002 E25.00962
G1 X71.635 Y89.536 E25.02885
G1 X71.636 Y86.134 E25.16923
G1 X71.646 Y85.462 E25.19696
G1 X71.695 Y84.819 E25.22357
G1 X71.824 Y84.187 E25.25019
G1 X72.03 Y83.576 E25.27679
G1 X72.31 Y82.996 E25.30337
G1 X72.659 Y82.454 E25.32997
G1 X73.073 Y81.96 E25.35656
G1 X73.545 Y81.521 E25.38316
M204 S3000
G1 F3000 E20.38316
G0 F4200 X77.032 Y85.732
M204 S500
;TYPE:SUPPORT
G1 F3000 E25.44552
G1 F1080 X77.424 Y85.732 E25.4617
G1 X77.032 Y86.124 E25.48457
G1 X77.032 Y85.732 E25.50075
M204 S3000
G1 F3000 E20.50075
G0 F4200 X77.032 Y89.276
M204 S500
G1 F3000 E25.56311
G1 F1080 X77.424 Y89.668 E25.58599
G1 X77.032 Y89.668 E25.60216
G1 X77.032 Y89.276 E25.61834
M204 S3000
G1 F3000 E20.61834
G0 F4200 X113.728 Y79.907
M204 S500
G1 F3000 E25.6807
G1 F1080 X113.727 Y72.953 E25.96765
G1 X116.738 Y72.953 E26.09189
G1 X116.772 Y72.987 E26.09387
G1 X116.773 Y79.907 E26.37942
G1 X113.728 Y79.907 E26.50506
M204 S3000
G0 F4200 X114 Y79.76
M204 S500
G1 F1080 X114 Y73.1 E26.77988
M204 S3000
G0 F4200 X113.874 Y74
M204 S500
G1 F1080 X116.626 Y74 E26.89343
M204 S3000
G0 F4200 X116.626 Y75
M204 S500
G1 F1080 X113.874 Y75 E27.00699
M204 S3000
G0 F4200 X113.874 Y76
M204 S500
G1 F1080 X116.626 Y76 E27.12055
M204 S3000
G0 F4200 X116.626 Y77
M204 S500
G1 F1080 X113.874 Y77 E27.2341
M204 S3000
G0 F4200 X113.874 Y78
M204 S500
G1 F1080 X116.626 Y78 E27.34766
M204 S3000
G0 F4200 X116.626 Y79
M204 S500
G1 F1080 X113.874 Y79 E27.46122
M204 S3000
G0 F4200 X115 Y79.76
M204 S500
G1 F1080 X115 Y73.1 E27.73603
M204 S3000
G0 F4200 X116 Y73.1
M204 S500
G1 F1080 X116 Y79.76 E28.01085
M204 S3000
G1 F3000 E23.01085
G0 F4200 X132.576 Y85.732
M204 S500
G1 F3000 E28.07321
G1 F1080 X132.968 Y85.732 E28.08938
G1 X132.968 Y86.124 E28.10556
G1 X132.576 Y85.732 E28.12843
M204 S3000
G1 F3000 E23.12843
G0 F4200 X132.576 Y89.668
M204 S500
G1 F3000 E28.1908
G1 F1080 X132.968 Y89.276 E28.21367
G1 X132.968 Y89.668 E28.22985
G1 X132.576 Y89.668 E28.24602
M204 S3000
G1 F3000 E23.24602
;MESH:servo-shell.stl
G0 F4200 X124.606 Y116.606
M204 S500
;TYPE:WALL-INNER
G1 F3000 E28.30839
G1 F1080 X85.394 Y116.606 E29.9264
G1 X85.394 Y88.306 E31.09416
G1 X78.394 Y88.306 E31.383
G1 X78.394 Y87.094 E31.43301
G1 X85.394 Y87.094 E31.72186
G1 X85.394 Y81.394 E31.95706
G1 X124.606 Y81.394 E33.57508
G1 X124.606 Y87.094 E33.81028
G1 X131.606 Y87.094 E34.09912
G1 X131.606 Y88.306 E34.14913
G1 X124.606 Y88.306 E34.43797
G1 X124.606 Y116.606 E35.60573
M204 S3000
G0 F4200 X124.997 Y116.997
M204 S500
;TYPE:WALL-OUTER
G1 F1080 X85.003 Y116.997 E37.25601
G1 X85.003 Y88.697 E38.42377
G1 X78.003 Y88.697 E38.71261
G1 X78.003 Y86.703 E38.79489
G1 X85.003 Y86.703 E39.08373
G1 X85.003 Y81.003 E39.31893
G1 X124.997 Y81.003 E40.96922
G1 X124.997 Y86.703 E41.20442
G1 X131.997 Y86.703 E41.49327
G1 X131.997 Y88.697 E41.57554
G1 X124.997 Y88.697 E41.86439
G1 X124.997 Y116.997 E43.03214
M204 S3000
G0 F4200 X124.797 Y116.997
G0 X124.561 Y116.561
G0 X124.214 Y116.214
M204 S500
;TYPE:SKIN
G1 F1080 X85.786 Y116.214 E44.66174
G1 X85.786 Y87.914 E45.86185
G1 X78.786 Y87.914 E46.1587
G1 X78.786 Y87.486 E46.17685
G1 X85.786 Y87.486 E46.4737
G1 X85.786 Y81.786 E46.71542
G1 X124.214 Y81.786 E48.34502
G1 X124.214 Y87.486 E48.58674
G1 X131.214 Y87.486 E48.88358
G1 X131.214 Y87.914 E48.90173
G1 X124.214 Y87.914 E49.19858
G1 X124.214 Y116.214 E50.39869
M204 S3000
G1 F3000 E45.39869
G0 F4200 X131.016 Y87.742
M204 S500
G1 F3000 E50.46105
G1 F1080 X130.932 Y87.657 E50.46612
M204 S3000
G0 F4200 X130.439 Y87.742
M204 S500
G1 F1080 X130.355 Y87.657 E50.47119
M204 S3000
G0 F4200 X129.862 Y87.742
M204 S500
G1 F1080 X129.778 Y87.657 E50.47626
M204 S3000
G0 F4200 X129.285 Y87.742
M204 S500
G1 F1080 X129.201 Y87.657 E50.48132
M204 S3000
G0 F4200 X128.708 Y87.742
M204 S500
G1 F1080 X128.624 Y87.657 E50.48639
M204 S3000
G0 F4200 X128.131 Y87.742
M204 S500
