;FLAVOR:Marlin
;TIME:2857
;Filament used: 2.31676m
;Layer height: 0.2
;MINX:42.293
;MINY:94.291
;MINZ:0.25
;MAXX:167.707
;MAXY:134.705
;MAXZ:12.85
;Generated with Cura_SteamEngine 4.7.1
M140 S60
M105
M190 S60
M104 S200
M105
M109 S200
M82 ;absolute extrusion mode
; Script based on an original created by tjjfvi (https://github.com/tjjfvi)
; An up-to-date version of the tjjfvi's original script can be found
; here:  https://csi.t6.fyi/
; Note - This script will only work in Cura V4.2 and above!
; --- Global Settings
; layer_height = 0.2
; smooth_spiralized_contours = True
; magic_mesh_surface_mode = normal
; machine_extruder_count = 1
; --- Single Extruder Settings
; speed_z_hop = 10
; retraction_amount = 5
; retraction_hop = 0.075
; retraction_hop_enabled = True
; retraction_enable = True
; retraction_speed = 50
; retraction_retract_speed = 50
; retraction_prime_speed = 50
; speed_travel = 120

G21 ;metric values
G90 ;absolute positioning
M82 ;set extruder to absolute mode
M107 ;start with the fan off
G28 X0 Y0 ;move X/Y to min endstops
G28 Z0 ;move Z to min endstops
G1 Z15.0 F120 ;move the platform down 15mm
G92 E0 ;zero the extruded length
G1 F200 E3 ;extrude 3mm of feed stock
G92 E0 ;zero the extruded length again
G1 F120
G0 Y20 F120
M117 Printing...
G5
G92 E0
G92 E0
G1 F3000 E-5
;LAYER_COUNT:64
;LAYER:0
M106 S51
M204 S3000
M205 X10 Y10
G1 F600 Z0.325
G0 F4200 X45.852 Y94.727 Z0.325
M204 S500
;TYPE:SKIRT
G1 F600 Z0.25
G1 F3000 E0.06236
G1 F1800 X46.493 Y94.506 E0.09034
G1 X47.155 Y94.361 E0.1183
G1 X48.05 Y94.291 E0.15535
G1 X161.95 Y94.291 E4.85524
G1 X162.627 Y94.331 E4.88323
G1 X163.295 Y94.45 E4.91123
G1 X163.944 Y94.647 E4.93921
G1 X164.565 Y94.919 E4.96719
G1 X165.151 Y95.263 E4.99523
G1 X165.691 Y95.672 E5.02318
G1 X166.18 Y96.143 E5.05119
G1 X166.61 Y96.667 E5.07916
G1 X166.975 Y97.239 E5.10716
G1 X167.271 Y97.85 E5.13518
G1 X167.492 Y98.491 E5.16315
G1 X167.637 Y99.153 E5.19112
G1 X167.707 Y100.048 E5.22816
G1 X167.707 Y128.948 E6.42067
G1 X167.667 Y129.625 E6.44866
G1 X167.548 Y130.293 E6.47665
G1 X167.351 Y130.942 E6.50464
G1 X167.079 Y131.563 E6.53262
G1 X166.735 Y132.149 E6.56065
G1 X166.326 Y132.689 E6.58861
G1 X165.855 Y133.178 E6.61662
G1 X165.331 Y133.608 E6.64459
G1 X164.759 Y133.973 E6.67259
G1 X164.148 Y134.269 E6.70061
G1 X163.507 Y134.49 E6.72858
G1 X162.845 Y134.635 E6.75655
G1 X161.95 Y134.705 E6.79359
G1 X48.05 Y134.705 E11.49349
G1 X47.373 Y134.665 E11.52147
G1 X46.705 Y134.546 E11.54947
G1 X46.056 Y134.349 E11.57746
G1 X45.435 Y134.077 E11.60543
G1 X44.849 Y133.733 E11.63347
G1 X44.309 Y133.324 E11.66142
G1 X43.82 Y132.853 E11.68944
G1 X43.39 Y132.329 E11.71741
G1 X43.025 Y131.757 E11.74541
G1 X42.729 Y131.146 E11.77342
G1 X42.508 Y130.505 E11.8014
G1 X42.363 Y129.843 E11.82936
G1 X42.293 Y128.948 E11.86641
G1 X42.293 Y100.048 E13.05892
G1 X42.333 Y99.371 E13.0869
G1 X42.452 Y98.703 E13.1149
G1 X42.649 Y98.054 E13.14288
G1 X42.921 Y97.433 E13.17086
G1 X43.265 Y96.847 E13.1989
G1 X43.674 Y96.307 E13.22685
G1 X44.145 Y95.818 E13.25487
G1 X44.669 Y95.388 E13.28284
G1 X45.241 Y95.023 E13.31083
G1 X45.852 Y94.727 E13.33885
M204 S3000
G0 F4200 X46.218 Y95.011
M204 S500
G1 F1800 X46.845 Y94.825 E13.36584
G1 X47.491 Y94.717 E13.39286
G1 X48.05 Y94.688 E13.41596
G1 X161.95 Y94.688 E18.11586
G1 X162.603 Y94.728 E18.14285
G1 X163.247 Y94.847 E18.16987
G1 X163.871 Y95.044 E18.19688
G1 X164.467 Y95.316 E18.22391
G1 X165.025 Y95.658 E18.25091
G1 X165.537 Y96.065 E18.2779
G1 X165.996 Y96.532 E18.30492
G1 X166.394 Y97.051 E18.33191
G1 X166.726 Y97.615 E18.35891
G1 X166.987 Y98.216 E18.38595
G1 X167.173 Y98.843 E18.41294
G1 X167.281 Y99.489 E18.43996
G1 X167.31 Y100.048 E18.46306
G1 X167.31 Y128.948 E19.65557
G1 X167.27 Y129.601 E19.68257
G1 X167.151 Y130.245 E19.70959
G1 X166.954 Y130.869 E19.73659
G1 X166.682 Y131.465 E19.76363
G1 X166.34 Y132.023 E19.79063
G1 X165.933 Y132.535 E19.81762
G1 X165.466 Y132.994 E19.84464
G1 X164.947 Y133.392 E19.87163
G1 X164.383 Y133.724 E19.89863
G1 X163.782 Y133.985 E19.92567
G1 X163.155 Y134.171 E19.95266
G1 X162.509 Y134.279 E19.97968
G1 X161.95 Y134.308 E20.00278
G1 X48.05 Y134.308 E24.70268
G1 X47.397 Y134.268 E24.72967
G1 X46.753 Y134.149 E24.75669
G1 X46.129 Y133.952 E24.7837
G1 X45.533 Y133.68 E24.81073
G1 X44.975 Y133.338 E24.83773
G1 X44.463 Y132.931 E24.86472
G1 X44.004 Y132.464 E24.89174
G1 X43.606 Y131.945 E24.91873
G1 X43.274 Y131.381 E24.94573
G1 X43.013 Y130.78 E24.97277
G1 X42.827 Y130.153 E24.99976
G1 X42.719 Y129.507 E25.02678
G1 X42.69 Y128.948 E25.04988
G1 X42.69 Y100.048 E26.24239
G1 X42.73 Y99.395 E26.26939
G1 X42.849 Y98.751 E26.29641
G1 X43.046 Y98.127 E26.32341
G1 X43.318 Y97.531 E26.35045
G1 X43.66 Y96.973 E26.37745
G1 X44.067 Y96.461 E26.40444
G1 X44.534 Y96.002 E26.43146
G1 X45.053 Y95.604 E26.45845
G1 X45.617 Y95.272 E26.48545
G1 X46.218 Y95.011 E26.51249
M204 S3000
G0 F4200 X45.99 Y95.533
M204 S500
G1 F1800 X46.579 Y95.308 E26.53851
G1 X47.191 Y95.16 E26.56449
G1 X48.05 Y95.085 E26.60007
G1 X161.95 Y95.085 E31.29996
G1 X162.579 Y95.125 E31.32597
G1 X163.197 Y95.244 E31.35194
G1 X163.795 Y95.441 E31.37792
G1 X164.364 Y95.712 E31.40393
G1 X164.894 Y96.052 E31.42991
G1 X165.376 Y96.457 E31.45589
G1 X165.803 Y96.92 E31.48188
G1 X166.168 Y97.433 E31.50785
G1 X166.465 Y97.988 E31.53383
G1 X166.69 Y98.577 E31.55985
G1 X166.838 Y99.189 E31.58583
G1 X166.913 Y100.048 E31.62141
G1 X166.913 Y128.948 E32.81392
G1 X166.873 Y129.577 E32.83993
G1 X166.754 Y130.195 E32.86589
G1 X166.557 Y130.793 E32.89187
G1 X166.286 Y131.362 E32.91788
G1 X165.946 Y131.892 E32.94386
G1 X165.541 Y132.374 E32.96984
G1 X165.078 Y132.801 E32.99583
G1 X164.565 Y133.166 E33.02181
G1 X164.01 Y133.463 E33.04778
G1 X163.421 Y133.688 E33.0738
G1 X162.809 Y133.836 E33.09978
G1 X161.95 Y133.911 E33.13536
G1 X48.05 Y133.911 E37.83526
G1 X47.421 Y133.871 E37.86126
G1 X46.803 Y133.752 E37.88723
G1 X46.205 Y133.555 E37.91321
G1 X45.636 Y133.284 E37.93922
G1 X45.106 Y132.944 E37.9652
G1 X44.624 Y132.539 E37.99118
G1 X44.197 Y132.076 E38.01717
G1 X43.832 Y131.563 E38.04315
G1 X43.535 Y131.008 E38.06912
G1 X43.31 Y130.419 E38.09514
G1 X43.162 Y129.807 E38.12112
G1 X43.087 Y128.948 E38.1567
G1 X43.087 Y100.048 E39.34921
G1 X43.127 Y99.419 E39.37522
G1 X43.246 Y98.801 E39.40119
G1 X43.443 Y98.203 E39.42717
G1 X43.714 Y97.634 E39.45317
G1 X44.054 Y97.104 E39.47916
G1 X44.459 Y96.622 E39.50514
G1 X44.922 Y96.195 E39.53112
G1 X45.435 Y95.83 E39.5571
G1 X45.99 Y95.533 E39.58308
M204 S3000
G0 F4200 X46.359 Y95.807
M204 S500
G1 F1800 X46.934 Y95.62 E39.60803
G1 X47.528 Y95.512 E39.63294
G1 X48.05 Y95.482 E39.65451
G1 X161.95 Y95.482 E44.35441
G1 X162.553 Y95.522 E44.37935
G1 X163.145 Y95.641 E44.40426
G1 X163.716 Y95.837 E44.42917
G1 X164.257 Y96.107 E44.45412
G1 X164.757 Y96.446 E44.47905
G1 X165.207 Y96.848 E44.50395
G1 X165.601 Y97.306 E44.52888
G1 X165.931 Y97.812 E44.55381
G1 X166.191 Y98.357 E44.57872
G1 X166.378 Y98.932 E44.60367
G1 X166.486 Y99.526 E44.62858
G1 X166.516 Y100.048 E44.65016
G1 X166.516 Y128.948 E45.84267
G1 X166.476 Y129.551 E45.86761
G1 X166.357 Y130.143 E45.89252
G1 X166.161 Y130.714 E45.91743
G1 X165.891 Y131.255 E45.94238
G1 X165.552 Y131.755 E45.96731
G1 X165.15 Y132.205 E45.99221
G1 X164.692 Y132.599 E46.01714
G1 X164.186 Y132.929 E46.04207
G1 X163.641 Y133.189 E46.06698
G1 X163.066 Y133.376 E46.09193
G1 X162.472 Y133.484 E46.11684
G1 X161.95 Y133.514 E46.13842
G1 X48.05 Y133.514 E50.83831
G1 X47.447 Y133.474 E50.86325
G1 X46.855 Y133.355 E50.88817
G1 X46.284 Y133.159 E50.91308
G1 X45.743 Y132.889 E50.93803
G1 X45.243 Y132.55 E50.96295
G1 X44.793 Y132.148 E50.98785
G1 X44.399 Y131.69 E51.01278
G1 X44.069 Y131.184 E51.03771
G1 X43.809 Y130.639 E51.06263
G1 X43.622 Y130.064 E51.08758
G1 X43.514 Y129.47 E51.11249
G1 X43.484 Y128.948 E51.13406
G1 X43.484 Y100.048 E52.32657
G1 X43.524 Y99.445 E52.35151
G1 X43.643 Y98.853 E52.37643
G1 X43.839 Y98.282 E52.40134
G1 X44.109 Y97.741 E52.42629
G1 X44.448 Y97.241 E52.45121
G1 X44.85 Y96.791 E52.47611
G1 X45.308 Y96.397 E52.50104
G1 X45.814 Y96.067 E52.52597
G1 X46.359 Y95.807 E52.55089
M204 S3000
G0 F4200 X46.723 Y96.096
M204 S500
G1 F1800 X47.282 Y95.95 E52.57473
G1 X48.05 Y95.879 E52.60655
G1 X161.95 Y95.879 E57.30645
G1 X162.526 Y95.919 E57.33027
G1 X163.091 Y96.038 E57.3541
G1 X163.633 Y96.234 E57.37788
G1 X164.144 Y96.503 E57.40171
G1 X164.613 Y96.84 E57.42554
G1 X165.03 Y97.238 E57.44932
G1 X165.389 Y97.691 E57.47318
G1 X165.681 Y98.188 E57.49696
G1 X165.902 Y98.721 E57.52077
G1 X166.048 Y99.28 E57.54461
G1 X166.119 Y100.048 E57.57644
G1 X166.119 Y128.948 E58.76895
G1 X166.079 Y129.524 E58.79277
G1 X165.96 Y130.089 E58.8166
G1 X165.764 Y130.631 E58.84038
G1 X165.495 Y131.142 E58.86421
G1 X165.158 Y131.611 E58.88804
G1 X164.76 Y132.028 E58.91182
G1 X164.307 Y132.387 E58.93567
G1 X163.81 Y132.679 E58.95946
G1 X163.277 Y132.9 E58.98327
G1 X162.718 Y133.046 E59.00711
G1 X161.95 Y133.117 E59.03893
G1 X48.05 Y133.117 E63.73883
G1 X47.474 Y133.077 E63.76266
G1 X46.909 Y132.958 E63.78648
G1 X46.367 Y132.762 E63.81026
G1 X45.856 Y132.493 E63.83409
G1 X45.387 Y132.156 E63.85792
G1 X44.97 Y131.758 E63.88171
G1 X44.611 Y131.305 E63.90556
G1 X44.319 Y130.808 E63.92934
G1 X44.098 Y130.275 E63.95315
G1 X43.952 Y129.716 E63.97699
G1 X43.881 Y128.948 E64.00882
G1 X43.881 Y100.048 E65.20133
G1 X43.921 Y99.472 E65.22515
G1 X44.04 Y98.907 E65.24898
G1 X44.236 Y98.365 E65.27276
G1 X44.505 Y97.854 E65.29659
G1 X44.842 Y97.385 E65.32042
G1 X45.24 Y96.968 E65.34421
G1 X45.693 Y96.609 E65.36806
G1 X46.19 Y96.317 E65.39184
G1 X46.723 Y96.096 E65.41565
M204 S3000
G0 F4200 X46.562 Y96.582
M204 S500
G1 F1800 X47.081 Y96.403 E65.43831
G1 X47.62 Y96.301 E65.46094
G1 X48.05 Y96.276 E65.47871
G1 X161.95 Y96.276 E70.17861
G1 X162.498 Y96.316 E70.20128
G1 X163.033 Y96.435 E70.2239
G1 X163.546 Y96.63 E70.24654
G1 X164.026 Y96.898 E70.26923
G1 X164.461 Y97.233 E70.29188
G1 X164.843 Y97.627 E70.31453
G1 X165.163 Y98.073 E70.33718
G1 X165.416 Y98.56 E70.35982
G1 X165.595 Y99.079 E70.38248
G1 X165.697 Y99.618 E70.40511
G1 X165.722 Y100.048 E70.42289
G1 X165.722 Y128.948 E71.6154
G1 X165.682 Y129.496 E71.63807
G1 X165.563 Y130.031 E71.66069
G1 X165.368 Y130.544 E71.68333
G1 X165.1 Y131.024 E71.70602
G1 X164.765 Y131.459 E71.72867
G1 X164.371 Y131.841 E71.75132
G1 X163.925 Y132.161 E71.77397
G1 X163.438 Y132.414 E71.79661
G1 X162.919 Y132.593 E71.81927
G1 X162.38 Y132.695 E71.8419
G1 X161.95 Y132.72 E71.85967
G1 X48.05 Y132.72 E76.55957
G1 X47.502 Y132.68 E76.58224
G1 X46.967 Y132.561 E76.60486
G1 X46.454 Y132.366 E76.6275
G1 X45.974 Y132.098 E76.65019
G1 X45.539 Y131.763 E76.67284
G1 X45.157 Y131.369 E76.69549
G1 X44.837 Y130.923 E76.71814
G1 X44.584 Y130.436 E76.74078
G1 X44.405 Y129.917 E76.76344
G1 X44.303 Y129.378 E76.78607
G1 X44.278 Y128.948 E76.80385
G1 X44.278 Y100.048 E77.99636
G1 X44.318 Y99.5 E78.01903
G1 X44.437 Y98.965 E78.04165
G1 X44.632 Y98.452 E78.06429
G1 X44.9 Y97.972 E78.08698
G1 X45.235 Y97.537 E78.10963
G1 X45.629 Y97.155 E78.13228
G1 X46.075 Y96.835 E78.15493
G1 X46.562 Y96.582 E78.17757
M204 S3000
G0 F4200 X46.928 Y96.865
M204 S500
G1 F1800 X47.43 Y96.73 E78.19902
G1 X48.05 Y96.673 E78.22471
G1 X161.95 Y96.673 E82.92461
G1 X162.468 Y96.713 E82.94605
G1 X162.973 Y96.832 E82.96746
G1 X163.454 Y97.027 E82.98887
G1 X163.9 Y97.293 E83.0103
G1 X164.299 Y97.625 E83.03172
G1 X164.643 Y98.014 E83.05315
G1 X164.923 Y98.451 E83.07456
G1 X165.133 Y98.926 E83.09599
G1 X165.268 Y99.428 E83.11744
G1 X165.325 Y100.048 E83.14313
G1 X165.325 Y128.948 E84.33564
G1 X165.285 Y129.466 E84.35708
G1 X165.166 Y129.971 E84.37849
G1 X164.971 Y130.452 E84.39991
G1 X164.705 Y130.898 E84.42134
G1 X164.373 Y131.297 E84.44275
G1 X163.984 Y131.641 E84.46418
G1 X163.547 Y131.921 E84.4856
G1 X163.072 Y132.131 E84.50703
G1 X162.57 Y132.266 E84.52848
G1 X161.95 Y132.323 E84.55417
G1 X48.05 Y132.323 E89.25406
G1 X47.532 Y132.283 E89.2755
G1 X47.027 Y132.164 E89.29691
G1 X46.546 Y131.969 E89.31833
G1 X46.1 Y131.703 E89.33976
G1 X45.701 Y131.371 E89.36117
G1 X45.357 Y130.982 E89.3826
G1 X45.077 Y130.545 E89.40402
G1 X44.867 Y130.07 E89.42545
G1 X44.732 Y129.568 E89.4469
G1 X44.675 Y128.948 E89.47259
G1 X44.675 Y100.048 E90.6651
G1 X44.715 Y99.53 E90.68654
G1 X44.834 Y99.025 E90.70795
G1 X45.029 Y98.544 E90.72936
G1 X45.295 Y98.098 E90.75079
G1 X45.627 Y97.699 E90.77221
G1 X46.016 Y97.355 E90.79364
G1 X46.453 Y97.075 E90.81505
G1 X46.928 Y96.865 E90.83648
M204 S3000
G0 F4200 X46.827 Y97.333
M204 S500
G1 F1800 X47.287 Y97.169 E90.85664
G1 X48.05 Y97.07 E90.88838
G1 X161.95 Y97.07 E95.58828
G1 X162.436 Y97.11 E95.6084
G1 X162.909 Y97.229 E95.62853
G1 X163.356 Y97.423 E95.64863
G1 X163.766 Y97.688 E95.66878
G1 X164.127 Y98.016 E95.6889
G1 X164.429 Y98.398 E95.709
G1 X164.665 Y98.825 E95.72913
G1 X164.829 Y99.285 E95.74928
G1 X164.928 Y100.048 E95.78103
G1 X164.928 Y128.948 E96.97354
G1 X164.888 Y129.434 E96.99366
G1 X164.769 Y129.907 E97.01379
G1 X164.575 Y130.354 E97.03389
G1 X164.31 Y130.764 E97.05404
G1 X163.982 Y131.125 E97.07416
G1 X163.6 Y131.427 E97.09426
G1 X163.173 Y131.663 E97.11439
G1 X162.713 Y131.827 E97.13454
G1 X161.95 Y131.926 E97.16629
G1 X48.05 Y131.926 E101.86618
G1 X47.564 Y131.886 E101.88631
G1 X47.091 Y131.767 E101.90643
G1 X46.644 Y131.573 E101.92654
G1 X46.234 Y131.308 E101.94668
G1 X45.873 Y130.98 E101.96681
G1 X45.571 Y130.598 E101.9869
G1 X45.335 Y130.171 E102.00703
G1 X45.171 Y129.711 E102.02719
G1 X45.072 Y128.948 E102.05893
G1 X45.072 Y100.048 E103.25145
G1 X45.112 Y99.562 E103.27157
G1 X45.231 Y99.089 E103.29169
G1 X45.425 Y98.642 E103.3118
G1 X45.69 Y98.232 E103.33194
G1 X46.018 Y97.871 E103.35207
G1 X46.4 Y97.569 E103.37216
G1 X46.827 Y97.333 E103.3923
M204 S3000
G0 F4200 X47.194 Y97.613
M204 S500
G1 F1800 X47.634 Y97.501 E103.41103
G1 X48.05 Y97.467 E103.42825
G1 X161.95 Y97.467 E108.12815
G1 X162.402 Y97.507 E108.14687
G1 X162.84 Y97.625 E108.16559
G1 X163.251 Y97.819 E108.18434
G1 X163.621 Y98.081 E108.20305
G1 X163.94 Y98.405 E108.22181
G1 X164.197 Y98.779 E108.24054
G1 X164.385 Y99.192 E108.25926
G1 X164.497 Y99.632 E108.278
G1 X164.531 Y100.048 E108.29522
G1 X164.531 Y128.948 E109.48773
G1 X164.491 Y129.4 E109.50646
G1 X164.373 Y129.838 E109.52517
G1 X164.179 Y130.249 E109.54393
G1 X163.917 Y130.619 E109.56263
G1 X163.593 Y130.938 E109.5814
G1 X163.219 Y131.195 E109.60012
G1 X162.806 Y131.383 E109.61885
G1 X162.366 Y131.495 E109.63758
G1 X161.95 Y131.529 E109.6548
G1 X48.05 Y131.529 E114.3547
G1 X47.598 Y131.489 E114.37342
G1 X47.16 Y131.371 E114.39214
G1 X46.749 Y131.177 E114.41089
G1 X46.379 Y130.915 E114.4296
G1 X46.06 Y130.591 E114.44836
G1 X45.803 Y130.217 E114.46709
G1 X45.615 Y129.804 E114.48581
G1 X45.503 Y129.364 E114.50455
G1 X45.469 Y128.948 E114.52177
G1 X45.469 Y100.048 E115.71428
G1 X45.509 Y99.596 E115.73301
G1 X45.627 Y99.158 E115.75172
G1 X45.821 Y98.747 E115.77048
G1 X46.083 Y98.377 E115.78918
G1 X46.407 Y98.058 E115.80795
G1 X46.781 Y97.801 E115.82667
G1 X47.194 Y97.613 E115.8454
M204 S3000
G0 F4200 X47.155 Y98.056
M204 S500
G1 F1800 X47.551 Y97.922 E115.86265
G1 X48.05 Y97.864 E115.88337
G1 X161.95 Y97.864 E120.58327
G1 X162.366 Y97.904 E120.60052
G1 X162.766 Y98.022 E120.61772
G1 X163.137 Y98.214 E120.63496
G1 X163.464 Y98.474 E120.6522
G1 X163.736 Y98.791 E120.66944
G1 X163.942 Y99.153 E120.68662
G1 X164.076 Y99.549 E120.70387
G1 X164.134 Y100.048 E120.7246
G1 X164.134 Y128.948 E121.91711
G1 X164.094 Y129.364 E121.93436
G1 X163.976 Y129.764 E121.95157
G1 X163.784 Y130.135 E121.9688
G1 X163.524 Y130.462 E121.98604
G1 X163.207 Y130.734 E122.00328
G1 X162.845 Y130.94 E122.02046
G1 X162.449 Y131.074 E122.03771
G1 X161.95 Y131.132 E122.05844
G1 X48.05 Y131.132 E126.75834
G1 X47.634 Y131.092 E126.77558
G1 X47.234 Y130.974 E126.79279
G1 X46.863 Y130.782 E126.81003
G1 X46.536 Y130.522 E126.82727
G1 X46.264 Y130.205 E126.8445
G1 X46.058 Y129.843 E126.86169
G1 X45.924 Y129.447 E126.87894
G1 X45.866 Y128.948 E126.89967
G1 X45.866 Y100.048 E128.09218
G1 X45.906 Y99.632 E128.10943
G1 X46.024 Y99.232 E128.12663
G1 X46.216 Y98.861 E128.14387
G1 X46.476 Y98.534 E128.16111
G1 X46.793 Y98.262 E128.17835
