;FLAVOR:Marlin
;TIME:1573
;Filament used: 1.43277m
;Layer height: 0.2
;MINX:44.975
;MINY:88.454
;MINZ:0.25
;MAXX:165.046
;MAXY:121.546
;MAXZ:4.85
;Generated with Cura_SteamEngine 4.7.1
M140 S60
M105
M190 S60
M104 S200
M105
M109 S200
M82 ;absolute extrusion mode
; Script based on an original created by tjjfvi (https://github.com/tjjfvi)
; An up-to-date version of the tjjfvi's original script can be found
; here:  https://csi.t6.fyi/
; Note - This script will only work in Cura V4.2 and above!
; --- Global Settings
; layer_height = 0.2
; smooth_spiralized_contours = True
; magic_mesh_surface_mode = normal
; machine_extruder_count = 1
; --- Single Extruder Settings
; speed_z_hop = 10
; retraction_amount = 5
; retraction_hop = 0.075
; retraction_hop_enabled = True
; retraction_enable = True
; retraction_speed = 50
; retraction_retract_speed = 50
; retraction_prime_speed = 50
; speed_travel = 120

G21 ;metric values
G90 ;absolute positioning
M82 ;set extruder to absolute mode
M107 ;start with the fan off
G28 X0 Y0 ;move X/Y to min endstops
G28 Z0 ;move Z to min endstops
G1 Z15.0 F120 ;move the platform down 15mm
G92 E0 ;zero the extruded length
G1 F200 E3 ;extrude 3mm of feed stock
G92 E0 ;zero the extruded length again
G1 F120
G0 Y20 F120
M117 Printing...
G5
G92 E0
G92 E0
G1 F3000 E-5
;LAYER_COUNT:24
;LAYER:0
M106 S51
M204 S3000
M205 X10 Y10
G1 F600 Z0.325
G0 F4200 X52.997 Y90.828 Z0.325
M204 S500
;TYPE:SKIRT
G1 F600 Z0.25
G1 F3000 E0.06236
G1 F1800 X53.442 Y90.571 E0.08357
G1 X54.239 Y90.184 E0.12013
G1 X54.914 Y89.869 E0.15086
G1 X55.58 Y89.57 E0.18099
G1 X56.064 Y89.394 E0.20224
G1 X56.975 Y89.134 E0.24133
G1 X57.644 Y88.955 E0.26991
G1 X58.348 Y88.777 E0.29987
G1 X58.856 Y88.686 E0.32116
G1 X59.681 Y88.6 E0.35539
G1 X60.535 Y88.526 E0.39076
G1 X61.208 Y88.476 E0.41861
G1 X61.42 Y88.466 E0.42737
G1 X62.223 Y88.454 E0.4605
G1 X78.84 Y88.454 E1.14618
G1 X79.538 Y88.464 E1.17498
G1 X79.941 Y88.488 E1.19164
G1 X80.528 Y88.545 E1.21598
G1 X161.16 Y97.395 E4.5631
G1 X161.886 Y97.486 E4.5933
G1 X162.411 Y97.592 E4.6154
G1 X162.915 Y97.775 E4.63752
G1 X163.386 Y98.03 E4.65962
G1 X163.814 Y98.353 E4.68175
G1 X164.189 Y98.736 E4.70387
G1 X164.503 Y99.17 E4.72597
G1 X164.749 Y99.647 E4.74812
G1 X164.922 Y100.154 E4.77022
G1 X165.034 Y100.93 E4.80257
G1 X165.045 Y101.314 E4.81842
G1 X165.046 Y108.264 E5.1052
G1 X165.037 Y108.99 E5.13516
G1 X164.99 Y109.524 E5.15728
G1 X164.865 Y110.045 E5.17939
G1 X164.663 Y110.541 E5.20149
G1 X164.39 Y111.003 E5.22363
G1 X164.052 Y111.418 E5.24572
G1 X163.655 Y111.779 E5.26786
G1 X163.209 Y112.076 E5.28997
G1 X162.724 Y112.304 E5.31209
G1 X161.976 Y112.501 E5.344
G1 X161.351 Y112.584 E5.37002
G1 X80.601 Y121.447 E8.72204
G1 X79.837 Y121.52 E8.75371
G1 X78.969 Y121.546 E8.78955
G1 X62.158 Y121.546 E9.48322
G1 X61.483 Y121.536 E9.51108
G1 X61.28 Y121.527 E9.51947
G1 X60.437 Y121.466 E9.55434
G1 X59.568 Y121.39 E9.59034
G1 X58.91 Y121.323 E9.61763
G1 X58.399 Y121.233 E9.63904
G1 X57.527 Y121.014 E9.67614
G1 X56.793 Y120.817 E9.7075
G1 X56.131 Y120.631 E9.73587
G1 X55.633 Y120.45 E9.75773
G1 X54.764 Y120.06 E9.79704
G1 X54.116 Y119.758 E9.82654
G1 X53.492 Y119.457 E9.85512
G1 X53.039 Y119.196 E9.8767
G1 X52.292 Y118.691 E9.9139
G1 X51.695 Y118.273 E9.94398
G1 X51.093 Y117.839 E9.9746
G1 X50.692 Y117.504 E9.99616
G1 X50.077 Y116.908 E10.0315
G1 X49.485 Y116.315 E10.06607
G1 X49.032 Y115.849 E10.09289
G1 X48.699 Y115.453 E10.11424
G1 X48.151 Y114.696 E10.1528
G1 X47.74 Y114.109 E10.18237
G1 X47.328 Y113.501 E10.21268
G1 X47.072 Y113.059 E10.23375
G1 X46.669 Y112.23 E10.27179
G1 X46.349 Y111.543 E10.30306
G1 X46.068 Y110.917 E10.33138
G1 X45.892 Y110.432 E10.35266
G1 X45.638 Y109.543 E10.39082
G1 X45.44 Y108.803 E10.42242
G1 X45.279 Y108.168 E10.44946
G1 X45.188 Y107.656 E10.47091
G1 X45.089 Y106.694 E10.51082
G1 X45.029 Y106.006 E10.53932
G1 X44.976 Y105.289 E10.56898
G1 X44.975 Y104.769 E10.59044
G1 X45.042 Y103.837 E10.629
G1 X45.112 Y103.039 E10.66205
G1 X45.175 Y102.416 E10.68789
G1 X45.266 Y101.9 E10.70951
G1 X45.494 Y100.993 E10.7481
G1 X45.684 Y100.287 E10.77827
G1 X45.874 Y99.616 E10.80704
G1 X46.051 Y99.13 E10.82839
G1 X46.419 Y98.307 E10.86559
G1 X46.747 Y97.603 E10.89763
G1 X47.038 Y96.999 E10.9253
G1 X47.3 Y96.544 E10.94696
G1 X47.837 Y95.752 E10.98645
G1 X48.237 Y95.182 E11.01518
G1 X48.659 Y94.595 E11.04501
G1 X48.996 Y94.192 E11.06669
G1 X49.598 Y93.571 E11.10238
G1 X50.199 Y92.971 E11.13742
G1 X50.658 Y92.526 E11.1638
G1 X51.048 Y92.198 E11.18483
G1 X51.763 Y91.68 E11.22126
G1 X52.429 Y91.213 E11.25483
G1 X52.997 Y90.828 E11.28314
M204 S3000
G0 F4200 X53.22 Y91.157
M204 S500
G1 F1800 X53.615 Y90.928 E11.30198
G1 X54.406 Y90.544 E11.33826
G1 X55.077 Y90.232 E11.3688
G1 X55.743 Y89.933 E11.39892
G1 X56.173 Y89.775 E11.41782
G1 X57.077 Y89.517 E11.45661
G1 X57.741 Y89.34 E11.48497
G1 X58.445 Y89.162 E11.51493
G1 X58.897 Y89.081 E11.53388
G1 X59.777 Y88.99 E11.57039
G1 X60.564 Y88.922 E11.60298
G1 X61.237 Y88.872 E11.63083
G1 X61.426 Y88.863 E11.63864
G1 X62.229 Y88.851 E11.67178
G1 X78.834 Y88.851 E12.35695
G1 X79.532 Y88.861 E12.38576
G1 X79.902 Y88.883 E12.40105
G1 X80.485 Y88.94 E12.42522
G1 X161.117 Y97.79 E15.77235
G1 X161.837 Y97.88 E15.80229
G1 X162.332 Y97.982 E15.82315
G1 X162.805 Y98.161 E15.84402
G1 X163.243 Y98.412 E15.86485
G1 X163.637 Y98.729 E15.88571
G1 X163.976 Y99.104 E15.90657
G1 X164.251 Y99.528 E15.92742
G1 X164.457 Y99.99 E15.9483
G1 X164.587 Y100.478 E15.96914
G1 X164.646 Y101.205 E15.99923
G1 X164.648 Y101.315 E16.00377
G1 X164.649 Y108.259 E16.29031
G1 X164.64 Y108.985 E16.32027
G1 X164.594 Y109.488 E16.34111
G1 X164.469 Y109.978 E16.36197
G1 X164.268 Y110.442 E16.38284
G1 X163.997 Y110.869 E16.40371
G1 X163.662 Y111.247 E16.42455
G1 X163.272 Y111.568 E16.44539
G1 X162.836 Y111.824 E16.46625
G1 X162.365 Y112.008 E16.48712
G1 X161.711 Y112.139 E16.51464
G1 X161.274 Y112.193 E16.53281
G1 X80.558 Y121.052 E19.88343
G1 X79.8 Y121.125 E19.91485
G1 X78.964 Y121.149 E19.94936
G1 X62.164 Y121.149 E20.64258
G1 X61.489 Y121.139 E20.67044
G1 X61.308 Y121.131 E20.67791
G1 X60.472 Y121.071 E20.7125
G1 X59.608 Y120.995 E20.74829
G1 X58.95 Y120.928 E20.77558
G1 X58.495 Y120.848 E20.79464
G1 X57.63 Y120.63 E20.83145
G1 X56.901 Y120.435 E20.86259
G1 X56.239 Y120.249 E20.89096
G1 X55.796 Y120.088 E20.91041
G1 X54.932 Y119.7 E20.9495
G1 X54.288 Y119.4 E20.97881
G1 X53.664 Y119.099 E21.0074
G1 X53.261 Y118.867 E21.02659
G1 X52.52 Y118.366 E21.06349
G1 X51.889 Y117.923 E21.09531
G1 X51.325 Y117.517 E21.12398
G1 X50.968 Y117.219 E21.14317
G1 X50.394 Y116.663 E21.17615
G1 X49.769 Y116.038 E21.21262
G1 X49.316 Y115.572 E21.23944
G1 X49.02 Y115.22 E21.25841
G1 X48.476 Y114.468 E21.29671
G1 X48.069 Y113.887 E21.32598
G1 X47.657 Y113.279 E21.35629
G1 X47.429 Y112.885 E21.37507
G1 X47.029 Y112.063 E21.41279
G1 X46.712 Y111.38 E21.44386
G1 X46.431 Y110.754 E21.47218
G1 X46.273 Y110.323 E21.49112
G1 X46.021 Y109.441 E21.52897
G1 X45.825 Y108.705 E21.5604
G1 X45.664 Y108.07 E21.58743
G1 X45.583 Y107.615 E21.6065
G1 X45.484 Y106.659 E21.64616
G1 X45.425 Y105.977 E21.67441
G1 X45.372 Y105.26 E21.70407
G1 X45.371 Y104.797 E21.72318
G1 X45.437 Y103.872 E21.76144
G1 X45.507 Y103.079 E21.79429
G1 X45.57 Y102.456 E21.82013
G1 X45.651 Y101.997 E21.83936
G1 X45.878 Y101.096 E21.8777
G1 X46.066 Y100.395 E21.90765
G1 X46.256 Y99.724 E21.93643
G1 X46.413 Y99.291 E21.95543
G1 X46.778 Y98.475 E21.99232
G1 X47.105 Y97.776 E22.02416
G1 X47.396 Y97.172 E22.05183
G1 X47.629 Y96.767 E22.07111
G1 X48.162 Y95.98 E22.11033
G1 X48.56 Y95.414 E22.13888
G1 X48.982 Y94.827 E22.16871
G1 X49.282 Y94.468 E22.18801
G1 X49.879 Y93.852 E22.22341
G1 X50.475 Y93.256 E22.25819
G1 X50.934 Y92.811 E22.28457
G1 X51.281 Y92.52 E22.30326
G1 X51.991 Y92.005 E22.33945
G1 X52.652 Y91.542 E22.37275
G1 X53.22 Y91.157 E22.40106
M204 S3000
G1 F3000 E17.40106
;MESH:test-ikea-side.stl
G0 F4200 X152.845 Y106.781
M204 S500
;TYPE:WALL-INNER
G1 F3000 E22.46343
G1 F1080 X153.289 Y106.885 E22.48224
G1 X153.749 Y106.882 E22.50123
G1 X154.189 Y106.767 E22.51999
G1 X154.593 Y106.551 E22.53889
G1 X154.932 Y106.244 E22.55777
G1 X155.188 Y105.865 E22.57664
G1 X155.348 Y105.436 E22.59553
G1 X155.396 Y104.982 E22.61437
G1 X155.339 Y104.529 E22.63321
G1 X155.171 Y104.101 E22.65218
G1 X154.908 Y103.728 E22.67101
G1 X154.561 Y103.426 E22.69
G1 X154.153 Y103.219 E22.70887
G1 X153.711 Y103.115 E22.72761
G1 X153.251 Y103.118 E22.74659
G1 X152.811 Y103.233 E22.76536
G1 X152.407 Y103.449 E22.78426
G1 X152.068 Y103.756 E22.80313
G1 X151.812 Y104.135 E22.82201
G1 X151.652 Y104.564 E22.8409
G1 X151.604 Y105.018 E22.85974
G1 X151.661 Y105.471 E22.87858
G1 X151.829 Y105.898 E22.89751
G1 X152.09 Y106.27 E22.91626
G1 X152.425 Y106.566 E22.93471
G1 X152.845 Y106.781 E22.95418
M204 S3000
G0 F4200 X152.981 Y106.411
M204 S500
;TYPE:WALL-OUTER
G1 F1080 X153.333 Y106.494 E22.9691
G1 X153.697 Y106.491 E22.98412
G1 X154.046 Y106.4 E22.999
G1 X154.366 Y106.229 E23.01397
G1 X154.635 Y105.986 E23.02893
G1 X154.838 Y105.685 E23.04391
G1 X154.964 Y105.346 E23.05884
G1 X155.002 Y104.986 E23.07377
G1 X154.957 Y104.626 E23.08874
G1 X154.824 Y104.288 E23.10373
G1 X154.616 Y103.992 E23.11866
G1 X154.341 Y103.753 E23.13369
G1 X154.018 Y103.589 E23.14864
G1 X153.667 Y103.506 E23.16352
G1 X153.303 Y103.509 E23.17854
G1 X152.954 Y103.6 E23.19343
G1 X152.634 Y103.771 E23.2084
G1 X152.365 Y104.014 E23.22336
G1 X152.162 Y104.315 E23.23834
G1 X152.036 Y104.654 E23.25326
G1 X151.998 Y105.014 E23.2682
G1 X152.043 Y105.374 E23.28317
G1 X152.176 Y105.712 E23.29816
G1 X152.383 Y106.007 E23.31303
G1 X152.647 Y106.24 E23.32756
G1 X152.981 Y106.411 E23.34304
M204 S3000
G0 F4200 X153.176 Y106.456
G0 X153.075 Y106.881
G1 F3000 E18.34304
G0 F4200 X129.856 Y107.269
M204 S500
;TYPE:WALL-INNER
G1 F3000 E23.4054
G1 F1080 X146.144 Y107.269 E24.0775
G1 X146.144 Y102.731 E24.26475
G1 X129.856 Y102.731 E24.93685
G1 X129.856 Y107.269 E25.1241
M204 S3000
G0 F4200 X130.247 Y106.878
M204 S500
;TYPE:WALL-OUTER
G1 F1080 X145.753 Y106.878 E25.76393
G1 X145.753 Y103.122 E25.91892
G1 X130.247 Y103.122 E26.55875
G1 X130.247 Y106.878 E26.71373
M204 S3000
G0 F4200 X130.447 Y106.878
G0 X130.447 Y107.314
G1 F3000 E21.71373
G0 F4200 X122.289 Y106.885
M204 S500
;TYPE:WALL-INNER
G1 F3000 E26.7761
G1 F1080 X122.749 Y106.882 E26.79508
G1 X123.189 Y106.767 E26.81384
G1 X123.593 Y106.551 E26.83275
G1 X123.932 Y106.244 E26.85162
G1 X124.188 Y105.865 E26.87049
G1 X124.348 Y105.436 E26.88938
G1 X124.396 Y104.982 E26.90822
G1 X124.339 Y104.529 E26.92706
G1 X124.171 Y104.101 E26.94603
G1 X123.908 Y103.728 E26.96487
G1 X123.561 Y103.426 E26.98385
G1 X123.153 Y103.219 E27.00273
G1 X122.711 Y103.115 E27.02146
G1 X122.251 Y103.118 E27.04044
G1 X121.811 Y103.233 E27.05921
G1 X121.407 Y103.449 E27.07811
G1 X121.068 Y103.756 E27.09699
G1 X120.812 Y104.135 E27.11586
G1 X120.652 Y104.564 E27.13475
G1 X120.604 Y105.018 E27.15359
G1 X120.661 Y105.471 E27.17243
G1 X120.829 Y105.898 E27.19136
G1 X121.09 Y106.27 E27.21011
G1 X121.425 Y106.566 E27.22856
G1 X121.845 Y106.781 E27.24803
G1 X122.289 Y106.885 E27.26685
M204 S3000
G0 F4200 X122.333 Y106.494
M204 S500
;TYPE:WALL-OUTER
G1 F1080 X122.697 Y106.491 E27.28187
G1 X123.046 Y106.4 E27.29675
G1 X123.366 Y106.229 E27.31172
G1 X123.635 Y105.986 E27.32668
G1 X123.838 Y105.685 E27.34166
G1 X123.964 Y105.346 E27.35658
G1 X124.002 Y104.986 E27.37152
G1 X123.957 Y104.626 E27.38649
G1 X123.824 Y104.288 E27.40148
G1 X123.616 Y103.992 E27.41641
G1 X123.341 Y103.753 E27.43144
G1 X123.018 Y103.589 E27.44639
G1 X122.667 Y103.506 E27.46127
G1 X122.303 Y103.509 E27.47629
G1 X121.954 Y103.6 E27.49117
G1 X121.634 Y103.771 E27.50615
G1 X121.365 Y104.014 E27.5211
G1 X121.162 Y104.315 E27.53608
G1 X121.036 Y104.654 E27.55101
G1 X120.998 Y105.014 E27.56594
G1 X121.043 Y105.374 E27.58092
G1 X121.176 Y105.712 E27.5959
G1 X121.383 Y106.007 E27.61077
G1 X121.647 Y106.24 E27.6253
G1 X121.981 Y106.411 E27.64079
G1 X122.333 Y106.494 E27.65571
M204 S3000
G0 F4200 X122.533 Y106.493
G0 X122.535 Y106.929
G1 F3000 E22.65571
G0 F4200 X63.751 Y110.936
M204 S500
;TYPE:WALL-INNER
G1 F3000 E27.71807
G1 F1080 X65.107 Y110.224 E27.78127
G1 X66.253 Y109.21 E27.84441
G1 X67.122 Y107.95 E27.90757
G1 X67.664 Y106.519 E27.97071
G1 X67.848 Y105 E28.03385
G1 X67.664 Y103.481 E28.09698
G1 X67.122 Y102.05 E28.16013
G1 X66.253 Y100.79 E28.22328
G1 X65.107 Y99.776 E28.28643
G1 X63.751 Y99.064 E28.34962
G1 X62.265 Y98.698 E28.41277
G1 X60.735 Y98.698 E28.47591
G1 X59.249 Y99.064 E28.53905
G1 X57.893 Y99.776 E28.60225
G1 X56.747 Y100.79 E28.66539
G1 X55.878 Y102.05 E28.72855
G1 X55.336 Y103.481 E28.79169
G1 X55.152 Y105 E28.85483
G1 X55.336 Y106.519 E28.91797
G1 X55.878 Y107.95 E28.98111
G1 X56.747 Y109.21 E29.04427
G1 X57.893 Y110.224 E29.10741
G1 X59.249 Y110.936 E29.17061
G1 X60.735 Y111.302 E29.23376
G1 X62.265 Y111.302 E29.29689
G1 X63.751 Y110.936 E29.36004
M204 S3000
G0 F4200 X63.611 Y110.568
M204 S500
;TYPE:WALL-OUTER
G1 F1080 X64.883 Y109.9 E29.41932
G1 X65.958 Y108.949 E29.47855
G1 X66.773 Y107.767 E29.53779
G1 X67.282 Y106.425 E29.59701
G1 X67.454 Y105 E29.65624
G1 X67.282 Y103.575 E29.71547
G1 X66.773 Y102.233 E29.77469
G1 X65.958 Y101.051 E29.83394
G1 X64.883 Y100.1 E29.89316
G1 X63.611 Y99.432 E29.95245
G1 X62.218 Y99.089 E30.01164
G1 X60.782 Y99.089 E30.0709
G1 X59.389 Y99.432 E30.13009
G1 X58.117 Y100.1 E30.18938
G1 X57.042 Y101.051 E30.2486
G1 X56.227 Y102.233 E30.30785
G1 X55.718 Y103.575 E30.36707
G1 X55.546 Y105 E30.4263
G1 X55.718 Y106.425 E30.48552
G1 X56.227 Y107.767 E30.54475
G1 X57.042 Y108.949 E30.60399
G1 X58.117 Y109.9 E30.66322
G1 X59.389 Y110.568 E30.7225
G1 X60.782 Y110.911 E30.7817
G1 X62.218 Y110.911 E30.84095
G1 X63.611 Y110.568 E30.90015
M204 S3000
G0 F4200 X63.788 Y110.475
G0 X63.99 Y110.862
G1 F3000 E25.90015
G0 F4200 X91.749 Y106.882
M204 S500
;TYPE:WALL-INNER
G1 F3000 E30.96251
G1 F1080 X92.189 Y106.767 E30.98128
G1 X92.593 Y106.551 E31.00018
G1 X92.932 Y106.244 E31.01905
G1 X93.188 Y105.865 E31.03793
G1 X93.348 Y105.436 E31.05682
G1 X93.396 Y104.982 E31.07566
G1 X93.339 Y104.529 E31.0945
G1 X93.171 Y104.101 E31.11347
G1 X92.908 Y103.728 E31.1323
G1 X92.561 Y103.426 E31.15128
G1 X92.153 Y103.219 E31.17016
G1 X91.711 Y103.115 E31.1889
G1 X91.251 Y103.118 E31.20788
G1 X90.811 Y103.233 E31.22665
G1 X90.407 Y103.449 E31.24555
G1 X90.068 Y103.756 E31.26442
G1 X89.812 Y104.135 E31.28329
G1 X89.652 Y104.564 E31.30219
G1 X89.604 Y105.018 E31.32102
G1 X89.661 Y105.471 E31.33986
G1 X89.829 Y105.898 E31.3588
G1 X90.09 Y106.27 E31.37755
G1 X90.425 Y106.566 E31.39599
G1 X90.845 Y106.781 E31.41546
G1 X91.289 Y106.885 E31.43428
G1 X91.749 Y106.882 E31.45326
M204 S3000
G0 F4200 X91.697 Y106.491
M204 S500
;TYPE:WALL-OUTER
G1 F1080 X92.046 Y106.4 E31.46814
G1 X92.366 Y106.229 E31.48312
G1 X92.635 Y105.986 E31.49807
G1 X92.838 Y105.685 E31.51306
G1 X92.964 Y105.346 E31.52798
G1 X93.002 Y104.986 E31.54292
G1 X92.957 Y104.626 E31.55789
G1 X92.824 Y104.288 E31.57287
G1 X92.616 Y103.992 E31.5878
G1 X92.341 Y103.753 E31.60284
G1 X92.018 Y103.589 E31.61778
G1 X91.667 Y103.506 E31.63267
G1 X91.303 Y103.509 E31.64769
G1 X90.954 Y103.6 E31.66257
G1 X90.634 Y103.771 E31.67754
G1 X90.365 Y104.014 E31.6925
G1 X90.162 Y104.315 E31.70748
G1 X90.036 Y104.654 E31.7224
G1 X89.998 Y105.014 E31.73734
G1 X90.043 Y105.374 E31.75231
G1 X90.176 Y105.712 E31.7673
G1 X90.383 Y106.007 E31.78217
G1 X90.647 Y106.24 E31.7967
G1 X90.981 Y106.411 E31.81218
G1 X91.333 Y106.494 E31.82711
G1 X91.697 Y106.491 E31.84213
M204 S3000
G0 F4200 X91.89 Y106.441
G0 X91.999 Y106.863
G1 F3000 E26.84213
G0 F4200 X98.856 Y107.269
M204 S500
;TYPE:WALL-INNER
G1 F3000 E31.90449
G1 F1080 X115.144 Y107.269 E32.57659
G1 X115.144 Y102.731 E32.76384
G1 X98.856 Y102.731 E33.43594
G1 X98.856 Y107.269 E33.62319
M204 S3000
G0 F4200 X99.247 Y106.878
M204 S500
;TYPE:WALL-OUTER
G1 F1080 X114.753 Y106.878 E34.26302
G1 X114.753 Y103.122 E34.418
G1 X99.247 Y103.122 E35.05783
G1 X99.247 Y106.878 E35.21282
M204 S3000
G0 F4200 X99.447 Y106.878
G0 X99.447 Y107.314
G1 F3000 E30.21282
G0 F4200 X79.457 Y117.356
M204 S500
;TYPE:WALL-INNER
G1 F3000 E35.27518
