;FLAVOR:Marlin
;TIME:3472
;Filament used: 2.91497m
;Layer height: 0.2
;MINX:43.454
;MINY:73.833
;MINZ:0.25
;MAXX:165.22
;MAXY:136.166
;MAXZ:7.85
;Generated with Cura_SteamEngine 4.7.1
M140 S60
M105
M190 S60
M104 S200
M105
M109 S200
M82 ;absolute extrusion mode
; Script based on an original created by tjjfvi (https://github.com/tjjfvi)
; An up-to-date version of the tjjfvi's original script can be found
; here:  https://csi.t6.fyi/
; Note - This script will only work in Cura V4.2 and above!
; --- Global Settings
; layer_height = 0.2
; smooth_spiralized_contours = True
; magic_mesh_surface_mode = normal
; machine_extruder_count = 1
; --- Single Extruder Settings
; speed_z_hop = 10
; retraction_amount = 5
; retraction_hop = 0.075
; retraction_hop_enabled = True
; retraction_enable = True
; retraction_speed = 50
; retraction_retract_speed = 50
; retraction_prime_speed = 50
; speed_travel = 120

G21 ;metric values
G90 ;absolute positioning
M82 ;set extruder to absolute mode
M107 ;start with the fan off
G28 X0 Y0 ;move X/Y to min endstops
G28 Z0 ;move Z to min endstops
G1 Z15.0 F120 ;move the platform down 15mm
G92 E0 ;zero the extruded length
G1 F200 E3 ;extrude 3mm of feed stock
G92 E0 ;zero the extruded length again
G1 F120
G0 Y20 F120
M117 Printing...
G5
G92 E0
G92 E0
G1 F3000 E-5
;LAYER_COUNT:39
;LAYER:0
M106 S51
M204 S3000
M205 X10 Y10
G1 F600 Z0.325
G0 F4200 X45.298 Y76.924 Z0.325
M204 S500
;TYPE:SKIRT
G1 F600 Z0.25
G1 F3000 E0.06236
G1 F1800 X45.784 Y76.697 E0.0845
G1 X46.298 Y76.545 E0.10661
G1 X46.65 Y76.486 E0.12134
G1 X48.022 Y76.328 E0.17833
G1 X48.547 Y76.269 E0.20013
G1 X51.259 Y75.906 E0.31303
G1 X53.94 Y75.47 E0.42511
G1 X56.612 Y74.956 E0.53739
G1 X59.286 Y74.364 E0.6504
G1 X59.688 Y74.263 E0.6675
G1 X61.043 Y73.941 E0.72497
G1 X61.753 Y73.846 E0.75453
G1 X62.387 Y73.834 E0.7807
G1 X74.476 Y73.834 E1.27953
G1 X75.173 Y73.844 E1.30829
G1 X75.375 Y73.853 E1.31664
G1 X76.468 Y73.931 E1.36185
G1 X77.262 Y73.998 E1.39473
G1 X79.955 Y74.149 E1.50603
G1 X82.722 Y74.226 E1.62025
G1 X85.417 Y74.224 E1.73145
G1 X88.179 Y74.145 E1.84547
G1 X90.89 Y73.989 E1.95752
G1 X92.397 Y73.867 E2.01991
G1 X92.909 Y73.841 E2.04106
G1 X93.434 Y73.834 E2.06272
G1 X105.471 Y73.833 E2.55941
G1 X106.181 Y73.843 E2.58871
G1 X106.847 Y73.915 E2.61635
G1 X106.998 Y73.947 E2.62272
G1 X109.523 Y74.53 E2.72965
G1 X112.218 Y75.071 E2.84308
G1 X114.881 Y75.529 E2.95457
G1 X117.592 Y75.916 E3.06757
G1 X120.3 Y76.224 E3.18003
G1 X123.289 Y76.479 E3.30382
G1 X123.818 Y76.562 E3.32591
G1 X124.331 Y76.724 E3.34811
G1 X124.701 Y76.874 E3.36459
G1 X160.77 Y92.653 E4.9891
G1 X162.469 Y93.398 E5.06565
G1 X163.104 Y93.687 E5.09444
G1 X163.574 Y93.945 E5.11656
G1 X164 Y94.27 E5.13867
G1 X164.373 Y94.654 E5.16076
G1 X164.685 Y95.09 E5.18288
G1 X164.929 Y95.567 E5.20499
G1 X165.099 Y96.075 E5.2271
G1 X165.201 Y96.713 E5.25376
G1 X165.212 Y96.943 E5.26326
G1 X165.22 Y97.613 E5.29091
G1 X165.219 Y112.364 E5.89958
G1 X165.209 Y113.089 E5.9295
G1 X165.161 Y113.622 E5.95158
G1 X165.035 Y114.143 E5.9737
G1 X164.833 Y114.64 E5.99584
G1 X164.559 Y115.101 E6.01797
G1 X164.22 Y115.516 E6.04008
G1 X163.823 Y115.876 E6.06219
G1 X163.258 Y116.237 E6.08986
G1 X163.068 Y116.33 E6.09859
G1 X162.499 Y116.589 E6.12439
G1 X125.03 Y132.982 E7.81198
G1 X124.381 Y133.255 E7.84103
G1 X123.873 Y133.425 E7.86314
G1 X123.301 Y133.522 E7.88708
G1 X122.289 Y133.611 E7.929
G1 X121.473 Y133.67 E7.96275
G1 X118.747 Y133.947 E8.07582
G1 X116.067 Y134.296 E8.18734
G1 X113.352 Y134.727 E8.30077
G1 X110.698 Y135.226 E8.4122
G1 X107.495 Y135.932 E8.54754
G1 X106.952 Y136.06 E8.57056
G1 X106.247 Y136.154 E8.59991
G1 X105.613 Y136.166 E8.62607
G1 X93.524 Y136.166 E9.12491
G1 X92.827 Y136.156 E9.15367
G1 X92.625 Y136.147 E9.16201
G1 X91.532 Y136.069 E9.20723
G1 X90.738 Y136.002 E9.24011
G1 X88.045 Y135.851 E9.35141
G1 X85.278 Y135.774 E9.46563
G1 X82.583 Y135.776 E9.57683
G1 X79.821 Y135.855 E9.69085
G1 X77.11 Y136.011 E9.8029
G1 X75.603 Y136.133 E9.86528
G1 X75.09 Y136.159 E9.88648
G1 X74.613 Y136.166 E9.90616
G1 X62.525 Y136.166 E10.40496
G1 X61.824 Y136.156 E10.43388
G1 X60.997 Y136.049 E10.46829
G1 X60.063 Y135.82 E10.50797
G1 X57.397 Y135.206 E10.62086
G1 X54.679 Y134.66 E10.73526
G1 X52.018 Y134.204 E10.84666
G1 X49.316 Y133.819 E10.95928
G1 X46.778 Y133.53 E11.06468
G1 X46.327 Y133.452 E11.08357
G1 X45.812 Y133.304 E11.10568
G1 X45.324 Y133.081 E11.12782
G1 X44.875 Y132.788 E11.14994
G1 X44.475 Y132.432 E11.17204
G1 X44.132 Y132.02 E11.19416
G1 X43.854 Y131.561 E11.2163
G1 X43.647 Y131.067 E11.2384
G1 X43.516 Y130.547 E11.26053
G1 X43.464 Y130.031 E11.28193
G1 X43.454 Y129.608 E11.29939
G1 X43.454 Y80.696 E13.31766
G1 X43.464 Y80.007 E13.3461
G1 X43.512 Y79.473 E13.36822
G1 X43.639 Y78.952 E13.39035
G1 X43.841 Y78.456 E13.41245
G1 X44.115 Y77.995 E13.43457
G1 X44.455 Y77.58 E13.45671
G1 X44.852 Y77.221 E13.4788
G1 X45.298 Y76.924 E13.50091
M204 S3000
G0 F4200 X45.671 Y77.177
M204 S500
G1 F1800 X46.143 Y76.994 E13.5218
G1 X46.695 Y76.881 E13.54505
G1 X47.955 Y76.736 E13.59738
G1 X48.574 Y76.665 E13.62309
G1 X51.334 Y76.296 E13.73799
G1 X54.013 Y75.86 E13.84999
G1 X56.702 Y75.343 E13.96298
G1 X59.364 Y74.754 E14.07548
G1 X59.779 Y74.65 E14.09313
G1 X61.134 Y74.328 E14.1506
G1 X61.766 Y74.243 E14.17692
G1 X62.392 Y74.231 E14.20275
G1 X74.47 Y74.231 E14.70113
G1 X75.167 Y74.241 E14.72989
G1 X75.347 Y74.249 E14.73733
G1 X76.435 Y74.326 E14.78234
G1 X77.243 Y74.394 E14.81579
G1 X79.958 Y74.546 E14.928
G1 X82.711 Y74.623 E15.04164
G1 X85.429 Y74.621 E15.1538
G1 X88.18 Y74.542 E15.26736
G1 X90.943 Y74.384 E15.38155
G1 X92.423 Y74.263 E15.44283
G1 X92.982 Y74.236 E15.46592
G1 X93.434 Y74.231 E15.48457
G1 X105.465 Y74.23 E15.98101
G1 X106.175 Y74.24 E16.01031
G1 X106.768 Y74.304 E16.03492
G1 X106.909 Y74.334 E16.04087
G1 X109.46 Y74.923 E16.1489
G1 X112.109 Y75.455 E16.26039
G1 X114.834 Y75.923 E16.37448
G1 X117.557 Y76.312 E16.48798
G1 X120.257 Y76.62 E16.60012
G1 X123.256 Y76.875 E16.72431
G1 X123.755 Y76.956 E16.74517
G1 X124.448 Y77.199 E16.77547
G1 X124.542 Y77.238 E16.77967
G1 X160.611 Y93.017 E18.40419
G1 X162.304 Y93.759 E18.48046
G1 X162.939 Y94.048 E18.50925
G1 X163.381 Y94.293 E18.5301
G1 X163.779 Y94.605 E18.55097
G1 X164.123 Y94.976 E18.57185
G1 X164.404 Y95.396 E18.5927
G1 X164.616 Y95.855 E18.61356
G1 X164.753 Y96.341 E18.6344
G1 X164.815 Y96.948 E18.65957
G1 X164.823 Y97.613 E18.68702
G1 X164.822 Y112.358 E19.29544
G1 X164.812 Y113.083 E19.32536
G1 X164.765 Y113.586 E19.34621
G1 X164.639 Y114.076 E19.36709
G1 X164.438 Y114.54 E19.38795
G1 X164.166 Y114.966 E19.40881
G1 X163.831 Y115.344 E19.42965
G1 X163.44 Y115.665 E19.45052
G1 X162.903 Y115.969 E19.47599
G1 X162.291 Y116.247 E19.50372
G1 X124.876 Y132.616 E21.18888
G1 X124.227 Y132.889 E21.21793
G1 X123.747 Y133.047 E21.23878
G1 X123.266 Y133.127 E21.2589
G1 X122.26 Y133.215 E21.30057
G1 X121.436 Y133.275 E21.33466
G1 X118.695 Y133.553 E21.44835
G1 X116.025 Y133.901 E21.55945
G1 X113.288 Y134.335 E21.6738
G1 X110.598 Y134.841 E21.78674
G1 X107.376 Y135.551 E21.92289
G1 X106.86 Y135.673 E21.94476
G1 X106.234 Y135.757 E21.97083
G1 X105.608 Y135.769 E21.99666
G1 X93.53 Y135.769 E22.49504
G1 X92.833 Y135.759 E22.5238
G1 X92.653 Y135.751 E22.53124
G1 X91.565 Y135.674 E22.57625
G1 X90.757 Y135.606 E22.6097
G1 X88.042 Y135.454 E22.72191
G1 X85.289 Y135.377 E22.83555
G1 X82.571 Y135.379 E22.94771
G1 X79.82 Y135.458 E23.06127
G1 X77.057 Y135.616 E23.17547
G1 X75.577 Y135.737 E23.23674
G1 X75.077 Y135.762 E23.2574
G1 X74.608 Y135.769 E23.27675
G1 X62.53 Y135.769 E23.77513
G1 X61.829 Y135.759 E23.80406
G1 X61.092 Y135.664 E23.83472
G1 X60.126 Y135.427 E23.87576
G1 X57.459 Y134.812 E23.9887
G1 X54.787 Y134.276 E24.10115
G1 X52.07 Y133.81 E24.2149
G1 X49.38 Y133.427 E24.32702
G1 X46.823 Y133.136 E24.43321
G1 X46.408 Y133.063 E24.4506
G1 X45.922 Y132.921 E24.47149
G1 X45.465 Y132.705 E24.49235
G1 X45.048 Y132.419 E24.51321
G1 X44.682 Y132.071 E24.53405
G1 X44.374 Y131.67 E24.55492
G1 X44.134 Y131.226 E24.57574
G1 X43.966 Y130.749 E24.59661
G1 X43.861 Y130.02 E24.627
G1 X43.851 Y129.608 E24.64401
G1 X43.851 Y80.702 E26.66203
G1 X43.861 Y80.013 E26.69047
G1 X43.909 Y79.509 E26.71136
G1 X44.035 Y79.02 E26.7322
G1 X44.236 Y78.556 E26.75306
G1 X44.508 Y78.13 E26.77392
G1 X44.844 Y77.752 E26.79479
G1 X45.235 Y77.432 E26.81563
G1 X45.671 Y77.177 E26.83648
M204 S3000
G1 F3000 E21.83648
G0 F4200 X61.953 Y77.628
M204 S500
;TYPE:SUPPORT
G1 F3000 E26.89884
G1 F1080 X75.047 Y77.628 E27.43914
G1 X75.047 Y79.157 E27.50223
G1 X61.953 Y79.157 E28.04253
G1 X61.953 Y77.628 E28.10563
M204 S3000
G0 F4200 X62.099 Y78
M204 S500
G1 F1080 X74.9 Y78 E28.63384
M204 S3000
G0 F4200 X74 Y77.775
M204 S500
G1 F1080 X74 Y79.01 E28.6848
M204 S3000
G0 F4200 X74.9 Y79
M204 S500
G1 F1080 X62.099 Y79 E29.21301
M204 S3000
G0 F4200 X63 Y79.01
M204 S500
G1 F1080 X63 Y77.775 E29.26397
M204 S3000
G0 F4200 X64 Y77.775
M204 S500
G1 F1080 X64 Y79.01 E29.31493
M204 S3000
G0 F4200 X65 Y79.01
M204 S500
G1 F1080 X65 Y77.775 E29.36589
M204 S3000
G0 F4200 X66 Y77.775
M204 S500
G1 F1080 X66 Y79.01 E29.41685
M204 S3000
G0 F4200 X67 Y79.01
M204 S500
G1 F1080 X67 Y77.775 E29.46781
M204 S3000
G0 F4200 X68 Y77.775
M204 S500
G1 F1080 X68 Y79.01 E29.51877
M204 S3000
G0 F4200 X69 Y79.01
M204 S500
G1 F1080 X69 Y77.775 E29.56973
M204 S3000
G0 F4200 X70 Y77.775
M204 S500
G1 F1080 X70 Y79.01 E29.62069
M204 S3000
G0 F4200 X71 Y79.01
M204 S500
G1 F1080 X71 Y77.775 E29.67165
M204 S3000
G0 F4200 X72 Y77.775
M204 S500
G1 F1080 X72 Y79.01 E29.72261
M204 S3000
G0 F4200 X73 Y79.01
M204 S500
G1 F1080 X73 Y77.775 E29.77357
M204 S3000
G1 F3000 E24.77357
G0 F4200 X92.953 Y77.628
M204 S500
G1 F3000 E29.83594
G1 F1080 X106.047 Y77.627 E30.37624
G1 X106.047 Y79.157 E30.43937
G1 X92.953 Y79.157 E30.97967
G1 X92.953 Y77.628 E31.04277
M204 S3000
G0 F4200 X93.1 Y78
M204 S500
G1 F1080 X105.9 Y78 E31.57094
M204 S3000
G0 F4200 X105 Y77.774
M204 S500
G1 F1080 X105 Y79.01 E31.62194
M204 S3000
G0 F4200 X105.9 Y79
M204 S500
G1 F1080 X93.1 Y79 E32.15011
M204 S3000
G0 F4200 X94 Y79.01
M204 S500
G1 F1080 X94 Y77.774 E32.20111
M204 S3000
G0 F4200 X95 Y77.774
M204 S500
G1 F1080 X95 Y79.01 E32.25211
M204 S3000
G0 F4200 X96 Y79.01
M204 S500
G1 F1080 X96 Y77.774 E32.30311
M204 S3000
G0 F4200 X97 Y77.774
M204 S500
G1 F1080 X97 Y79.01 E32.35412
M204 S3000
G0 F4200 X98 Y79.01
M204 S500
G1 F1080 X98 Y77.774 E32.40512
M204 S3000
G0 F4200 X99 Y77.774
M204 S500
G1 F1080 X99 Y79.01 E32.45612
M204 S3000
G0 F4200 X100 Y79.01
M204 S500
G1 F1080 X100 Y77.774 E32.50712
M204 S3000
G0 F4200 X101 Y77.774
M204 S500
G1 F1080 X101 Y79.01 E32.55812
M204 S3000
G0 F4200 X102 Y79.01
M204 S500
G1 F1080 X102 Y77.774 E32.60912
M204 S3000
G0 F4200 X103 Y77.774
M204 S500
G1 F1080 X103 Y79.01 E32.66012
M204 S3000
G0 F4200 X104 Y79.01
M204 S500
G1 F1080 X104 Y77.774 E32.71113
M204 S3000
G1 F3000 E27.71113
G0 F4200 X106.047 Y130.843
M204 S500
G1 F3000 E32.77349
G1 F1080 X106.047 Y132.372 E32.83658
G1 X92.953 Y132.372 E33.37688
G1 X92.953 Y130.843 E33.43997
G1 X106.047 Y130.843 E33.98028
M204 S3000
G0 F4200 X105.899 Y131
M204 S500
G1 F1080 X93.099 Y131 E34.50845
M204 S3000
G0 F4200 X94 Y130.99
M204 S500
G1 F1080 X94 Y132.225 E34.55941
M204 S3000
G0 F4200 X93.099 Y132
M204 S500
G1 F1080 X105.899 Y132 E35.08758
M204 S3000
G0 F4200 X105 Y132.225
M204 S500
G1 F1080 X105 Y130.99 E35.13854
M204 S3000
G0 F4200 X104 Y130.99
M204 S500
G1 F1080 X104 Y132.225 E35.1895
M204 S3000
G0 F4200 X103 Y132.225
M204 S500
G1 F1080 X103 Y130.99 E35.24046
M204 S3000
G0 F4200 X102 Y130.99
M204 S500
G1 F1080 X102 Y132.225 E35.29142
M204 S3000
G0 F4200 X101 Y132.225
M204 S500
G1 F1080 X101 Y130.99 E35.34238
M204 S3000
G0 F4200 X100 Y130.99
M204 S500
G1 F1080 X100 Y132.225 E35.39334
M204 S3000
G0 F4200 X99 Y132.225
M204 S500
G1 F1080 X99 Y130.99 E35.4443
M204 S3000
G0 F4200 X98 Y130.99
M204 S500
G1 F1080 X98 Y132.225 E35.49526
M204 S3000
G0 F4200 X97 Y132.225
M204 S500
G1 F1080 X97 Y130.99 E35.54622
M204 S3000
G0 F4200 X96 Y130.99
M204 S500
G1 F1080 X96 Y132.225 E35.59718
M204 S3000
G0 F4200 X95 Y132.225
M204 S500
G1 F1080 X95 Y130.99 E35.64814
M204 S3000
G1 F3000 E30.64814
G0 F4200 X75.047 Y130.843
M204 S500
G1 F3000 E35.7105
G1 F1080 X75.047 Y132.372 E35.7736
G1 X61.953 Y132.372 E36.3139
G1 X61.953 Y130.843 E36.37699
G1 X75.047 Y130.843 E36.91729
M204 S3000
G0 F4200 X74.899 Y131
M204 S500
G1 F1080 X62.099 Y131 E37.44546
M204 S3000
G0 F4200 X63 Y130.99
M204 S500
G1 F1080 X63 Y132.225 E37.49642
M204 S3000
G0 F4200 X62.099 Y132
M204 S500
G1 F1080 X74.899 Y132 E38.02459
M204 S3000
G0 F4200 X74 Y132.225
M204 S500
G1 F1080 X74 Y130.99 E38.07555
M204 S3000
G0 F4200 X73 Y130.99
M204 S500
G1 F1080 X73 Y132.225 E38.12652
M204 S3000
G0 F4200 X72 Y132.225
M204 S500
G1 F1080 X72 Y130.99 E38.17748
M204 S3000
G0 F4200 X71 Y130.99
M204 S500
G1 F1080 X71 Y132.225 E38.22844
M204 S3000
G0 F4200 X70 Y132.225
M204 S500
G1 F1080 X70 Y130.99 E38.2794
M204 S3000
G0 F4200 X69 Y130.99
M204 S500
G1 F1080 X69 Y132.225 E38.33036
M204 S3000
G0 F4200 X68 Y132.225
M204 S500
G1 F1080 X68 Y130.99 E38.38132
M204 S3000
G0 F4200 X67 Y130.99
M204 S500
G1 F1080 X67 Y132.225 E38.43228
M204 S3000
G0 F4200 X66 Y132.225
M204 S500
G1 F1080 X66 Y130.99 E38.48324
M204 S3000
G0 F4200 X65 Y130.99
M204 S500
G1 F1080 X65 Y132.225 E38.5342
M204 S3000
G0 F4200 X64 Y132.225
M204 S500
G1 F1080 X64 Y130.99 E38.58516
M204 S3000
G1 F3000 E33.58516
;MESH:tip-midpart.stl
G0 F4200 X142.605 Y104.144
M204 S500
;TYPE:WALL-INNER
G1 F3000 E38.64752
G1 F1080 X160.644 Y104.144 E39.39187
G1 X160.644 Y99.04 E39.60248
G1 X160.638 Y99.038 E39.60274
G1 X122.143 Y82.198 E41.33651
G1 X121.537 Y83.076 E41.38053
G1 X142.605 Y104.144 E42.60996
M204 S3000
G0 F4200 X142.767 Y103.753
M204 S500
;TYPE:WALL-OUTER
G1 F1080 X160.253 Y103.753 E43.33149
G1 X160.253 Y99.296 E43.5154
G1 X122.282 Y82.685 E45.22558
G1 X122.044 Y83.03 E45.24287
G1 X142.767 Y103.753 E46.45217
M204 S3000
G0 F4200 X142.967 Y103.753
G0 X142.967 Y104.189
G1 F3000 E41.45217
G0 F4200 X139.058 Y104.144
M204 S500
;TYPE:WALL-INNER
G1 F3000 E46.51453
G1 F1080 X139.391 Y103.35 E46.55006
G1 X118.397 Y82.356 E47.77517
G1 X49.356 Y82.356 E50.62403
G1 X49.356 Y104.144 E51.52308
G1 X139.058 Y104.144 E55.22448
M204 S3000
G0 F4200 X138.798 Y103.753
M204 S500
;TYPE:WALL-OUTER
G1 F1080 X138.929 Y103.441 E55.23845
G1 X138.879 Y103.391 E55.24136
G1 X118.235 Y82.747 E56.44605
G1 X49.747 Y82.747 E59.27209
G1 X49.747 Y103.753 E60.13887
G1 X138.727 Y103.753 E63.81048
G1 X138.798 Y103.753 E63.81341
M204 S3000
G0 F4200 X138.875 Y103.569
G0 X139.277 Y103.738
G1 F3000 E58.81341
G0 F4200 X122.143 Y127.802
M204 S500
;TYPE:WALL-INNER
G1 F3000 E63.87578
G1 F1080 X160.638 Y110.962 E65.60955
G1 X160.644 Y110.96 E65.60981
G1 X160.644 Y105.856 E65.82042
G1 X142.605 Y105.856 E66.56477
G1 X121.537 Y126.924 E67.7942
G1 X122.143 Y127.802 E67.83822
M204 S3000
G0 F4200 X122.282 Y127.315
M204 S500
;TYPE:WALL-OUTER
G1 F1080 X160.253 Y110.704 E69.54839
G1 X160.253 Y106.247 E69.7323
G1 X142.767 Y106.247 E70.45384
G1 X122.044 Y126.97 E71.66313
G1 X122.282 Y127.315 E71.68042
M204 S3000
G0 F4200 X122.465 Y127.235
G0 X122.638 Y127.634
G1 F3000 E66.68042
G0 F4200 X118.397 Y127.644
M204 S500
;TYPE:WALL-INNER
G1 F3000 E71.74279
G1 F1080 X139.391 Y106.65 E72.9679
G1 X139.058 Y105.856 E73.00342
G1 X49.356 Y105.856 E76.70483
G1 X49.356 Y127.644 E77.60388
G1 X118.397 Y127.644 E80.45274
M204 S3000
G0 F4200 X118.235 Y127.253
M204 S500
;TYPE:WALL-OUTER
G1 F1080 X138.879 Y106.609 E81.65742
G1 X138.929 Y106.559 E81.66034
G1 X138.798 Y106.247 E81.6743
G1 X138.727 Y106.247 E81.67723
G1 X49.747 Y106.247 E85.34885
G1 X49.747 Y127.253 E86.21563
G1 X118.235 Y127.253 E89.04167
M204 S3000
G0 F4200 X118.376 Y127.112
G0 X118.684 Y127.42
G1 F3000 E84.04167
G0 F4200 X122.865 Y129.356
M204 S500
;TYPE:WALL-INNER
G1 F3000 E89.10403
G1 F1080 X47.644 Y129.356 E92.2079
G1 X47.644 Y80.644 E94.21792
G1 X122.865 Y80.644 E97.3218
G1 X159.089 Y96.491 E98.95329
G1 X161.03 Y97.342 E99.04074
G1 X161.03 Y99.033 E99.11052
G1 X161.03 Y99.04 E99.11081
G1 X161.03 Y104.144 E99.3161
G1 X161.03 Y105.856 E99.38674
G1 X161.03 Y110.96 E99.59203
G1 X161.03 Y110.967 E99.59232
