;FLAVOR:Marlin
;TIME:1680
;Filament used: 1.39105m
;Layer height: 0.2
;MINX:44.975
;MINY:85.454
;MINZ:0.25
;MAXX:165.046
;MAXY:118.546
;MAXZ:5.85
;Generated with Cura_SteamEngine 4.7.1
M140 S60
M105
M190 S60
M104 S200
M105
M109 S200
M82 ;absolute extrusion mode
; Script based on an original created by tjjfvi (https://github.com/tjjfvi)
; An up-to-date version of the tjjfvi's original script can be found
; here:  https://csi.t6.fyi/
; Note - This script will only work in Cura V4.2 and above!
; --- Global Settings
; layer_height = 0.2
; smooth_spiralized_contours = True
; magic_mesh_surface_mode = normal
; machine_extruder_count = 1
; --- Single Extruder Settings
; speed_z_hop = 10
; retraction_amount = 5
; retraction_hop = 0.075
; retraction_hop_enabled = True
; retraction_enable = True
; retraction_speed = 50
; retraction_retract_speed = 50
; retraction_prime_speed = 50
; speed_travel = 120

G21 ;metric values
G90 ;absolute positioning
M82 ;set extruder to absolute mode
M107 ;start with the fan off
G28 X0 Y0 ;move X/Y to min endstops
G28 Z0 ;move Z to min endstops
G1 Z15.0 F120 ;move the platform down 15mm
G92 E0 ;zero the extruded length
G1 F200 E3 ;extrude 3mm of feed stock
G92 E0 ;zero the extruded length again
G1 F120
G0 Y20 F120
M117 Printing...
G5
G92 E0
G92 E0
G1 F3000 E-5
;LAYER_COUNT:29
;LAYER:0
M106 S51
M204 S3000
M205 X10 Y10
G1 F600 Z0.325
G0 F4200 X52.997 Y87.828 Z0.325
M204 S500
;TYPE:SKIRT
G1 F600 Z0.25
G1 F3000 E0.06236
G1 F1800 X53.442 Y87.571 E0.08357
G1 X54.239 Y87.184 E0.12013
G1 X54.912 Y86.871 E0.15075
G1 X55.581 Y86.57 E0.18102
G1 X56.073 Y86.39 E0.20264
G1 X56.953 Y86.14 E0.24039
G1 X57.694 Y85.941 E0.27205
G1 X58.334 Y85.778 E0.2993
G1 X58.853 Y85.686 E0.32105
G1 X59.742 Y85.595 E0.35793
G1 X60.59 Y85.521 E0.39305
G1 X61.2 Y85.476 E0.41829
G1 X61.411 Y85.466 E0.427
G1 X62.206 Y85.454 E0.45981
G1 X78.84 Y85.454 E1.14619
G1 X79.538 Y85.464 E1.17499
G1 X80.443 Y85.537 E1.21246
G1 X158.469 Y94.099 E4.4514
G1 X161.168 Y94.397 E4.56344
G1 X161.21 Y94.401 E4.56519
G1 X161.866 Y94.481 E4.59245
G1 X162.311 Y94.564 E4.61113
G1 X162.82 Y94.733 E4.63326
G1 X163.298 Y94.975 E4.65537
G1 X163.735 Y95.285 E4.67748
G1 X164.121 Y95.657 E4.6996
G1 X164.447 Y96.083 E4.72173
G1 X164.707 Y96.552 E4.74386
G1 X164.893 Y97.054 E4.76595
G1 X165.004 Y97.579 E4.78809
G1 X165.042 Y98.183 E4.81307
G1 X165.046 Y98.419 E4.82281
G1 X165.046 Y105.264 E5.10525
G1 X165.037 Y105.99 E5.13521
G1 X164.99 Y106.524 E5.15733
G1 X164.865 Y107.045 E5.17944
G1 X164.663 Y107.541 E5.20154
G1 X164.39 Y108.003 E5.22368
G1 X164.052 Y108.418 E5.24577
G1 X163.655 Y108.779 E5.26791
G1 X163.209 Y109.076 E5.29002
G1 X162.724 Y109.304 E5.31214
G1 X161.964 Y109.503 E5.34455
G1 X161.428 Y109.575 E5.36687
G1 X83.304 Y118.149 E8.60988
G1 X80.479 Y118.459 E8.72715
G1 X79.847 Y118.519 E8.75335
G1 X79.436 Y118.54 E8.77033
G1 X78.921 Y118.546 E8.79158
G1 X62.158 Y118.546 E9.48328
G1 X61.476 Y118.536 E9.51142
G1 X61.275 Y118.527 E9.51973
G1 X60.452 Y118.468 E9.55377
G1 X59.525 Y118.387 E9.59217
G1 X58.922 Y118.326 E9.61718
G1 X58.408 Y118.236 E9.63871
G1 X57.556 Y118.022 E9.67496
G1 X56.763 Y117.809 E9.70884
G1 X56.123 Y117.628 E9.73628
G1 X55.634 Y117.451 E9.75774
G1 X54.795 Y117.075 E9.79568
G1 X54.116 Y116.758 E9.8266
G1 X53.492 Y116.457 E9.85519
G1 X53.039 Y116.196 E9.87676
G1 X52.292 Y115.691 E9.91397
G1 X51.695 Y115.273 E9.94404
G1 X51.093 Y114.839 E9.97466
G1 X50.692 Y114.504 E9.99622
G1 X50.077 Y113.908 E10.03156
G1 X49.485 Y113.315 E10.06614
G1 X49.032 Y112.849 E10.09295
G1 X48.699 Y112.453 E10.1143
G1 X48.151 Y111.696 E10.15287
G1 X47.74 Y111.109 E10.18244
G1 X47.328 Y110.501 E10.21274
G1 X47.072 Y110.059 E10.23382
G1 X46.669 Y109.23 E10.27185
G1 X46.349 Y108.543 E10.30312
G1 X46.068 Y107.917 E10.33144
G1 X45.892 Y107.432 E10.35273
G1 X45.638 Y106.543 E10.39088
G1 X45.44 Y105.803 E10.42249
G1 X45.279 Y105.168 E10.44952
G1 X45.188 Y104.656 E10.47098
G1 X45.089 Y103.694 E10.51088
G1 X45.029 Y103.006 E10.53938
G1 X44.976 Y102.289 E10.56905
G1 X44.975 Y101.769 E10.5905
G1 X45.042 Y100.837 E10.62906
G1 X45.112 Y100.039 E10.66211
G1 X45.175 Y99.416 E10.68795
G1 X45.265 Y98.902 E10.70948
G1 X45.491 Y98.004 E10.74769
G1 X45.684 Y97.287 E10.77833
G1 X45.873 Y96.618 E10.80702
G1 X46.052 Y96.127 E10.82858
G1 X46.43 Y95.283 E10.86674
G1 X46.747 Y94.603 E10.8977
G1 X47.038 Y93.999 E10.92537
G1 X47.3 Y93.544 E10.94703
G1 X47.837 Y92.752 E10.98652
G1 X48.237 Y92.182 E11.01525
G1 X48.659 Y91.595 E11.04508
G1 X48.996 Y91.192 E11.06676
G1 X49.598 Y90.571 E11.10245
G1 X50.199 Y89.971 E11.13749
G1 X50.658 Y89.526 E11.16387
G1 X51.048 Y89.198 E11.1849
G1 X51.763 Y88.68 E11.22133
G1 X52.429 Y88.213 E11.25489
G1 X52.997 Y87.828 E11.28321
M204 S3000
G0 F4200 X53.22 Y88.157
M204 S500
G1 F1800 X53.615 Y87.928 E11.30205
G1 X54.406 Y87.544 E11.33833
G1 X55.074 Y87.233 E11.36873
G1 X55.743 Y86.932 E11.399
G1 X56.181 Y86.772 E11.41825
G1 X57.056 Y86.524 E11.45577
G1 X57.792 Y86.326 E11.48722
G1 X58.432 Y86.163 E11.51447
G1 X58.893 Y86.081 E11.5338
G1 X59.776 Y85.99 E11.57042
G1 X60.62 Y85.917 E11.60538
G1 X61.23 Y85.872 E11.63062
G1 X61.417 Y85.863 E11.63834
G1 X62.212 Y85.851 E11.67115
G1 X78.834 Y85.851 E12.35703
G1 X79.532 Y85.861 E12.38584
G1 X80.405 Y85.932 E12.42198
G1 X158.426 Y94.494 E15.66071
G1 X161.162 Y94.796 E15.7743
G1 X161.818 Y94.876 E15.80157
G1 X162.215 Y94.95 E15.81823
G1 X162.694 Y95.11 E15.83907
G1 X163.142 Y95.345 E15.85994
G1 X163.547 Y95.647 E15.88079
G1 X163.9 Y96.009 E15.90165
G1 X164.191 Y96.422 E15.9225
G1 X164.414 Y96.876 E15.94337
G1 X164.562 Y97.359 E15.96422
G1 X164.636 Y97.941 E15.98843
G1 X164.649 Y98.424 E16.00836
G1 X164.649 Y105.259 E16.2904
G1 X164.64 Y105.985 E16.32036
G1 X164.594 Y106.488 E16.3412
G1 X164.469 Y106.978 E16.36207
G1 X164.268 Y107.442 E16.38293
G1 X163.997 Y107.869 E16.4038
G1 X163.662 Y108.247 E16.42464
G1 X163.272 Y108.568 E16.44548
G1 X162.836 Y108.824 E16.46635
G1 X162.365 Y109.008 E16.48721
G1 X161.668 Y109.145 E16.51652
G1 X161.351 Y109.184 E16.5297
G1 X83.261 Y117.754 E19.7713
G1 X80.441 Y118.064 E19.88837
G1 X79.809 Y118.124 E19.91456
G1 X79.431 Y118.143 E19.93018
G1 X78.916 Y118.149 E19.95143
G1 X62.164 Y118.149 E20.64268
G1 X61.482 Y118.139 E20.67082
G1 X61.303 Y118.131 E20.67821
G1 X60.487 Y118.073 E20.71197
G1 X59.565 Y117.992 E20.75016
G1 X58.962 Y117.931 E20.77517
G1 X58.505 Y117.851 E20.79431
G1 X57.604 Y117.624 E20.83265
G1 X56.871 Y117.427 E20.86397
G1 X56.231 Y117.246 E20.89142
G1 X55.796 Y117.088 E20.91052
G1 X54.963 Y116.715 E20.94818
G1 X54.288 Y116.4 E20.97891
G1 X53.664 Y116.099 E21.0075
G1 X53.261 Y115.867 E21.02669
G1 X52.52 Y115.366 E21.0636
G1 X51.889 Y114.923 E21.09541
G1 X51.325 Y114.517 E21.12409
G1 X50.968 Y114.219 E21.14327
G1 X50.394 Y113.663 E21.17625
G1 X49.769 Y113.038 E21.21272
G1 X49.316 Y112.572 E21.23954
G1 X49.02 Y112.22 E21.25852
G1 X48.476 Y111.468 E21.29681
G1 X48.069 Y110.887 E21.32608
G1 X47.657 Y110.279 E21.35639
G1 X47.429 Y109.885 E21.37517
G1 X47.029 Y109.063 E21.41289
G1 X46.712 Y108.38 E21.44397
G1 X46.431 Y107.754 E21.47228
G1 X46.273 Y107.323 E21.49122
G1 X46.021 Y106.441 E21.52907
G1 X45.825 Y105.705 E21.5605
G1 X45.664 Y105.07 E21.58753
G1 X45.583 Y104.615 E21.6066
G1 X45.484 Y103.659 E21.64626
G1 X45.425 Y102.977 E21.67451
G1 X45.372 Y102.26 E21.70417
G1 X45.371 Y101.797 E21.72328
G1 X45.437 Y100.872 E21.76154
G1 X45.507 Y100.079 E21.79439
G1 X45.57 Y99.456 E21.82023
G1 X45.65 Y98.999 E21.83938
G1 X45.875 Y98.107 E21.87734
G1 X46.066 Y97.395 E21.90775
G1 X46.255 Y96.726 E21.93644
G1 X46.414 Y96.289 E21.95563
G1 X46.79 Y95.451 E21.99353
G1 X47.105 Y94.776 E22.02426
G1 X47.396 Y94.172 E22.05193
G1 X47.629 Y93.767 E22.07121
G1 X48.162 Y92.98 E22.11043
G1 X48.56 Y92.414 E22.13898
G1 X48.982 Y91.827 E22.16881
G1 X49.282 Y91.468 E22.18812
G1 X49.879 Y90.852 E22.22351
G1 X50.475 Y90.256 E22.25829
G1 X50.934 Y89.811 E22.28467
G1 X51.281 Y89.52 E22.30336
G1 X51.991 Y89.005 E22.33955
G1 X52.652 Y88.542 E22.37285
G1 X53.22 Y88.157 E22.40117
M204 S3000
G1 F3000 E17.40117
;MESH:tip-motorside.stl
G0 F4200 X152.845 Y103.781
M204 S500
;TYPE:WALL-INNER
G1 F3000 E22.46353
G1 F1080 X153.289 Y103.885 E22.48235
G1 X153.749 Y103.882 E22.50133
G1 X154.189 Y103.767 E22.52009
G1 X154.593 Y103.551 E22.539
G1 X154.932 Y103.244 E22.55787
G1 X155.188 Y102.865 E22.57674
G1 X155.348 Y102.436 E22.59563
G1 X155.396 Y101.982 E22.61447
G1 X155.339 Y101.529 E22.63331
G1 X155.171 Y101.101 E22.65228
G1 X154.908 Y100.728 E22.67112
G1 X154.561 Y100.426 E22.6901
G1 X154.153 Y100.219 E22.70898
G1 X153.711 Y100.115 E22.72771
G1 X153.251 Y100.118 E22.7467
G1 X152.811 Y100.233 E22.76546
G1 X152.407 Y100.449 E22.78436
G1 X152.068 Y100.756 E22.80324
G1 X151.812 Y101.135 E22.82211
G1 X151.652 Y101.564 E22.841
G1 X151.604 Y102.018 E22.85984
G1 X151.661 Y102.471 E22.87868
G1 X151.829 Y102.898 E22.89761
G1 X152.09 Y103.27 E22.91636
G1 X152.425 Y103.566 E22.93481
G1 X152.845 Y103.781 E22.95428
M204 S3000
G0 F4200 X152.981 Y103.411
M204 S500
;TYPE:WALL-OUTER
G1 F1080 X153.333 Y103.494 E22.9692
G1 X153.697 Y103.491 E22.98422
G1 X154.046 Y103.4 E22.99911
G1 X154.366 Y103.229 E23.01408
G1 X154.635 Y102.986 E23.02904
G1 X154.838 Y102.685 E23.04402
G1 X154.964 Y102.346 E23.05894
G1 X155.002 Y101.986 E23.07388
G1 X154.957 Y101.626 E23.08885
G1 X154.824 Y101.288 E23.10384
G1 X154.616 Y100.992 E23.11876
G1 X154.341 Y100.753 E23.1338
G1 X154.018 Y100.589 E23.14875
G1 X153.667 Y100.506 E23.16363
G1 X153.303 Y100.509 E23.17865
G1 X152.954 Y100.6 E23.19353
G1 X152.634 Y100.771 E23.2085
G1 X152.365 Y101.014 E23.22346
G1 X152.162 Y101.315 E23.23844
G1 X152.036 Y101.654 E23.25336
G1 X151.998 Y102.014 E23.2683
G1 X152.043 Y102.374 E23.28327
G1 X152.176 Y102.712 E23.29826
G1 X152.383 Y103.007 E23.31313
G1 X152.647 Y103.24 E23.32766
G1 X152.981 Y103.411 E23.34314
M204 S3000
G0 F4200 X153.176 Y103.456
G0 X153.075 Y103.881
G1 F3000 E18.34314
G0 F4200 X129.856 Y104.269
M204 S500
;TYPE:WALL-INNER
G1 F3000 E23.40551
G1 F1080 X146.144 Y104.269 E24.0776
G1 X146.144 Y99.731 E24.26486
G1 X129.856 Y99.731 E24.93695
G1 X129.856 Y104.269 E25.12421
M204 S3000
G0 F4200 X130.247 Y103.878
M204 S500
;TYPE:WALL-OUTER
G1 F1080 X145.753 Y103.878 E25.76404
G1 X145.753 Y100.122 E25.91902
G1 X130.247 Y100.122 E26.55885
G1 X130.247 Y103.878 E26.71384
M204 S3000
G0 F4200 X130.447 Y103.878
G0 X130.447 Y104.314
G1 F3000 E21.71384
G0 F4200 X122.289 Y103.885
M204 S500
;TYPE:WALL-INNER
G1 F3000 E26.7762
G1 F1080 X122.749 Y103.882 E26.79518
G1 X123.189 Y103.767 E26.81395
G1 X123.593 Y103.551 E26.83285
G1 X123.932 Y103.244 E26.85172
G1 X124.188 Y102.865 E26.87059
G1 X124.348 Y102.436 E26.88949
G1 X124.396 Y101.982 E26.90833
G1 X124.339 Y101.529 E26.92717
G1 X124.171 Y101.101 E26.94614
G1 X123.908 Y100.728 E26.96497
G1 X123.561 Y100.426 E26.98395
G1 X123.153 Y100.219 E27.00283
G1 X122.711 Y100.115 E27.02157
G1 X122.251 Y100.118 E27.04055
G1 X121.811 Y100.233 E27.05931
G1 X121.407 Y100.449 E27.07822
G1 X121.068 Y100.756 E27.09709
G1 X120.812 Y101.135 E27.11596
G1 X120.652 Y101.564 E27.13485
G1 X120.604 Y102.018 E27.15369
G1 X120.661 Y102.471 E27.17253
G1 X120.829 Y102.898 E27.19147
G1 X121.09 Y103.27 E27.21022
G1 X121.425 Y103.566 E27.22866
G1 X121.845 Y103.781 E27.24813
G1 X122.289 Y103.885 E27.26695
M204 S3000
G0 F4200 X122.333 Y103.494
M204 S500
;TYPE:WALL-OUTER
G1 F1080 X122.697 Y103.491 E27.28197
G1 X123.046 Y103.4 E27.29685
G1 X123.366 Y103.229 E27.31182
G1 X123.635 Y102.986 E27.32678
G1 X123.838 Y102.685 E27.34176
G1 X123.964 Y102.346 E27.35669
G1 X124.002 Y101.986 E27.37162
G1 X123.957 Y101.626 E27.38659
G1 X123.824 Y101.288 E27.40158
G1 X123.616 Y100.992 E27.41651
G1 X123.341 Y100.753 E27.43154
G1 X123.018 Y100.589 E27.44649
G1 X122.667 Y100.506 E27.46137
G1 X122.303 Y100.509 E27.47639
G1 X121.954 Y100.6 E27.49128
G1 X121.634 Y100.771 E27.50625
G1 X121.365 Y101.014 E27.52121
G1 X121.162 Y101.315 E27.53619
G1 X121.036 Y101.654 E27.55111
G1 X120.998 Y102.014 E27.56605
G1 X121.043 Y102.374 E27.58102
G1 X121.176 Y102.712 E27.59601
G1 X121.383 Y103.007 E27.61088
G1 X121.647 Y103.24 E27.62541
G1 X121.981 Y103.411 E27.64089
G1 X122.333 Y103.494 E27.65581
M204 S3000
G0 F4200 X122.533 Y103.493
G0 X122.535 Y103.929
G1 F3000 E22.65581
G0 F4200 X62.086 Y96.041
M204 S500
;TYPE:WALL-INNER
G1 F3000 E27.71818
G1 F1080 X62.437 Y95.856 E27.73455
G1 X62.735 Y95.593 E27.75095
G1 X62.96 Y95.266 E27.76733
G1 X63.102 Y94.894 E27.78376
G1 X63.148 Y94.5 E27.80013
G1 X63.102 Y94.106 E27.81649
G1 X62.96 Y93.734 E27.83292
G1 X62.735 Y93.407 E27.8493
G1 X62.437 Y93.144 E27.8657
G1 X62.086 Y92.959 E27.88207
G1 X61.7 Y92.863 E27.89849
G1 X61.3 Y92.863 E27.91499
G1 X60.914 Y92.959 E27.93141
G1 X60.563 Y93.144 E27.94778
G1 X60.265 Y93.407 E27.96418
G1 X60.04 Y93.734 E27.98056
G1 X59.898 Y94.106 E27.99699
G1 X59.852 Y94.5 E28.01336
G1 X59.898 Y94.894 E28.02972
G1 X60.04 Y95.266 E28.04615
G1 X60.265 Y95.593 E28.06253
G1 X60.563 Y95.856 E28.07893
G1 X60.914 Y96.041 E28.09531
G1 X61.3 Y96.137 E28.11172
G1 X61.7 Y96.137 E28.12822
G1 X62.086 Y96.041 E28.14464
M204 S3000
G0 F4200 X61.946 Y95.673
M204 S500
;TYPE:WALL-OUTER
G1 F1080 X62.213 Y95.532 E28.1571
G1 X62.44 Y95.332 E28.16958
G1 X62.611 Y95.083 E28.18204
G1 X62.719 Y94.8 E28.19454
G1 X62.754 Y94.5 E28.20701
G1 X62.719 Y94.2 E28.21947
G1 X62.611 Y93.917 E28.23197
G1 X62.44 Y93.668 E28.24443
G1 X62.213 Y93.468 E28.25692
G1 X61.946 Y93.327 E28.26937
G1 X61.652 Y93.254 E28.28187
G1 X61.348 Y93.254 E28.29442
G1 X61.054 Y93.327 E28.30692
G1 X60.787 Y93.468 E28.31938
G1 X60.56 Y93.668 E28.33186
G1 X60.389 Y93.917 E28.34432
G1 X60.281 Y94.2 E28.35682
G1 X60.246 Y94.5 E28.36929
G1 X60.281 Y94.8 E28.38175
G1 X60.389 Y95.083 E28.39425
G1 X60.56 Y95.332 E28.40671
G1 X60.787 Y95.532 E28.4192
G1 X61.054 Y95.673 E28.43166
G1 X61.348 Y95.746 E28.44416
G1 X61.652 Y95.746 E28.4567
G1 X61.946 Y95.673 E28.4692
M204 S3000
G0 F4200 X62.123 Y95.58
G0 X62.326 Y95.966
G1 F3000 E23.4692
G0 F4200 X54.586 Y103.541
M204 S500
;TYPE:WALL-INNER
G1 F3000 E28.53156
G1 F1080 X54.937 Y103.356 E28.54793
G1 X55.235 Y103.093 E28.56433
G1 X55.46 Y102.766 E28.58071
G1 X55.602 Y102.394 E28.59714
G1 X55.648 Y102 E28.61351
G1 X55.602 Y101.606 E28.62988
G1 X55.46 Y101.234 E28.64631
G1 X55.235 Y100.907 E28.66269
G1 X54.937 Y100.644 E28.67909
G1 X54.586 Y100.459 E28.69546
G1 X54.2 Y100.363 E28.71187
G1 X53.8 Y100.363 E28.72838
G1 X53.414 Y100.459 E28.74479
G1 X53.063 Y100.644 E28.76116
G1 X52.765 Y100.907 E28.77757
G1 X52.54 Y101.234 E28.79394
G1 X52.398 Y101.606 E28.81037
G1 X52.352 Y102 E28.82674
G1 X52.398 Y102.394 E28.84311
G1 X52.54 Y102.766 E28.85954
G1 X52.765 Y103.093 E28.87592
G1 X53.063 Y103.356 E28.89232
G1 X53.414 Y103.541 E28.90869
G1 X53.8 Y103.637 E28.9251
G1 X54.2 Y103.637 E28.94161
G1 X54.586 Y103.541 E28.95802
M204 S3000
G0 F4200 X54.446 Y103.173
M204 S500
;TYPE:WALL-OUTER
G1 F1080 X54.713 Y103.032 E28.97048
G1 X54.94 Y102.832 E28.98297
G1 X55.111 Y102.583 E28.99543
G1 X55.219 Y102.3 E29.00793
G1 X55.254 Y102 E29.02039
G1 X55.219 Y101.7 E29.03286
G1 X55.111 Y101.417 E29.04535
G1 X54.94 Y101.168 E29.05782
G1 X54.713 Y100.968 E29.0703
G1 X54.446 Y100.827 E29.08276
G1 X54.152 Y100.754 E29.09526
G1 X53.848 Y100.754 E29.1078
G1 X53.554 Y100.827 E29.1203
G1 X53.287 Y100.968 E29.13276
G1 X53.06 Y101.168 E29.14525
G1 X52.889 Y101.417 E29.15771
G1 X52.781 Y101.7 E29.17021
G1 X52.746 Y102 E29.18267
G1 X52.781 Y102.3 E29.19514
G1 X52.889 Y102.583 E29.20764
G1 X53.06 Y102.832 E29.2201
G1 X53.287 Y103.032 E29.23258
G1 X53.554 Y103.173 E29.24504
G1 X53.848 Y103.246 E29.25754
G1 X54.152 Y103.246 E29.27009
G1 X54.446 Y103.173 E29.28259
M204 S3000
G0 F4200 X54.623 Y103.08
G0 X54.826 Y103.466
G1 F3000 E24.28259
G0 F4200 X62.086 Y111.041
M204 S500
;TYPE:WALL-INNER
G1 F3000 E29.34495
G1 F1080 X62.437 Y110.856 E29.36132
G1 X62.735 Y110.593 E29.37772
G1 X62.96 Y110.266 E29.3941
G1 X63.102 Y109.894 E29.41053
G1 X63.148 Y109.5 E29.4269
G1 X63.102 Y109.106 E29.44327
G1 X62.96 Y108.734 E29.4597
G1 X62.735 Y108.407 E29.47608
G1 X62.437 Y108.144 E29.49248
G1 X62.086 Y107.959 E29.50885
G1 X61.7 Y107.863 E29.52526
G1 X61.3 Y107.863 E29.54177
G1 X60.914 Y107.959 E29.55818
