;FLAVOR:Marlin
;TIME:2454
;Filament used: 2.24158m
;Layer height: 0.2
;MINX:44.975
;MINY:84.954
;MINZ:0.25
;MAXX:165.046
;MAXY:118.046
;MAXZ:6.85
;Generated with Cura_SteamEngine 4.7.1
M140 S60
M105
M190 S60
M104 S200
M105
M109 S200
M82 ;absolute extrusion mode
; Script based on an original created by tjjfvi (https://github.com/tjjfvi)
; An up-to-date version of the tjjfvi's original script can be found
; here:  https://csi.t6.fyi/
; Note - This script will only work in Cura V4.2 and above!
; --- Global Settings
; layer_height = 0.2
; smooth_spiralized_contours = True
; magic_mesh_surface_mode = normal
; machine_extruder_count = 1
; --- Single Extruder Settings
; speed_z_hop = 10
; retraction_amount = 5
; retraction_hop = 0.075
; retraction_hop_enabled = True
; retraction_enable = True
; retraction_speed = 50
; retraction_retract_speed = 50
; retraction_prime_speed = 50
; speed_travel = 120

G21 ;metric values
G90 ;absolute positioning
M82 ;set extruder to absolute mode
M107 ;start with the fan off
G28 X0 Y0 ;move X/Y to min endstops
G28 Z0 ;move Z to min endstops
G1 Z15.0 F120 ;move the platform down 15mm
G92 E0 ;zero the extruded length
G1 F200 E3 ;extrude 3mm of feed stock
G92 E0 ;zero the extruded length again
G1 F120
G0 Y20 F120
M117 Printing...
G5
G92 E0
G92 E0
G1 F3000 E-5
;LAYER_COUNT:34
;LAYER:0
M106 S51
M204 S3000
M205 X10 Y10
G1 F600 Z0.325
G0 F4200 X52.997 Y87.328 Z0.325
M204 S500
;TYPE:SKIRT
G1 F600 Z0.25
G1 F3000 E0.06236
G1 F1800 X53.442 Y87.071 E0.08357
G1 X54.239 Y86.684 E0.12013
G1 X54.912 Y86.371 E0.15075
G1 X55.581 Y86.07 E0.18102
G1 X56.073 Y85.89 E0.20264
G1 X56.953 Y85.64 E0.24039
G1 X57.694 Y85.441 E0.27205
G1 X58.334 Y85.278 E0.2993
G1 X58.853 Y85.186 E0.32105
G1 X59.742 Y85.095 E0.35793
G1 X60.59 Y85.021 E0.39305
G1 X61.2 Y84.976 E0.41829
G1 X61.411 Y84.966 E0.427
G1 X62.206 Y84.954 E0.45981
G1 X78.84 Y84.954 E1.14619
G1 X79.538 Y84.964 E1.17499
G1 X79.941 Y84.988 E1.19165
G1 X80.528 Y85.045 E1.21599
G1 X161.16 Y93.895 E4.56311
G1 X161.886 Y93.986 E4.59331
G1 X162.411 Y94.092 E4.61541
G1 X162.915 Y94.275 E4.63753
G1 X163.386 Y94.53 E4.65963
G1 X163.814 Y94.853 E4.68176
G1 X164.189 Y95.236 E4.70388
G1 X164.503 Y95.67 E4.72598
G1 X164.749 Y96.147 E4.74813
G1 X164.922 Y96.654 E4.77023
G1 X165.034 Y97.43 E4.80258
G1 X165.045 Y97.814 E4.81843
G1 X165.046 Y104.764 E5.10521
G1 X165.037 Y105.49 E5.13517
G1 X164.99 Y106.024 E5.15729
G1 X164.865 Y106.545 E5.1794
G1 X164.663 Y107.041 E5.2015
G1 X164.39 Y107.503 E5.22364
G1 X164.052 Y107.918 E5.24573
G1 X163.655 Y108.279 E5.26787
G1 X163.209 Y108.576 E5.28998
G1 X162.724 Y108.804 E5.3121
G1 X161.976 Y109.001 E5.34401
G1 X161.351 Y109.084 E5.37003
G1 X80.601 Y117.947 E8.72205
G1 X79.837 Y118.02 E8.75372
G1 X78.969 Y118.046 E8.78956
G1 X62.158 Y118.046 E9.48323
G1 X61.477 Y118.036 E9.51134
G1 X61.276 Y118.027 E9.51964
G1 X60.452 Y117.968 E9.55373
G1 X59.525 Y117.887 E9.59212
G1 X58.922 Y117.826 E9.61713
G1 X58.408 Y117.736 E9.63867
G1 X57.556 Y117.522 E9.67491
G1 X56.763 Y117.309 E9.7088
G1 X56.123 Y117.128 E9.73624
G1 X55.634 Y116.951 E9.7577
G1 X54.795 Y116.575 E9.79564
G1 X54.116 Y116.258 E9.82656
G1 X53.492 Y115.957 E9.85514
G1 X53.039 Y115.696 E9.87672
G1 X52.292 Y115.191 E9.91392
G1 X51.695 Y114.773 E9.944
G1 X51.093 Y114.339 E9.97462
G1 X50.692 Y114.004 E9.99618
G1 X50.077 Y113.408 E10.03152
G1 X49.485 Y112.815 E10.06609
G1 X49.032 Y112.349 E10.09291
G1 X48.699 Y111.953 E10.11426
G1 X48.151 Y111.196 E10.15282
G1 X47.74 Y110.609 E10.18239
G1 X47.328 Y110.001 E10.2127
G1 X47.072 Y109.559 E10.23377
G1 X46.669 Y108.73 E10.27181
G1 X46.349 Y108.043 E10.30308
G1 X46.068 Y107.417 E10.33139
G1 X45.892 Y106.932 E10.35268
G1 X45.638 Y106.043 E10.39084
G1 X45.44 Y105.303 E10.42244
G1 X45.279 Y104.668 E10.44948
G1 X45.188 Y104.156 E10.47093
G1 X45.089 Y103.194 E10.51084
G1 X45.029 Y102.506 E10.53934
G1 X44.976 Y101.789 E10.569
G1 X44.975 Y101.269 E10.59046
G1 X45.042 Y100.337 E10.62902
G1 X45.112 Y99.539 E10.66207
G1 X45.175 Y98.916 E10.68791
G1 X45.266 Y98.4 E10.70953
G1 X45.494 Y97.493 E10.74812
G1 X45.684 Y96.787 E10.77829
G1 X45.874 Y96.116 E10.80706
G1 X46.051 Y95.63 E10.82841
G1 X46.419 Y94.807 E10.86561
G1 X46.747 Y94.103 E10.89765
G1 X47.038 Y93.499 E10.92532
G1 X47.3 Y93.044 E10.94698
G1 X47.837 Y92.252 E10.98647
G1 X48.237 Y91.682 E11.0152
G1 X48.659 Y91.095 E11.04503
G1 X48.996 Y90.692 E11.06671
G1 X49.598 Y90.071 E11.1024
G1 X50.199 Y89.471 E11.13744
G1 X50.658 Y89.026 E11.16382
G1 X51.048 Y88.698 E11.18485
G1 X51.763 Y88.18 E11.22128
G1 X52.429 Y87.713 E11.25485
G1 X52.997 Y87.328 E11.28316
M204 S3000
G0 F4200 X53.22 Y87.657
M204 S500
G1 F1800 X53.615 Y87.428 E11.302
G1 X54.406 Y87.044 E11.33828
G1 X55.074 Y86.733 E11.36869
G1 X55.743 Y86.432 E11.39896
G1 X56.181 Y86.272 E11.4182
G1 X57.056 Y86.024 E11.45573
G1 X57.792 Y85.826 E11.48718
G1 X58.432 Y85.663 E11.51443
G1 X58.893 Y85.581 E11.53375
G1 X59.776 Y85.49 E11.57038
G1 X60.62 Y85.417 E11.60533
G1 X61.23 Y85.372 E11.63057
G1 X61.417 Y85.363 E11.6383
G1 X62.212 Y85.351 E11.67111
G1 X78.834 Y85.351 E12.35699
G1 X79.532 Y85.361 E12.38579
G1 X79.902 Y85.383 E12.40108
G1 X80.485 Y85.44 E12.42526
G1 X161.117 Y94.29 E15.77238
G1 X161.837 Y94.38 E15.80232
G1 X162.332 Y94.482 E15.82318
G1 X162.805 Y94.661 E15.84405
G1 X163.243 Y94.912 E15.86488
G1 X163.637 Y95.229 E15.88574
G1 X163.976 Y95.604 E15.9066
G1 X164.251 Y96.028 E15.92746
G1 X164.457 Y96.49 E15.94833
G1 X164.587 Y96.978 E15.96917
G1 X164.646 Y97.705 E15.99927
G1 X164.648 Y97.815 E16.00381
G1 X164.649 Y104.759 E16.29034
G1 X164.64 Y105.485 E16.3203
G1 X164.594 Y105.988 E16.34114
G1 X164.469 Y106.478 E16.36201
G1 X164.268 Y106.942 E16.38287
G1 X163.997 Y107.369 E16.40374
G1 X163.662 Y107.747 E16.42458
G1 X163.272 Y108.068 E16.44542
G1 X162.836 Y108.324 E16.46629
G1 X162.365 Y108.508 E16.48715
G1 X161.711 Y108.639 E16.51467
G1 X161.274 Y108.693 E16.53284
G1 X80.558 Y117.552 E19.88346
G1 X79.8 Y117.625 E19.91488
G1 X78.964 Y117.649 E19.94939
G1 X62.164 Y117.649 E20.64261
G1 X61.483 Y117.639 E20.67072
G1 X61.304 Y117.631 E20.67811
G1 X60.487 Y117.573 E20.71191
G1 X59.565 Y117.492 E20.7501
G1 X58.962 Y117.431 E20.77511
G1 X58.505 Y117.351 E20.79425
G1 X57.604 Y117.124 E20.83259
G1 X56.871 Y116.927 E20.86391
G1 X56.231 Y116.746 E20.89136
G1 X55.796 Y116.588 E20.91045
G1 X54.963 Y116.215 E20.94811
G1 X54.288 Y115.9 E20.97885
G1 X53.664 Y115.599 E21.00744
G1 X53.261 Y115.367 E21.02663
G1 X52.52 Y114.866 E21.06353
G1 X51.889 Y114.423 E21.09535
G1 X51.325 Y114.017 E21.12402
G1 X50.968 Y113.719 E21.14321
G1 X50.394 Y113.163 E21.17619
G1 X49.769 Y112.538 E21.21266
G1 X49.316 Y112.072 E21.23948
G1 X49.02 Y111.72 E21.25845
G1 X48.476 Y110.968 E21.29675
G1 X48.069 Y110.387 E21.32602
G1 X47.657 Y109.779 E21.35633
G1 X47.429 Y109.385 E21.37511
G1 X47.029 Y108.563 E21.41283
G1 X46.712 Y107.88 E21.4439
G1 X46.431 Y107.254 E21.47222
G1 X46.273 Y106.823 E21.49116
G1 X46.021 Y105.941 E21.52901
G1 X45.825 Y105.205 E21.56044
G1 X45.664 Y104.57 E21.58747
G1 X45.583 Y104.115 E21.60654
G1 X45.484 Y103.159 E21.6462
G1 X45.425 Y102.477 E21.67444
G1 X45.372 Y101.76 E21.70411
G1 X45.371 Y101.297 E21.72322
G1 X45.437 Y100.372 E21.76148
G1 X45.507 Y99.579 E21.79433
G1 X45.57 Y98.956 E21.82017
G1 X45.651 Y98.497 E21.8394
G1 X45.878 Y97.596 E21.87774
G1 X46.066 Y96.895 E21.90769
G1 X46.256 Y96.224 E21.93647
G1 X46.413 Y95.791 E21.95547
G1 X46.778 Y94.975 E21.99236
G1 X47.105 Y94.276 E22.0242
G1 X47.396 Y93.672 E22.05186
G1 X47.629 Y93.267 E22.07114
G1 X48.162 Y92.48 E22.11037
G1 X48.56 Y91.914 E22.13892
G1 X48.982 Y91.327 E22.16875
G1 X49.282 Y90.968 E22.18805
G1 X49.879 Y90.352 E22.22345
G1 X50.475 Y89.756 E22.25823
G1 X50.934 Y89.311 E22.28461
G1 X51.281 Y89.02 E22.3033
G1 X51.991 Y88.505 E22.33949
G1 X52.652 Y88.042 E22.37279
G1 X53.22 Y87.657 E22.4011
M204 S3000
G1 F3000 E17.4011
;MESH:tip-ikea-side.stl
G0 F4200 X62.936 Y105.285
M204 S500
;TYPE:WALL-INNER
G1 F3000 E22.46347
G1 F1080 X63.8 Y104.831 E22.50374
G1 X64.53 Y104.184 E22.54399
G1 X65.085 Y103.381 E22.58427
G1 X65.413 Y102.513 E22.62256
G1 X65.431 Y102.467 E22.6246
G1 X65.436 Y102.42 E22.62655
G1 X65.548 Y101.5 E22.66479
G1 X65.431 Y100.533 E22.70498
G1 X65.085 Y99.619 E22.74531
G1 X64.53 Y98.816 E22.78559
G1 X63.8 Y98.169 E22.82584
G1 X62.936 Y97.715 E22.86611
G1 X61.988 Y97.481 E22.9064
G1 X61.012 Y97.481 E22.94668
G1 X60.064 Y97.715 E22.98697
G1 X59.2 Y98.169 E23.02724
G1 X58.47 Y98.816 E23.06749
G1 X57.915 Y99.619 E23.10777
G1 X57.587 Y100.487 E23.14606
G1 X57.569 Y100.533 E23.1481
G1 X57.564 Y100.58 E23.15005
G1 X57.452 Y101.5 E23.18829
G1 X57.569 Y102.467 E23.22848
G1 X57.915 Y103.381 E23.26881
G1 X58.47 Y104.184 E23.30909
G1 X59.2 Y104.831 E23.34934
G1 X60.064 Y105.285 E23.38961
G1 X61.012 Y105.519 E23.4299
G1 X61.988 Y105.519 E23.47018
G1 X62.936 Y105.285 E23.51047
M204 S3000
G0 F4200 X62.794 Y104.911
M204 S500
G1 F1080 X63.573 Y104.502 E23.54677
G1 X64.231 Y103.919 E23.58305
G1 X64.731 Y103.195 E23.61936
G1 X65.025 Y102.418 E23.65364
G1 X65.043 Y102.372 E23.65567
G1 X65.048 Y102.325 E23.65762
G1 X65.148 Y101.5 E23.69192
G1 X65.043 Y100.628 E23.72816
G1 X64.731 Y99.805 E23.76448
G1 X64.231 Y99.081 E23.80078
G1 X63.573 Y98.498 E23.83706
G1 X62.794 Y98.089 E23.87336
G1 X61.94 Y97.878 E23.90966
G1 X61.06 Y97.878 E23.94597
G1 X60.206 Y98.089 E23.98227
G1 X59.427 Y98.498 E24.01858
G1 X58.769 Y99.081 E24.05485
G1 X58.269 Y99.805 E24.09116
G1 X57.975 Y100.582 E24.12544
G1 X57.957 Y100.628 E24.12748
G1 X57.952 Y100.675 E24.12943
G1 X57.852 Y101.5 E24.16372
G1 X57.957 Y102.372 E24.19996
G1 X58.269 Y103.195 E24.23628
G1 X58.769 Y103.919 E24.27258
G1 X59.427 Y104.502 E24.30886
G1 X60.206 Y104.911 E24.34517
G1 X61.06 Y105.122 E24.38146
G1 X61.94 Y105.122 E24.41778
G1 X62.794 Y104.911 E24.45407
M204 S3000
G0 F4200 X62.652 Y104.537
M204 S500
G1 F1080 X63.346 Y104.173 E24.48641
G1 X63.932 Y103.654 E24.51871
G1 X64.377 Y103.009 E24.55105
G1 X64.655 Y102.277 E24.58336
G1 X64.748 Y101.5 E24.61565
G1 X64.655 Y100.723 E24.64794
G1 X64.377 Y99.991 E24.68025
G1 X63.932 Y99.346 E24.71258
G1 X63.346 Y98.827 E24.74488
G1 X62.652 Y98.463 E24.77722
G1 X61.892 Y98.275 E24.80952
G1 X61.108 Y98.275 E24.84187
G1 X60.348 Y98.463 E24.87418
G1 X59.654 Y98.827 E24.90652
G1 X59.068 Y99.346 E24.93882
G1 X58.623 Y99.991 E24.97115
G1 X58.345 Y100.723 E25.00346
G1 X58.252 Y101.5 E25.03575
G1 X58.345 Y102.277 E25.06804
G1 X58.623 Y103.009 E25.10035
G1 X59.068 Y103.654 E25.13269
G1 X59.654 Y104.173 E25.16499
G1 X60.348 Y104.537 E25.19732
G1 X61.108 Y104.725 E25.22963
G1 X61.892 Y104.725 E25.26198
G1 X62.652 Y104.537 E25.29428
M204 S3000
G0 F4200 X62.512 Y104.169
M204 S500
;TYPE:WALL-OUTER
G1 F1080 X63.122 Y103.849 E25.32271
G1 X63.637 Y103.393 E25.35109
G1 X64.028 Y102.826 E25.37951
G1 X64.272 Y102.183 E25.40789
G1 X64.354 Y101.5 E25.43628
G1 X64.272 Y100.817 E25.46466
G1 X64.028 Y100.174 E25.49304
G1 X63.637 Y99.607 E25.52146
G1 X63.122 Y99.151 E25.54984
G1 X62.512 Y98.831 E25.57827
G1 X61.844 Y98.666 E25.60666
G1 X61.156 Y98.666 E25.63505
G1 X60.488 Y98.831 E25.66344
G1 X59.878 Y99.151 E25.69186
G1 X59.363 Y99.607 E25.72025
G1 X58.972 Y100.174 E25.74867
G1 X58.728 Y100.817 E25.77705
G1 X58.646 Y101.5 E25.80543
G1 X58.728 Y102.183 E25.83382
G1 X58.972 Y102.826 E25.8622
G1 X59.363 Y103.393 E25.89061
G1 X59.878 Y103.849 E25.919
G1 X60.488 Y104.169 E25.94742
G1 X61.156 Y104.334 E25.97581
G1 X61.844 Y104.334 E26.0042
G1 X62.512 Y104.169 E26.0326
M204 S3000
G0 F4200 X62.689 Y104.076
G0 X62.891 Y104.463
G1 F3000 E21.0326
G0 F4200 X153.975 Y103.728
M204 S500
;TYPE:WALL-INNER
G1 F3000 E26.09496
G1 F1080 X154.569 Y104.031 E26.12247
G1 X155.199 Y104.179 E26.14918
G1 X155.853 Y104.176 E26.17616
G1 X156.481 Y104.011 E26.20296
G1 X157.053 Y103.705 E26.22973
G1 X157.536 Y103.268 E26.2566
G1 X157.898 Y102.731 E26.28332
G1 X158.128 Y102.12 E26.31026
G1 X158.196 Y101.474 E26.33707
G1 X158.115 Y100.831 E26.36381
G1 X157.875 Y100.221 E26.39086
G1 X157.502 Y99.692 E26.41757
G1 X157.009 Y99.262 E26.44456
G1 X156.427 Y98.967 E26.47148
G1 X155.801 Y98.821 E26.49801
G1 X155.147 Y98.824 E26.525
G1 X154.519 Y98.989 E26.55179
G1 X153.947 Y99.295 E26.57856
G1 X153.464 Y99.732 E26.60543
G1 X153.102 Y100.269 E26.63216
G1 X152.872 Y100.88 E26.6591
G1 X152.804 Y101.526 E26.6859
G1 X152.885 Y102.169 E26.71264
G1 X153.125 Y102.776 E26.73957
G1 X153.494 Y103.302 E26.76609
G1 X153.975 Y103.728 E26.7926
M204 S3000
G0 F4200 X154.2 Y103.397
M204 S500
G1 F1080 X154.707 Y103.656 E26.81609
G1 X155.244 Y103.782 E26.83885
G1 X155.801 Y103.779 E26.86184
G1 X156.335 Y103.639 E26.88462
G1 X156.823 Y103.378 E26.90745
G1 X157.234 Y103.006 E26.93033
G1 X157.543 Y102.548 E26.95312
G1 X157.738 Y102.028 E26.97604
G1 X157.796 Y101.478 E26.99886
G1 X157.727 Y100.93 E27.02165
G1 X157.523 Y100.411 E27.04466
G1 X157.205 Y99.96 E27.06743
G1 X156.785 Y99.594 E27.09042
G1 X156.29 Y99.343 E27.11332
G1 X155.756 Y99.218 E27.13595
G1 X155.199 Y99.221 E27.15893
G1 X154.665 Y99.361 E27.18171
G1 X154.177 Y99.622 E27.20455
G1 X153.766 Y99.994 E27.22742
G1 X153.457 Y100.452 E27.25022
G1 X153.262 Y100.972 E27.27314
G1 X153.204 Y101.522 E27.29596
G1 X153.273 Y102.07 E27.31875
G1 X153.477 Y102.587 E27.34168
G1 X153.792 Y103.036 E27.36432
G1 X154.2 Y103.397 E27.38679
M204 S3000
G0 F4200 X154.425 Y103.066
M204 S500
G1 F1080 X154.845 Y103.281 E27.40626
G1 X155.289 Y103.385 E27.42508
G1 X155.749 Y103.382 E27.44406
G1 X156.189 Y103.267 E27.46283
G1 X156.593 Y103.051 E27.48173
G1 X156.932 Y102.744 E27.5006
G1 X157.188 Y102.365 E27.51948
G1 X157.348 Y101.936 E27.53837
G1 X157.396 Y101.482 E27.55721
G1 X157.339 Y101.029 E27.57605
G1 X157.171 Y100.601 E27.59502
G1 X156.908 Y100.228 E27.61385
G1 X156.561 Y99.926 E27.63283
G1 X156.153 Y99.719 E27.65171
G1 X155.711 Y99.615 E27.67045
G1 X155.251 Y99.618 E27.68943
G1 X154.811 Y99.733 E27.7082
G1 X154.407 Y99.949 E27.7271
G1 X154.068 Y100.256 E27.74597
G1 X153.812 Y100.635 E27.76484
G1 X153.652 Y101.064 E27.78374
G1 X153.604 Y101.518 E27.80257
G1 X153.661 Y101.971 E27.82141
G1 X153.829 Y102.398 E27.84035
G1 X154.09 Y102.77 E27.8591
G1 X154.425 Y103.066 E27.87754
M204 S3000
G0 F4200 X154.647 Y102.74
M204 S500
;TYPE:WALL-OUTER
G1 F1080 X154.981 Y102.911 E27.89303
G1 X155.333 Y102.994 E27.90795
G1 X155.697 Y102.991 E27.92297
G1 X156.046 Y102.9 E27.93785
G1 X156.366 Y102.729 E27.95283
G1 X156.635 Y102.486 E27.96778
G1 X156.838 Y102.185 E27.98276
G1 X156.964 Y101.846 E27.99769
G1 X157.002 Y101.486 E28.01262
G1 X156.957 Y101.126 E28.0276
G1 X156.824 Y100.788 E28.04258
G1 X156.616 Y100.492 E28.05751
G1 X156.341 Y100.253 E28.07255
G1 X156.018 Y100.089 E28.08749
G1 X155.667 Y100.006 E28.10238
G1 X155.303 Y100.009 E28.1174
G1 X154.954 Y100.1 E28.13228
G1 X154.634 Y100.271 E28.14725
G1 X154.365 Y100.514 E28.16221
G1 X154.162 Y100.815 E28.17719
G1 X154.036 Y101.154 E28.19211
G1 X153.998 Y101.514 E28.20705
G1 X154.043 Y101.874 E28.22202
G1 X154.176 Y102.212 E28.23701
G1 X154.383 Y102.507 E28.25188
G1 X154.647 Y102.74 E28.26641
M204 S3000
G0 F4200 X154.825 Y102.831
G0 X154.626 Y103.219
G1 F3000 E23.26641
G0 F4200 X131.062 Y104.563
M204 S500
;TYPE:WALL-INNER
G1 F3000 E28.32877
G1 F1080 X148.938 Y104.563 E29.06639
G1 X148.938 Y98.437 E29.31917
G1 X131.062 Y98.437 E30.0568
G1 X131.062 Y104.563 E30.30958
M204 S3000
G0 F4200 X131.459 Y104.166
M204 S500
G1 F1080 X148.541 Y104.166 E31.01444
G1 X148.541 Y98.834 E31.23445
G1 X131.459 Y98.834 E31.93931
G1 X131.459 Y104.166 E32.15933
M204 S3000
G0 F4200 X131.856 Y103.769
M204 S500
G1 F1080 X148.144 Y103.769 E32.83143
G1 X148.144 Y99.231 E33.01868
G1 X131.856 Y99.231 E33.69078
G1 X131.856 Y103.769 E33.87803
M204 S3000
G0 F4200 X132.247 Y103.378
M204 S500
;TYPE:WALL-OUTER
G1 F1080 X147.753 Y103.378 E34.51786
G1 X147.753 Y99.622 E34.67285
G1 X132.247 Y99.622 E35.31268
G1 X132.247 Y103.378 E35.46766
M204 S3000
G0 F4200 X132.447 Y103.378
G0 X132.447 Y103.814
G1 F3000 E30.46766
G0 F4200 X124.199 Y104.179
M204 S500
;TYPE:WALL-INNER
G1 F3000 E35.53002
G1 F1080 X124.853 Y104.176 E35.55701
G1 X125.481 Y104.011 E35.5838
G1 X126.053 Y103.705 E35.61057
G1 X126.536 Y103.268 E35.63745
G1 X126.898 Y102.731 E35.66417
G1 X127.128 Y102.12 E35.69111
