;FLAVOR:Marlin
;TIME:2837
;Filament used: 2.31055m
;Layer height: 0.2
;MINX:43.293
;MINY:82.322
;MINZ:0.25
;MAXX:166.707
;MAXY:127.678
;MAXZ:5.85
;Generated with Cura_SteamEngine 4.7.1
M140 S60
M105
M190 S60
M104 S200
M105
M109 S200
M82 ;absolute extrusion mode
; Script based on an original created by tjjfvi (https://github.com/tjjfvi)
; An up-to-date version of the tjjfvi's original script can be found
; here:  https://csi.t6.fyi/
; Note - This script will only work in Cura V4.2 and above!
; --- Global Settings
; layer_height = 0.2
; smooth_spiralized_contours = True
; magic_mesh_surface_mode = normal
; machine_extruder_count = 1
; --- Single Extruder Settings
; speed_z_hop = 10
; retraction_amount = 5
; retraction_hop = 0.075
; retraction_hop_enabled = True
; retraction_enable = True
; retraction_speed = 50
; retraction_retract_speed = 50
; retraction_prime_speed = 50
; speed_travel = 120

G21 ;metric values
G90 ;absolute positioning
M82 ;set extruder to absolute mode
M107 ;start with the fan off
G28 X0 Y0 ;move X/Y to min endstops
G28 Z0 ;move Z to min endstops
G1 Z15.0 F120 ;move the platform down 15mm
G92 E0 ;zero the extruded length
G1 F200 E3 ;extrude 3mm of feed stock
G92 E0 ;zero the extruded length again
G1 F120
G0 Y20 F120
M117 Printing...
G5
G92 E0
G92 E0
G1 F3000 E-5
;LAYER_COUNT:29
;LAYER:0
M106 S51
M204 S3000
M205 X10 Y10
G1 F600 Z0.325
G0 F4200 X46.241 Y87.025 Z0.325
M204 S500
;TYPE:SKIRT
G1 F600 Z0.25
G1 F3000 E0.06236
G1 F1800 X46.852 Y86.729 E0.09038
G1 X47.493 Y86.508 E0.11836
G1 X48.155 Y86.363 E0.14632
G1 X49.05 Y86.293 E0.18336
G1 X69.18 Y86.293 E1.01399
G1 X69.306 Y86.11 E1.02316
G1 X69.724 Y85.576 E1.05114
G1 X70.22 Y85.078 E1.08015
G1 X70.934 Y84.444 E1.11955
G1 X71.466 Y84.024 E1.14752
G1 X72.083 Y83.65 E1.17729
G1 X72.926 Y83.208 E1.21656
G1 X73.544 Y82.929 E1.24454
G1 X74.223 Y82.717 E1.27389
G1 X75.149 Y82.489 E1.31325
G1 X75.816 Y82.366 E1.34123
G1 X76.525 Y82.322 E1.37054
G1 X77.475 Y82.322 E1.40974
G1 X78.152 Y82.362 E1.43773
G1 X78.851 Y82.489 E1.46704
G1 X79.777 Y82.717 E1.5064
G1 X80.425 Y82.918 E1.53439
G1 X81.074 Y83.208 E1.56372
G1 X81.917 Y83.65 E1.603
G1 X82.498 Y84 E1.63099
G1 X83.066 Y84.444 E1.66074
G1 X83.78 Y85.078 E1.70014
G1 X84.26 Y85.558 E1.72815
G1 X84.694 Y86.11 E1.75712
G1 X84.82 Y86.293 E1.76629
G1 X125.18 Y86.293 E3.43168
G1 X125.306 Y86.11 E3.44085
G1 X125.724 Y85.576 E3.46883
G1 X126.22 Y85.078 E3.49783
G1 X126.934 Y84.444 E3.53723
G1 X127.466 Y84.024 E3.5652
G1 X128.083 Y83.65 E3.59497
G1 X128.926 Y83.208 E3.63425
G1 X129.544 Y82.929 E3.66223
G1 X130.221 Y82.717 E3.6915
G1 X131.146 Y82.489 E3.73081
G1 X131.813 Y82.366 E3.7588
G1 X132.524 Y82.322 E3.78819
G1 X133.475 Y82.322 E3.82743
G1 X134.152 Y82.362 E3.85542
G1 X134.848 Y82.488 E3.8846
G1 X135.772 Y82.715 E3.92387
G1 X136.421 Y82.916 E3.9519
G1 X137.072 Y83.207 E3.98132
G1 X137.917 Y83.65 E4.02069
G1 X138.498 Y84 E4.04868
G1 X139.066 Y84.444 E4.07843
G1 X139.78 Y85.078 E4.11783
G1 X140.26 Y85.558 E4.14584
G1 X140.694 Y86.11 E4.17481
G1 X140.82 Y86.293 E4.18398
G1 X160.95 Y86.293 E5.01461
G1 X161.627 Y86.333 E5.0426
G1 X162.295 Y86.452 E5.0706
G1 X162.944 Y86.649 E5.09858
G1 X163.565 Y86.921 E5.12656
G1 X164.151 Y87.265 E5.1546
G1 X164.691 Y87.674 E5.18255
G1 X165.18 Y88.145 E5.21056
G1 X165.61 Y88.669 E5.23853
G1 X165.975 Y89.241 E5.26653
G1 X166.271 Y89.852 E5.29455
G1 X166.492 Y90.493 E5.32252
G1 X166.637 Y91.155 E5.35049
G1 X166.707 Y92.05 E5.38753
G1 X166.707 Y117.95 E6.45625
G1 X166.667 Y118.627 E6.48424
G1 X166.548 Y119.295 E6.51223
G1 X166.351 Y119.944 E6.54022
G1 X166.079 Y120.565 E6.5682
G1 X165.735 Y121.151 E6.59623
G1 X165.326 Y121.691 E6.62419
G1 X164.855 Y122.18 E6.6522
G1 X164.331 Y122.61 E6.68017
G1 X163.759 Y122.975 E6.70817
G1 X163.148 Y123.271 E6.73619
G1 X162.507 Y123.492 E6.76416
G1 X161.845 Y123.637 E6.79213
G1 X160.95 Y123.707 E6.82917
G1 X140.82 Y123.707 E7.6598
G1 X140.694 Y123.89 E7.66897
G1 X140.276 Y124.424 E7.69695
G1 X139.78 Y124.922 E7.72596
G1 X139.066 Y125.556 E7.76536
G1 X138.534 Y125.976 E7.79332
G1 X137.917 Y126.35 E7.8231
G1 X137.074 Y126.792 E7.86237
G1 X136.456 Y127.071 E7.89035
G1 X135.779 Y127.283 E7.91962
G1 X134.854 Y127.511 E7.95894
G1 X134.187 Y127.634 E7.98692
G1 X133.476 Y127.678 E8.01632
G1 X132.525 Y127.678 E8.05556
G1 X131.848 Y127.638 E8.08354
G1 X131.152 Y127.512 E8.11273
G1 X130.228 Y127.285 E8.15199
G1 X129.579 Y127.084 E8.18002
G1 X128.928 Y126.793 E8.20945
G1 X128.083 Y126.35 E8.24882
G1 X127.502 Y126 E8.2768
G1 X126.934 Y125.556 E8.30655
G1 X126.22 Y124.922 E8.34595
G1 X125.74 Y124.442 E8.37396
G1 X125.306 Y123.89 E8.40294
G1 X125.18 Y123.707 E8.41211
G1 X84.82 Y123.707 E10.0775
G1 X84.694 Y123.89 E10.08666
G1 X84.276 Y124.424 E10.11465
G1 X83.78 Y124.922 E10.14365
G1 X83.066 Y125.556 E10.18305
G1 X82.534 Y125.976 E10.21102
G1 X81.917 Y126.35 E10.24079
G1 X81.074 Y126.792 E10.28007
G1 X80.456 Y127.071 E10.30805
G1 X79.777 Y127.283 E10.3374
G1 X78.851 Y127.511 E10.37675
G1 X78.184 Y127.634 E10.40473
G1 X77.475 Y127.678 E10.43405
G1 X76.525 Y127.678 E10.47325
G1 X75.848 Y127.638 E10.50123
G1 X75.149 Y127.511 E10.53055
G1 X74.223 Y127.283 E10.5699
G1 X73.575 Y127.082 E10.59789
G1 X72.926 Y126.792 E10.62722
G1 X72.083 Y126.35 E10.6665
G1 X71.502 Y126 E10.69449
G1 X70.934 Y125.556 E10.72424
G1 X70.22 Y124.922 E10.76364
G1 X69.74 Y124.442 E10.79165
G1 X69.306 Y123.89 E10.82062
G1 X69.18 Y123.707 E10.82979
G1 X49.05 Y123.707 E11.66042
G1 X48.373 Y123.667 E11.68841
G1 X47.705 Y123.548 E11.7164
G1 X47.056 Y123.351 E11.74439
G1 X46.435 Y123.079 E11.77237
G1 X45.849 Y122.735 E11.8004
G1 X45.309 Y122.326 E11.82836
G1 X44.82 Y121.855 E11.85637
G1 X44.39 Y121.331 E11.88434
G1 X44.025 Y120.759 E11.91234
G1 X43.729 Y120.148 E11.94036
G1 X43.508 Y119.507 E11.96833
G1 X43.363 Y118.845 E11.9963
G1 X43.293 Y117.95 E12.03334
G1 X43.293 Y92.05 E13.10206
G1 X43.333 Y91.373 E13.13005
G1 X43.452 Y90.705 E13.15804
G1 X43.649 Y90.056 E13.18603
G1 X43.921 Y89.435 E13.214
G1 X44.265 Y88.849 E13.24204
G1 X44.674 Y88.309 E13.27
G1 X45.145 Y87.82 E13.29801
G1 X45.669 Y87.39 E13.32598
G1 X46.241 Y87.025 E13.35398
M204 S3000
G0 F4200 X46.617 Y87.274
M204 S500
G1 F1800 X47.218 Y87.013 E13.38102
G1 X47.845 Y86.827 E13.408
G1 X48.491 Y86.719 E13.43503
G1 X49.05 Y86.69 E13.45813
G1 X69.388 Y86.69 E14.29734
G1 X69.633 Y86.336 E14.3151
G1 X70.037 Y85.821 E14.34211
G1 X70.483 Y85.375 E14.36814
G1 X71.197 Y84.741 E14.40754
G1 X71.712 Y84.337 E14.43455
G1 X72.267 Y84.002 E14.4613
G1 X73.11 Y83.56 E14.50058
G1 X73.707 Y83.292 E14.52758
G1 X74.318 Y83.102 E14.55398
G1 X75.244 Y82.874 E14.59333
G1 X75.887 Y82.757 E14.6203
G1 X76.525 Y82.719 E14.64667
G1 X77.475 Y82.719 E14.68587
G1 X78.128 Y82.759 E14.71287
G1 X78.756 Y82.874 E14.73921
G1 X79.682 Y83.102 E14.77856
G1 X80.307 Y83.297 E14.80558
G1 X80.89 Y83.56 E14.83197
G1 X81.733 Y84.002 E14.87125
G1 X82.293 Y84.341 E14.89826
G1 X82.803 Y84.741 E14.925
G1 X83.517 Y85.375 E14.9644
G1 X83.979 Y85.839 E14.99142
G1 X84.367 Y86.336 E15.01744
G1 X84.612 Y86.69 E15.0352
G1 X125.388 Y86.69 E16.71776
G1 X125.633 Y86.336 E16.73552
G1 X126.037 Y85.821 E16.76253
G1 X126.483 Y85.375 E16.78856
G1 X127.197 Y84.741 E16.82796
G1 X127.712 Y84.337 E16.85497
G1 X128.267 Y84.002 E16.88172
G1 X129.11 Y83.56 E16.92099
G1 X129.707 Y83.292 E16.948
G1 X130.316 Y83.103 E16.97431
G1 X131.241 Y82.875 E17.01362
G1 X131.885 Y82.757 E17.04064
G1 X132.524 Y82.719 E17.06705
G1 X133.475 Y82.719 E17.10629
G1 X134.128 Y82.759 E17.13329
G1 X134.754 Y82.874 E17.15955
G1 X135.678 Y83.101 E17.19881
G1 X136.303 Y83.295 E17.22581
G1 X136.888 Y83.559 E17.2523
G1 X137.733 Y84.002 E17.29167
G1 X138.293 Y84.341 E17.31868
G1 X138.803 Y84.741 E17.34542
G1 X139.517 Y85.375 E17.38482
G1 X139.979 Y85.839 E17.41184
G1 X140.367 Y86.336 E17.43786
G1 X140.612 Y86.69 E17.45562
G1 X160.95 Y86.69 E18.29484
G1 X161.603 Y86.73 E18.32183
G1 X162.247 Y86.849 E18.34886
G1 X162.871 Y87.046 E18.37586
G1 X163.467 Y87.318 E18.40289
G1 X164.025 Y87.66 E18.4299
G1 X164.537 Y88.067 E18.45689
G1 X164.996 Y88.534 E18.4839
G1 X165.394 Y89.053 E18.51089
G1 X165.726 Y89.617 E18.5379
G1 X165.987 Y90.218 E18.56493
G1 X166.173 Y90.845 E18.59192
G1 X166.281 Y91.491 E18.61895
G1 X166.31 Y92.05 E18.64204
G1 X166.31 Y117.95 E19.71077
G1 X166.27 Y118.603 E19.73776
G1 X166.151 Y119.247 E19.76478
G1 X165.954 Y119.871 E19.79179
G1 X165.682 Y120.467 E19.81882
G1 X165.34 Y121.025 E19.84582
G1 X164.933 Y121.537 E19.87281
G1 X164.466 Y121.996 E19.89983
G1 X163.947 Y122.394 E19.92682
G1 X163.383 Y122.726 E19.95382
G1 X162.782 Y122.987 E19.98086
G1 X162.155 Y123.173 E20.00785
G1 X161.509 Y123.281 E20.03487
G1 X160.95 Y123.31 E20.05797
G1 X140.612 Y123.31 E20.89719
G1 X140.367 Y123.664 E20.91495
G1 X139.963 Y124.179 E20.94196
G1 X139.517 Y124.625 E20.96799
G1 X138.803 Y125.259 E21.00739
G1 X138.288 Y125.663 E21.0344
G1 X137.733 Y125.998 E21.06115
G1 X136.89 Y126.44 E21.10042
G1 X136.293 Y126.708 E21.12742
G1 X135.684 Y126.897 E21.15374
G1 X134.759 Y127.125 E21.19305
G1 X134.115 Y127.243 E21.22006
G1 X133.476 Y127.281 E21.24648
G1 X132.525 Y127.281 E21.28572
G1 X131.872 Y127.241 E21.31271
G1 X131.246 Y127.126 E21.33898
G1 X130.322 Y126.899 E21.37824
G1 X129.697 Y126.705 E21.40524
G1 X129.112 Y126.441 E21.43172
G1 X128.267 Y125.998 E21.47109
G1 X127.707 Y125.659 E21.4981
G1 X127.197 Y125.259 E21.52485
G1 X126.483 Y124.625 E21.56425
G1 X126.021 Y124.161 E21.59127
G1 X125.633 Y123.664 E21.61729
G1 X125.388 Y123.31 E21.63505
G1 X84.612 Y123.31 E23.3176
G1 X84.367 Y123.664 E23.33537
G1 X83.963 Y124.179 E23.36238
G1 X83.517 Y124.625 E23.3884
G1 X82.803 Y125.259 E23.42781
G1 X82.288 Y125.663 E23.45481
G1 X81.733 Y125.998 E23.48156
G1 X80.89 Y126.44 E23.52084
G1 X80.293 Y126.708 E23.54784
G1 X79.682 Y126.898 E23.57425
G1 X78.756 Y127.126 E23.6136
G1 X78.113 Y127.243 E23.64056
G1 X77.475 Y127.281 E23.66694
G1 X76.525 Y127.281 E23.70614
G1 X75.872 Y127.241 E23.73313
G1 X75.244 Y127.126 E23.75948
G1 X74.318 Y126.898 E23.79883
G1 X73.693 Y126.703 E23.82584
G1 X73.11 Y126.44 E23.85224
G1 X72.267 Y125.998 E23.89151
G1 X71.707 Y125.659 E23.91852
G1 X71.197 Y125.259 E23.94527
G1 X70.483 Y124.625 E23.98467
G1 X70.021 Y124.161 E24.01169
G1 X69.633 Y123.664 E24.0377
G1 X69.388 Y123.31 E24.05547
G1 X49.05 Y123.31 E24.89468
G1 X48.397 Y123.27 E24.92168
G1 X47.753 Y123.151 E24.9487
G1 X47.129 Y122.954 E24.9757
G1 X46.533 Y122.682 E25.00274
G1 X45.975 Y122.34 E25.02974
G1 X45.463 Y121.933 E25.05673
G1 X45.004 Y121.466 E25.08375
G1 X44.606 Y120.947 E25.11074
G1 X44.274 Y120.383 E25.13774
G1 X44.013 Y119.782 E25.16478
G1 X43.827 Y119.155 E25.19177
G1 X43.719 Y118.509 E25.21879
G1 X43.69 Y117.95 E25.24189
G1 X43.69 Y92.05 E26.31061
G1 X43.73 Y91.397 E26.33761
G1 X43.849 Y90.753 E26.36463
G1 X44.046 Y90.129 E26.39163
G1 X44.318 Y89.533 E26.41866
G1 X44.66 Y88.975 E26.44567
G1 X45.067 Y88.463 E26.47266
G1 X45.534 Y88.004 E26.49968
G1 X46.053 Y87.606 E26.52666
G1 X46.617 Y87.274 E26.55367
M204 S3000
G0 F4200 X46.435 Y87.832
M204 S500
G1 F1800 X46.99 Y87.535 E26.57964
G1 X47.579 Y87.31 E26.60566
G1 X48.191 Y87.162 E26.63164
G1 X49.05 Y87.087 E26.66722
G1 X69.595 Y87.087 E27.51498
G1 X69.959 Y86.561 E27.54137
G1 X70.349 Y86.067 E27.56734
G1 X70.747 Y85.672 E27.59048
G1 X71.461 Y85.038 E27.62988
G1 X71.957 Y84.65 E27.65587
G1 X72.451 Y84.354 E27.67963
G1 X73.294 Y83.912 E27.71891
G1 X73.87 Y83.655 E27.74493
G1 X74.412 Y83.488 E27.76834
G1 X75.338 Y83.26 E27.80769
G1 X75.958 Y83.148 E27.83368
G1 X76.525 Y83.116 E27.85712
G1 X77.475 Y83.116 E27.89632
G1 X78.104 Y83.156 E27.92232
G1 X78.662 Y83.26 E27.94575
G1 X79.588 Y83.488 E27.9851
G1 X80.188 Y83.677 E28.01105
G1 X80.706 Y83.912 E28.03453
G1 X81.549 Y84.354 E28.0738
G1 X82.087 Y84.681 E28.09978
G1 X82.539 Y85.038 E28.12355
G1 X83.253 Y85.672 E28.16295
G1 X83.697 Y86.119 E28.18895
G1 X84.041 Y86.561 E28.21206
G1 X84.405 Y87.087 E28.23845
G1 X125.595 Y87.087 E29.93809
G1 X125.959 Y86.561 E29.96448
G1 X126.349 Y86.067 E29.99045
G1 X126.747 Y85.672 E30.01359
G1 X127.461 Y85.038 E30.05299
G1 X127.957 Y84.65 E30.07898
G1 X128.451 Y84.354 E30.10274
G1 X129.294 Y83.912 E30.14202
G1 X129.87 Y83.655 E30.16804
G1 X130.411 Y83.488 E30.19141
G1 X131.336 Y83.26 E30.23072
G1 X131.956 Y83.149 E30.25671
G1 X132.524 Y83.116 E30.28018
G1 X133.475 Y83.116 E30.31943
G1 X134.104 Y83.156 E30.34543
G1 X134.659 Y83.259 E30.36873
G1 X135.583 Y83.486 E30.40799
G1 X136.184 Y83.675 E30.43398
G1 X136.703 Y83.91 E30.45749
G1 X137.548 Y84.353 E30.49686
G1 X138.087 Y84.681 E30.5229
G1 X138.539 Y85.038 E30.54666
G1 X139.253 Y85.672 E30.58606
G1 X139.697 Y86.119 E30.61206
G1 X140.041 Y86.561 E30.63517
G1 X140.405 Y87.087 E30.66157
G1 X160.95 Y87.087 E31.50932
G1 X161.579 Y87.127 E31.53533
G1 X162.197 Y87.246 E31.5613
G1 X162.795 Y87.443 E31.58728
G1 X163.364 Y87.714 E31.61328
G1 X163.894 Y88.054 E31.63927
G1 X164.376 Y88.459 E31.66524
G1 X164.803 Y88.922 E31.69123
G1 X165.168 Y89.435 E31.71721
G1 X165.465 Y89.99 E31.74319
G1 X165.69 Y90.579 E31.7692
G1 X165.838 Y91.191 E31.79519
G1 X165.913 Y92.05 E31.83077
G1 X165.913 Y117.95 E32.89949
G1 X165.873 Y118.579 E32.92549
G1 X165.754 Y119.197 E32.95146
G1 X165.557 Y119.795 E32.97744
G1 X165.286 Y120.364 E33.00345
G1 X164.946 Y120.894 E33.02943
G1 X164.541 Y121.376 E33.05541
G1 X164.078 Y121.803 E33.0814
G1 X163.565 Y122.168 E33.10738
G1 X163.01 Y122.465 E33.13335
G1 X162.421 Y122.69 E33.15937
G1 X161.809 Y122.838 E33.18535
G1 X160.95 Y122.913 E33.22093
G1 X140.405 Y122.913 E34.06869
G1 X140.041 Y123.439 E34.09508
G1 X139.651 Y123.933 E34.12105
G1 X139.253 Y124.328 E34.14419
G1 X138.539 Y124.962 E34.18359
G1 X138.043 Y125.35 E34.20958
G1 X137.549 Y125.646 E34.23334
G1 X136.706 Y126.088 E34.27261
G1 X136.13 Y126.345 E34.29864
G1 X135.589 Y126.512 E34.322
G1 X134.664 Y126.74 E34.36131
G1 X134.044 Y126.851 E34.3873
G1 X133.476 Y126.884 E34.41078
G1 X132.525 Y126.884 E34.45002
G1 X131.896 Y126.844 E34.47603
G1 X131.341 Y126.741 E34.49932
G1 X130.417 Y126.514 E34.53858
G1 X129.816 Y126.325 E34.56458
G1 X129.297 Y126.09 E34.58809
G1 X128.452 Y125.647 E34.62746
G1 X127.913 Y125.319 E34.65349
G1 X127.461 Y124.962 E34.67726
G1 X126.747 Y124.328 E34.71666
G1 X126.303 Y123.881 E34.74266
G1 X125.959 Y123.439 E34.76577
G1 X125.595 Y122.913 E34.79216
G1 X84.405 Y122.913 E36.4918
G1 X84.041 Y123.439 E36.5182
G1 X83.651 Y123.933 E36.54417
G1 X83.253 Y124.328 E36.56731
G1 X82.539 Y124.962 E36.60671
G1 X82.043 Y125.35 E36.63269
G1 X81.549 Y125.646 E36.65645
G1 X80.706 Y126.088 E36.69573
G1 X80.13 Y126.345 E36.72176
G1 X79.588 Y126.512 E36.74516
G1 X78.662 Y126.74 E36.78451
G1 X78.042 Y126.852 E36.81051
G1 X77.475 Y126.884 E36.83394
G1 X76.525 Y126.884 E36.87314
G1 X75.896 Y126.844 E36.89915
G1 X75.338 Y126.74 E36.92257
G1 X74.412 Y126.512 E36.96192
G1 X73.812 Y126.323 E36.98788
G1 X73.294 Y126.088 E37.01135
G1 X72.451 Y125.646 E37.05063
G1 X71.913 Y125.319 E37.0766
G1 X71.461 Y124.962 E37.10037
G1 X70.747 Y124.328 E37.13977
G1 X70.303 Y123.881 E37.16577
G1 X69.959 Y123.439 E37.18888
G1 X69.595 Y122.913 E37.21527
G1 X49.05 Y122.913 E38.06303
G1 X48.421 Y122.873 E38.08904
G1 X47.803 Y122.754 E38.11501
G1 X47.205 Y122.557 E38.14099
G1 X46.636 Y122.286 E38.16699
G1 X46.106 Y121.946 E38.19298
G1 X45.624 Y121.541 E38.21895
G1 X45.197 Y121.078 E38.24494
G1 X44.832 Y120.565 E38.27092
G1 X44.535 Y120.01 E38.2969
G1 X44.31 Y119.421 E38.32291
G1 X44.162 Y118.809 E38.34889
G1 X44.087 Y117.95 E38.38447
G1 X44.087 Y92.05 E39.45319
G1 X44.127 Y91.421 E39.4792
G1 X44.246 Y90.803 E39.50517
G1 X44.443 Y90.205 E39.53115
G1 X44.714 Y89.636 E39.55716
G1 X45.054 Y89.106 E39.58314
G1 X45.459 Y88.624 E39.60912
G1 X45.922 Y88.197 E39.63511
G1 X46.435 Y87.832 E39.66109
M204 S3000
G0 F4200 X46.814 Y88.069
M204 S500
G1 F1800 X47.359 Y87.809 E39.686
G1 X47.934 Y87.622 E39.71095
G1 X48.528 Y87.514 E39.73586
G1 X49.05 Y87.484 E39.75744
G1 X69.804 Y87.484 E40.61382
G1 X70.286 Y86.787 E40.64879
G1 X70.661 Y86.314 E40.67369
G1 X71.01 Y85.969 E40.69394
G1 X71.724 Y85.335 E40.73334
G1 X72.202 Y84.964 E40.75831
G1 X72.636 Y84.705 E40.77917
G1 X73.479 Y84.263 E40.81844
G1 X74.031 Y84.019 E40.84335
G1 X74.507 Y83.873 E40.86389
