;FLAVOR:Marlin
;TIME:3623
;Filament used: 3.75633m
;Layer height: 0.3
;MINX:80.186
;MINY:80.239
;MINZ:0.25
;MAXX:133.546
;MAXY:119.046
;MAXZ:49.75
;Generated with Cura_SteamEngine 4.7.1
M140 S60
M105
M190 S60
M104 S200
M105
M109 S200
M82 ;absolute extrusion mode
; Script based on an original created by tjjfvi (https://github.com/tjjfvi)
; An up-to-date version of the tjjfvi's original script can be found
; here:  https://csi.t6.fyi/
; Note - This script will only work in Cura V4.2 and above!
; --- Global Settings
; layer_height = 0.3
; smooth_spiralized_contours = True
; magic_mesh_surface_mode = normal
; machine_extruder_count = 1
; --- Single Extruder Settings
; speed_z_hop = 10
; retraction_amount = 5
; retraction_hop = 0.075
; retraction_hop_enabled = True
; retraction_enable = True
; retraction_speed = 50
; retraction_retract_speed = 50
; retraction_prime_speed = 50
; speed_travel = 120

G21 ;metric values
G90 ;absolute positioning
M82 ;set extruder to absolute mode
M107 ;start with the fan off
G28 X0 Y0 ;move X/Y to min endstops
G28 Z0 ;move Z to min endstops
G1 Z15.0 F120 ;move the platform down 15mm
G92 E0 ;zero the extruded length
G1 F200 E3 ;extrude 3mm of feed stock
G92 E0 ;zero the extruded length again
G1 F120
G0 Y20 F120
M117 Printing...
G5
G92 E0
G92 E0
G1 F3000 E-5
;LAYER_COUNT:166
;LAYER:0
M106 S51
M204 S3000
M205 X10 Y10
G1 F600 Z0.325
G0 F4200 X82.146 Y85.074 Z0.325
M204 S500
;TYPE:SKIRT
G1 F600 Z0.25
G1 F3000 E0.06236
G1 F1800 X82.544 Y84.725 E0.08421
G1 X83.244 Y84.198 E0.12036
G1 X84.524 Y83.266 E0.18569
G1 X85.069 Y82.881 E0.21323
G1 X85.529 Y82.605 E0.23536
G1 X86.024 Y82.401 E0.25746
G1 X86.545 Y82.272 E0.2796
G1 X87.081 Y82.223 E0.30181
G1 X88.056 Y82.206 E0.34205
G1 X89.518 Y82.206 E0.40238
G1 X90.227 Y82.216 E0.43164
G1 X90.716 Y82.235 E0.45183
G1 X93.493 Y82.313 E0.56646
G1 X96.188 Y82.313 E0.67767
G1 X98.957 Y82.234 E0.79197
G1 X101.645 Y82.081 E0.90307
G1 X104.365 Y81.85 E1.01571
G1 X107.08 Y81.541 E1.12846
G1 X109.785 Y81.154 E1.24122
G1 X113.115 Y80.572 E1.38071
G1 X114.422 Y80.321 E1.43562
G1 X115.036 Y80.257 E1.4611
G1 X116.038 Y80.239 E1.50245
G1 X117.501 Y80.239 E1.56282
G1 X118.196 Y80.249 E1.5915
G1 X118.73 Y80.297 E1.61362
G1 X119.25 Y80.423 E1.6357
G1 X119.747 Y80.626 E1.65785
G1 X120.21 Y80.901 E1.68007
G1 X120.964 Y81.431 E1.7181
G1 X122.175 Y82.313 E1.77992
G1 X122.753 Y82.746 E1.80972
G1 X123.157 Y83.098 E1.83183
G1 X123.346 Y83.306 E1.84343
G1 X123.864 Y83.921 E1.87661
G1 X124.718 Y84.96 E1.9321
G1 X126.51 Y87.018 E2.0447
G1 X128.353 Y89.018 E2.15693
G1 X131.088 Y91.79 E2.31761
G1 X131.848 Y92.53 E2.36138
G1 X132.084 Y92.77 E2.37527
G1 X132.521 Y93.315 E2.4041
G1 X132.823 Y93.794 E2.42746
G1 X133.125 Y94.423 E2.45625
G1 X133.296 Y94.912 E2.47763
G1 X133.454 Y95.62 E2.50756
G1 X133.512 Y96.122 E2.52841
G1 X133.541 Y96.653 E2.55036
G1 X133.546 Y97.007 E2.56497
G1 X133.546 Y112.839 E3.21825
G1 X133.536 Y113.536 E3.24701
G1 X133.498 Y114.054 E3.26844
G1 X133.459 Y114.376 E3.28183
G1 X133.343 Y114.935 E3.30539
G1 X133.126 Y115.573 E3.33319
G1 X132.819 Y116.213 E3.36248
G1 X132.54 Y116.657 E3.38412
G1 X132.12 Y117.191 E3.41215
G1 X131.731 Y117.583 E3.43494
G1 X131.207 Y118.006 E3.46273
G1 X130.707 Y118.322 E3.48714
G1 X130.077 Y118.625 E3.51598
G1 X129.595 Y118.795 E3.53707
G1 X129.076 Y118.929 E3.55919
G1 X128.508 Y118.994 E3.58278
G1 X127.954 Y119.023 E3.60567
G1 X126.729 Y119.046 E3.65623
G1 X119.588 Y119.046 E3.95089
G1 X118.885 Y119.035 E3.9799
G1 X118.351 Y118.986 E4.00203
G1 X117.579 Y118.767 E4.03514
G1 X117.303 Y118.642 E4.04764
G1 X116.2 Y118.087 E4.09859
G1 X113.773 Y116.908 E4.20993
G1 X111.261 Y115.775 E4.32364
G1 X108.749 Y114.724 E4.436
G1 X106.155 Y113.727 E4.55067
G1 X103.641 Y112.841 E4.66066
G1 X101.031 Y112.003 E4.77377
G1 X98.41 Y111.241 E4.8864
G1 X97.493 Y111.006 E4.92546
G1 X97.454 Y110.994 E4.92715
G1 X96.128 Y110.638 E4.9838
G1 X95.622 Y110.461 E5.00592
G1 X95.047 Y110.145 E5.03299
G1 X92.784 Y108.617 E5.14567
G1 X90.45 Y107.134 E5.25977
G1 X88.15 Y105.762 E5.37028
G1 X85.752 Y104.424 E5.48359
G1 X83.27 Y103.128 E5.59913
G1 X82.33 Y102.655 E5.64255
G1 X81.87 Y102.379 E5.66468
G1 X81.457 Y102.037 E5.68681
G1 X81.099 Y101.638 E5.70893
G1 X80.804 Y101.191 E5.73103
G1 X80.579 Y100.704 E5.75317
G1 X80.429 Y100.19 E5.77526
G1 X80.353 Y99.554 E5.80169
G1 X80.341 Y99.12 E5.8196
G1 X80.341 Y98.178 E5.85847
G1 X80.345 Y97.924 E5.86896
G1 X80.347 Y95.216 E5.9807
G1 X80.27 Y92.466 E6.09422
G1 X80.25 Y92.043 E6.11169
G1 X80.186 Y90.635 E6.16985
G1 X80.201 Y90.1 E6.19193
G1 X80.339 Y89.42 E6.22056
G1 X80.612 Y88.529 E6.25902
G1 X81.078 Y87.1 E6.32104
G1 X81.307 Y86.431 E6.35022
G1 X81.518 Y85.939 E6.37231
G1 X81.799 Y85.483 E6.39441
G1 X82.146 Y85.074 E6.41654
M204 S3000
G0 F4200 X82.49 Y85.292
M204 S500
G1 F1800 X82.783 Y85.042 E6.43243
G1 X83.477 Y84.519 E6.46829
G1 X84.753 Y83.59 E6.53342
G1 X85.298 Y83.205 E6.56095
G1 X85.733 Y82.947 E6.58182
G1 X86.203 Y82.761 E6.60268
G1 X86.696 Y82.651 E6.62352
G1 X87.088 Y82.619 E6.63975
G1 X88 Y82.603 E6.67739
G1 X89.512 Y82.603 E6.73978
G1 X90.221 Y82.613 E6.76904
G1 X90.691 Y82.632 E6.78845
G1 X93.482 Y82.71 E6.90366
G1 X96.199 Y82.71 E7.01577
G1 X98.955 Y82.631 E7.12954
G1 X101.703 Y82.475 E7.24312
G1 X104.408 Y82.245 E7.35514
G1 X107.11 Y81.937 E7.46735
G1 X109.844 Y81.547 E7.58131
G1 X113.203 Y80.96 E7.72201
G1 X114.497 Y80.711 E7.77639
G1 X115.043 Y80.654 E7.79904
G1 X116.038 Y80.636 E7.8401
G1 X117.495 Y80.636 E7.90022
G1 X118.19 Y80.646 E7.9289
G1 X118.693 Y80.694 E7.94975
G1 X119.183 Y80.819 E7.97062
G1 X119.647 Y81.021 E7.9915
G1 X119.982 Y81.226 E8.00771
G1 X120.73 Y81.752 E8.04544
G1 X121.937 Y82.631 E8.10705
G1 X122.515 Y83.064 E8.13685
G1 X123.042 Y83.562 E8.16677
G1 X123.558 Y84.173 E8.19977
G1 X124.412 Y85.211 E8.25524
G1 X126.233 Y87.303 E8.36968
G1 X128.059 Y89.285 E8.48088
G1 X130.809 Y92.073 E8.64247
G1 X131.571 Y92.814 E8.68633
G1 X131.8 Y93.047 E8.69981
G1 X132.189 Y93.532 E8.72547
G1 X132.483 Y94 E8.74827
G1 X132.752 Y94.559 E8.77387
G1 X132.919 Y95.037 E8.79476
G1 X133.06 Y95.667 E8.8214
G1 X133.126 Y96.257 E8.8459
G1 X133.149 Y97.012 E8.87707
G1 X133.149 Y112.833 E9.52989
G1 X133.139 Y113.53 E9.55866
G1 X133.092 Y114.122 E9.58316
G1 X133.066 Y114.327 E9.59169
G1 X132.962 Y114.823 E9.6126
G1 X132.753 Y115.437 E9.63936
G1 X132.48 Y116.007 E9.66544
G1 X132.206 Y116.442 E9.68666
G1 X131.832 Y116.917 E9.7116
G1 X131.453 Y117.299 E9.73381
G1 X130.987 Y117.676 E9.75854
G1 X130.5 Y117.983 E9.7823
G1 X129.941 Y118.252 E9.80789
G1 X129.467 Y118.419 E9.82863
G1 X128.734 Y118.575 E9.85955
G1 X128.049 Y118.623 E9.88789
G1 X126.729 Y118.649 E9.94237
G1 X119.594 Y118.649 E10.23678
G1 X118.891 Y118.638 E10.26579
G1 X118.388 Y118.59 E10.28664
G1 X117.73 Y118.4 E10.3149
G1 X117.481 Y118.288 E10.32617
G1 X116.378 Y117.733 E10.37712
G1 X113.919 Y116.538 E10.48993
G1 X111.413 Y115.407 E10.60338
G1 X108.909 Y114.36 E10.71537
G1 X106.313 Y113.363 E10.83012
G1 X103.758 Y112.461 E10.94193
G1 X101.149 Y111.624 E11.05499
G1 X98.523 Y110.861 E11.16783
G1 X97.592 Y110.622 E11.20749
G1 X97.557 Y110.611 E11.209
G1 X96.231 Y110.255 E11.26565
G1 X95.754 Y110.085 E11.28655
G1 X95.27 Y109.816 E11.3094
G1 X92.991 Y108.277 E11.42287
G1 X90.688 Y106.814 E11.53546
G1 X88.327 Y105.406 E11.64889
G1 X85.952 Y104.08 E11.76113
G1 X83.455 Y102.777 E11.87735
G1 X82.508 Y102.3 E11.9211
G1 X82.076 Y102.038 E11.94195
G1 X81.691 Y101.711 E11.96279
G1 X81.362 Y101.327 E11.98366
G1 X81.097 Y100.896 E12.00453
G1 X80.904 Y100.429 E12.02538
G1 X80.786 Y99.937 E12.04626
G1 X80.74 Y99.219 E12.07595
G1 X80.738 Y99.12 E12.08003
G1 X80.738 Y98.185 E12.11862
G1 X80.742 Y97.931 E12.1291
G1 X80.744 Y95.205 E12.24158
G1 X80.667 Y92.461 E12.35485
G1 X80.646 Y92.029 E12.3727
G1 X80.582 Y90.617 E12.43102
G1 X80.599 Y90.112 E12.45187
G1 X80.719 Y89.536 E12.47615
G1 X80.99 Y88.652 E12.5143
G1 X81.453 Y87.229 E12.57605
G1 X81.682 Y86.56 E12.60523
G1 X81.883 Y86.096 E12.62609
G1 X82.155 Y85.67 E12.64695
G1 X82.49 Y85.292 E12.66779
M204 S3000
G1 F3000 E7.66779
G0 F4200 X116.568 Y88.438
M204 S500
G1 F3000 E12.73015
G1 F1800 X116.67 Y88.401 E12.73463
G1 X116.737 Y88.49 E12.73923
G1 X116.588 Y88.638 E12.74789
G1 X116.51 Y88.614 E12.75126
G1 X116.568 Y88.438 E12.75891
M204 S3000
G0 F4200 X116.229 Y88.194
M204 S500
G1 F1800 X116.49 Y88.004 E12.77223
G1 X116.798 Y88.004 E12.78494
G1 X117.059 Y88.194 E12.79826
G1 X117.155 Y88.49 E12.8111
G1 X117.059 Y88.786 E12.82394
G1 X116.725 Y89.03 E12.84101
G1 X116.217 Y89.05 E12.86199
G1 X116.096 Y88.602 E12.88113
G1 X116.229 Y88.194 E12.89884
M204 S3000
G0 F4200 X115.892 Y87.948
M204 S500
G1 F1800 X116.36 Y87.607 E12.92274
G1 X116.928 Y87.607 E12.94617
G1 X117.396 Y87.948 E12.97007
G1 X117.572 Y88.49 E12.99358
G1 X117.396 Y89.032 E13.0171
G1 X116.861 Y89.422 E13.04441
G1 X115.916 Y89.46 E13.08344
G1 X115.683 Y88.591 E13.12056
G1 X115.892 Y87.948 E13.14846
M204 S3000
G0 F4200 X115.554 Y87.702
M204 S500
G1 F1800 X116.231 Y87.21 E13.183
G1 X117.057 Y87.21 E13.21708
G1 X117.734 Y87.702 E13.25161
G1 X117.99 Y88.49 E13.2858
G1 X117.734 Y89.278 E13.31999
G1 X116.997 Y89.814 E13.35759
G1 X115.615 Y89.869 E13.41466
G1 X115.268 Y88.581 E13.46971
G1 X115.554 Y87.702 E13.50785
M204 S3000
G0 F4200 X115.217 Y87.457
M204 S500
G1 F1800 X116.102 Y86.813 E13.55301
G1 X117.186 Y86.813 E13.59774
G1 X118.071 Y87.457 E13.6429
G1 X118.407 Y88.49 E13.68773
G1 X118.071 Y89.523 E13.73255
G1 X117.134 Y90.205 E13.78037
G1 X115.314 Y90.278 E13.85553
G1 X114.855 Y88.571 E13.92847
G1 X115.217 Y87.457 E13.9768
M204 S3000
G0 F4200 X114.879 Y87.212
M204 S500
G1 F1800 X115.972 Y86.416 E14.0326
G1 X117.316 Y86.416 E14.08806
G1 X118.409 Y87.212 E14.14385
G1 X118.825 Y88.49 E14.19931
G1 X118.409 Y89.768 E14.25476
G1 X117.27 Y90.597 E14.31289
G1 X115.012 Y90.688 E14.40614
G1 X114.44 Y88.56 E14.49707
G1 X114.879 Y87.212 E14.55557
M204 S3000
G0 F4200 X114.542 Y86.966
M204 S500
G1 F1800 X115.843 Y86.019 E14.62197
G1 X117.445 Y86.019 E14.68807
G1 X118.746 Y86.966 E14.75447
G1 X119.242 Y88.49 E14.8206
G1 X118.746 Y90.014 E14.88673
G1 X117.406 Y90.99 E14.95514
G1 X114.712 Y91.097 E15.06639
G1 X114.027 Y88.55 E15.17522
G1 X114.542 Y86.966 E15.24395
M204 S3000
G0 F4200 X114.203 Y86.722
M204 S500
G1 F1800 X115.714 Y85.622 E15.32107
G1 X117.574 Y85.622 E15.39782
G1 X119.085 Y86.722 E15.47494
G1 X119.66 Y88.49 E15.55166
G1 X119.085 Y90.258 E15.62837
G1 X117.543 Y91.381 E15.70709
G1 X114.481 Y91.503 E15.83353
G1 X114.393 Y91.439 E15.83802
G1 X113.613 Y88.537 E15.96202
G1 X114.203 Y86.722 E16.04077
M204 S3000
G0 F4200 X113.866 Y86.476
M204 S500
G1 F1800 X115.585 Y85.225 E16.1285
G1 X117.703 Y85.225 E16.21589
G1 X119.422 Y86.476 E16.30362
G1 X120.077 Y88.49 E16.39101
G1 X119.422 Y90.504 E16.4784
G1 X117.679 Y91.773 E16.56736
G1 X114.359 Y91.906 E16.70447
G1 X114.045 Y91.678 E16.72048
G1 X113.198 Y88.528 E16.85507
G1 X113.866 Y86.476 E16.94412
M204 S3000
G0 F4200 X113.528 Y86.231
M204 S500
G1 F1800 X115.455 Y84.828 E17.04248
G1 X117.833 Y84.828 E17.1406
G1 X119.76 Y86.231 E17.23896
G1 X120.495 Y88.49 E17.33698
G1 X119.76 Y90.749 E17.43501
G1 X117.815 Y92.165 E17.53428
G1 X114.238 Y92.308 E17.682
G1 X113.699 Y91.916 E17.7095
G1 X112.784 Y88.516 E17.85478
G1 X113.528 Y86.231 E17.95394
M204 S3000
G0 F4200 X113.191 Y85.985
M204 S500
G1 F1800 X115.326 Y84.431 E18.06291
G1 X117.962 Y84.431 E18.17168
G1 X120.097 Y85.985 E18.28064
G1 X120.912 Y88.49 E18.38934
G1 X120.097 Y90.995 E18.49803
G1 X117.952 Y92.556 E18.6075
G1 X114.115 Y92.71 E18.76596
G1 X113.353 Y92.156 E18.80483
G1 X112.371 Y88.505 E18.96084
G1 X113.191 Y85.985 E19.07019
M204 S3000
G0 F4200 X112.853 Y85.74
M204 S500
G1 F1800 X115.197 Y84.034 E19.18981
G1 X118.091 Y84.034 E19.30923
G1 X120.435 Y85.74 E19.42886
G1 X121.33 Y88.49 E19.54819
G1 X120.435 Y91.24 E19.66752
G1 X118.088 Y92.948 E19.7873
G1 X113.994 Y93.112 E19.95637
G1 X113.005 Y92.393 E20.00682
G1 X111.956 Y88.495 E20.17339
G1 X112.853 Y85.74 E20.29294
M204 S3000
G1 F3000 E15.29294
G0 F4200 X106.328 Y89.86
M204 S500
G1 F3000 E20.3553
G1 F1800 X105.645 Y92.393 E20.46356
G1 X104.656 Y93.113 E20.51403
G1 X101.975 Y93.02 E20.62473
G1 X100.308 Y91.807 E20.7098
G1 X99.672 Y89.855 E20.79451
G1 X100.308 Y87.903 E20.87922
G1 X101.972 Y86.692 E20.96415
G1 X104.026 Y86.692 E21.0489
G1 X105.69 Y87.903 E21.13382
G1 X106.328 Y89.86 E21.21876
M204 S3000
G0 F4200 X105.913 Y89.873
M204 S500
G1 F1800 X105.299 Y92.155 E21.31627
G1 X104.534 Y92.711 E21.35529
G1 X102.11 Y92.627 E21.45537
G1 X100.646 Y91.562 E21.53008
G1 X100.09 Y89.855 E21.60416
G1 X100.646 Y88.148 E21.67823
G1 X102.101 Y87.089 E21.75249
G1 X103.897 Y87.089 E21.8266
G1 X105.352 Y88.148 E21.90086
G1 X105.913 Y89.873 E21.97571
M204 S3000
G0 F4200 X105.499 Y89.882
M204 S500
G1 F1800 X104.951 Y91.916 E22.06263
G1 X104.409 Y92.31 E22.09028
G1 X102.246 Y92.236 E22.17958
G1 X100.984 Y91.317 E22.244
G1 X100.507 Y89.855 E22.30746
G1 X100.984 Y88.393 E22.37091
G1 X102.23 Y87.486 E22.43451
G1 X103.768 Y87.486 E22.49797
G1 X105.014 Y88.393 E22.56156
G1 X105.499 Y89.882 E22.62618
M204 S3000
G0 F4200 X105.085 Y89.893
M204 S500
G1 F1800 X104.604 Y91.678 E22.70246
G1 X104.287 Y91.909 E22.71865
G1 X102.381 Y91.843 E22.79734
G1 X101.322 Y91.072 E22.8514
G1 X100.925 Y89.855 E22.90422
G1 X101.322 Y88.638 E22.95704
G1 X102.36 Y87.883 E23.01
G1 X103.638 Y87.883 E23.06274
G1 X104.676 Y88.638 E23.1157
G1 X105.085 Y89.893 E23.17017
M204 S3000
G0 F4200 X104.672 Y89.904
M204 S500
G1 F1800 X104.258 Y91.439 E23.23577
G1 X104.164 Y91.507 E23.24056
G1 X102.517 Y91.45 E23.30856
G1 X101.659 Y90.825 E23.35236
G1 X101.342 Y89.855 E23.39447
G1 X101.659 Y88.885 E23.43658
G1 X102.489 Y88.28 E23.47896
G1 X103.509 Y88.28 E23.52105
G1 X104.339 Y88.885 E23.56343
G1 X104.672 Y89.904 E23.60766
M204 S3000
G0 F4200 X104.257 Y89.915
M204 S500
G1 F1800 X103.937 Y91.101 E23.65835
G1 X102.651 Y91.057 E23.71145
G1 X101.997 Y90.581 E23.74483
G1 X101.761 Y89.855 E23.77633
G1 X101.997 Y89.129 E23.80783
G1 X102.618 Y88.677 E23.83952
G1 X103.38 Y88.677 E23.87096
G1 X104.001 Y89.129 E23.90266
G1 X104.257 Y89.915 E23.93677
M204 S3000
G0 F4200 X103.843 Y89.925
M204 S500
G1 F1800 X103.636 Y90.695 E23.96967
G1 X102.788 Y90.665 E24.00468
G1 X102.334 Y90.335 E24.02784
G1 X102.177 Y89.855 E24.04868
G1 X102.334 Y89.375 E24.06952
G1 X102.747 Y89.074 E24.0906
G1 X103.251 Y89.074 E24.1114
G1 X103.664 Y89.375 E24.13249
G1 X103.843 Y89.925 E24.15636
M204 S3000
G0 F4200 X103.429 Y89.937
M204 S500
G1 F1800 X103.335 Y90.287 E24.17131
G1 X102.923 Y90.273 E24.18832
G1 X102.672 Y90.09 E24.20114
G1 X102.595 Y89.855 E24.21134
G1 X102.672 Y89.62 E24.22155
G1 X102.877 Y89.471 E24.232
G1 X103.121 Y89.471 E24.24207
G1 X103.326 Y89.62 E24.25253
G1 X103.429 Y89.937 E24.26628
M204 S3000
G1 F3000 E19.26628
G0 F4200 X93.75 Y92.042
M204 S500
G1 F3000 E24.32865
G1 F1800 X93.37 Y93.212 E24.37941
G1 X92.372 Y93.937 E24.43031
G1 X91.515 Y93.937 E24.46567
G1 X91.398 Y93.975 E24.47074
G1 X90.109 Y94.913 E24.53653
G1 X87.215 Y94.913 E24.65594
G1 X84.871 Y93.207 E24.77557
G1 X83.976 Y90.457 E24.8949
G1 X84.871 Y87.707 E25.01423
G1 X87.215 Y86.001 E25.13386
G1 X90.109 Y86.001 E25.25328
G1 X92.45 Y87.705 E25.37275
G1 X93.35 Y90.81 E25.50615
G1 X93.75 Y92.042 E25.5596
M204 S3000
G0 F4200 X93.332 Y92.042
M204 S500
G1 F1800 X93.032 Y92.967 E25.59972
G1 X92.244 Y93.54 E25.63993
G1 X91.515 Y93.54 E25.67001
G1 X91.301 Y93.58 E25.67899
G1 X91.164 Y93.654 E25.68542
G1 X89.98 Y94.516 E25.74585
G1 X87.344 Y94.516 E25.85462
G1 X85.209 Y92.962 E25.96358
G1 X84.394 Y90.457 E26.07228
G1 X85.209 Y87.952 E26.18098
G1 X87.344 Y86.398 E26.28994
G1 X89.98 Y86.398 E26.39871
G1 X92.107 Y87.947 E26.50729
G1 X92.972 Y90.933 E26.63556
G1 X93.332 Y92.042 E26.68368
M204 S3000
G0 F4200 X92.915 Y92.042
M204 S500
G1 F1800 X92.695 Y92.721 E26.71313
G1 X92.114 Y93.143 E26.74276
G1 X91.515 Y93.143 E26.76747
G1 X91.237 Y93.183 E26.77906
G1 X90.931 Y93.333 E26.79313
G1 X89.851 Y94.119 E26.84824
G1 X87.473 Y94.119 E26.94637
G1 X85.546 Y92.716 E27.04472
G1 X84.811 Y90.457 E27.14275
G1 X85.546 Y88.198 E27.24077
G1 X87.473 Y86.795 E27.33913
G1 X89.851 Y86.795 E27.43725
G1 X91.763 Y88.187 E27.53484
G1 X92.595 Y91.056 E27.6581
