;FLAVOR:Marlin
;TIME:5353
;Filament used: 4.29981m
;Layer height: 0.2
;MINX:62.077
;MINY:47.077
;MINZ:0.25
;MAXX:147.923
;MAXY:157.923
;MAXZ:12.85
;Generated with Cura_SteamEngine 4.9.0
M140 S60
M105
M190 S60
M104 S200
M105
M109 S200
M82 ;absolute extrusion mode
G21 ;metric values
G90 ;absolute positioning
M82 ;set extruder to absolute mode
M107 ;start with the fan off
G28 X0 Y0 ;move X/Y to min endstops
G28 Z0 ;move Z to min endstops
G1 Z15.0 F120 ;move the platform down 15mm
G92 E0 ;zero the extruded length
G1 F200 E3 ;extrude 3mm of feed stock
G92 E0 ;zero the extruded length again
G1 F120
G0 Y20 F120
M117 Printing...
G5
G92 E0
G92 E0
G1 F3000 E-5
;LAYER_COUNT:64
;LAYER:0
M106 S51
M204 S3000
M205 X10 Y10
G1 F600 Z0.325
G0 F4200 X62.946 Y48.555 Z0.325
M204 S400
;TYPE:SKIRT
G1 F600 Z0.25
G1 F3000 E0.06236
G1 F1800 X63.356 Y48.102 E0.08757
G1 X63.386 Y48.075 E0.08924
G1 X63.913 Y47.696 E0.11602
G1 X64.687 Y47.305 E0.15181
G1 X65.353 Y47.136 E0.18016
G1 X65.935 Y47.079 E0.20429
G1 X144.829 Y47.077 E3.45972
G1 X145.315 Y47.117 E3.47984
G1 X145.788 Y47.236 E3.49997
G1 X146.235 Y47.43 E3.52007
G1 X146.645 Y47.695 E3.54022
G1 X147.051 Y48.065 E3.56289
G1 X147.366 Y48.437 E3.583
G1 X147.617 Y48.856 E3.60315
G1 X147.796 Y49.309 E3.62325
G1 X147.898 Y49.786 E3.64338
G1 X147.923 Y50.171 E3.6593
G1 X147.923 Y99.829 E5.70836
G1 X147.883 Y100.315 E5.72848
G1 X147.764 Y100.788 E5.7486
G1 X147.57 Y101.235 E5.76871
G1 X147.305 Y101.645 E5.78885
G1 X146.935 Y102.051 E5.81152
G1 X146.563 Y102.366 E5.83163
G1 X146.341 Y102.499 E5.84231
G1 X146.645 Y102.695 E5.85724
G1 X147.051 Y103.065 E5.8799
G1 X147.366 Y103.437 E5.90002
G1 X147.617 Y103.856 E5.92017
G1 X147.796 Y104.309 E5.94027
G1 X147.898 Y104.786 E5.9604
G1 X147.923 Y105.171 E5.97632
G1 X147.923 Y154.829 E8.02537
G1 X147.883 Y155.315 E8.0455
G1 X147.764 Y155.788 E8.06562
G1 X147.57 Y156.235 E8.08573
G1 X147.305 Y156.645 E8.10587
G1 X146.935 Y157.051 E8.12854
G1 X146.563 Y157.366 E8.14865
G1 X146.144 Y157.617 E8.16881
G1 X145.691 Y157.796 E8.18891
G1 X145.214 Y157.898 E8.20903
G1 X144.829 Y157.923 E8.22495
G1 X65.948 Y157.922 E11.47985
G1 X65.184 Y157.827 E11.51162
G1 X64.878 Y157.749 E11.52465
G1 X64.339 Y157.554 E11.5483
G1 X64.301 Y157.536 E11.55003
G1 X63.799 Y157.235 E11.57419
G1 X63.534 Y157.038 E11.58781
G1 X63.055 Y156.592 E11.61482
G1 X63.03 Y156.563 E11.6164
G1 X62.724 Y156.137 E11.63804
G1 X62.554 Y155.85 E11.6518
G1 X62.334 Y155.396 E11.67262
G1 X62.321 Y155.362 E11.67412
G1 X62.178 Y154.859 E11.6957
G1 X62.131 Y154.614 E11.70599
G1 X62.078 Y154.053 E11.72925
G1 X62.077 Y123.959 E12.97103
G1 X62.165 Y123.225 E13.00153
G1 X62.241 Y122.914 E13.01474
G1 X62.47 Y122.289 E13.04221
G1 X62.489 Y122.251 E13.04396
G1 X62.75 Y121.824 E13.06461
G1 X62.944 Y121.559 E13.07816
G1 X63.313 Y121.143 E13.10111
G1 X63.344 Y121.114 E13.10286
G1 X63.824 Y120.749 E13.12774
G1 X64.097 Y120.582 E13.14095
G1 X64.605 Y120.334 E13.16427
G1 X65.32 Y120.143 E13.19481
G1 X65.951 Y120.078 E13.22099
G1 X90.797 Y120.077 E14.24622
G1 X91.6 Y120.036 E14.27939
G1 X92.23 Y119.943 E14.30567
G1 X92.561 Y119.866 E14.31969
G1 X93.268 Y119.652 E14.35017
G1 X93.564 Y119.537 E14.36328
G1 X94.23 Y119.22 E14.39371
G1 X94.789 Y118.885 E14.4206
G1 X95.353 Y118.465 E14.44962
G1 X95.865 Y118.001 E14.47813
G1 X110.672 Y103.196 E15.34214
G1 X111.242 Y102.747 E15.37208
G1 X111.662 Y102.507 E15.39204
G1 X111.127 Y102.178 E15.41796
G1 X110.671 Y101.804 E15.44229
G1 X95.859 Y86.994 E16.30659
G1 X95.353 Y86.535 E16.33478
G1 X94.812 Y86.13 E16.36267
G1 X94.193 Y85.761 E16.3924
G1 X93.58 Y85.469 E16.42042
G1 X93.244 Y85.34 E16.43527
G1 X92.567 Y85.136 E16.46445
G1 X91.9 Y85 E16.49254
G1 X91.221 Y84.933 E16.52069
G1 X90.833 Y84.923 E16.53671
G1 X65.949 Y84.922 E17.5635
G1 X65.183 Y84.826 E17.59536
G1 X64.878 Y84.748 E17.60835
G1 X64.341 Y84.554 E17.63191
G1 X64.303 Y84.536 E17.63364
G1 X63.817 Y84.247 E17.65698
G1 X63.551 Y84.052 E17.67058
G1 X63.024 Y83.556 E17.70045
G1 X62.726 Y83.14 E17.72156
G1 X62.555 Y82.852 E17.73538
G1 X62.315 Y82.343 E17.7586
G1 X62.176 Y81.845 E17.77994
G1 X62.128 Y81.589 E17.79069
G1 X62.077 Y81.04 E17.81344
G1 X62.078 Y50.944 E19.0553
G1 X62.175 Y50.175 E19.08728
G1 X62.251 Y49.879 E19.09989
G1 X62.444 Y49.345 E19.12332
G1 X62.462 Y49.307 E19.12506
G1 X62.751 Y48.821 E19.14839
G1 X62.946 Y48.555 E19.162
M204 S3000
G0 F4200 X63.266 Y48.79
M204 S400
G1 F1800 X63.621 Y48.398 E19.18382
G1 X63.651 Y48.371 E19.18549
G1 X64.108 Y48.042 E19.20872
G1 X64.853 Y47.667 E19.24314
G1 X65.431 Y47.526 E19.26769
G1 X65.935 Y47.476 E19.28859
G1 X144.829 Y47.474 E22.54402
G1 X145.281 Y47.514 E22.56274
G1 X145.719 Y47.632 E22.58146
G1 X146.13 Y47.826 E22.60021
G1 X146.654 Y48.23 E22.62751
G1 X147.062 Y48.694 E22.65301
G1 X147.288 Y49.088 E22.67175
G1 X147.441 Y49.515 E22.69047
G1 X147.526 Y50.171 E22.71776
G1 X147.526 Y99.829 E24.76682
G1 X147.486 Y100.281 E24.78554
G1 X147.368 Y100.719 E24.80426
G1 X147.174 Y101.13 E24.82301
G1 X146.77 Y101.654 E24.85032
G1 X146.306 Y102.062 E24.87581
G1 X145.912 Y102.288 E24.89455
G1 X145.485 Y102.441 E24.91327
G1 X145.067 Y102.495 E24.93066
G1 X145.281 Y102.514 E24.93953
G1 X145.719 Y102.632 E24.95825
G1 X146.13 Y102.826 E24.977
G1 X146.654 Y103.23 E25.0043
G1 X147.062 Y103.694 E25.0298
G1 X147.288 Y104.088 E25.04854
G1 X147.441 Y104.515 E25.06726
G1 X147.526 Y105.171 E25.09455
G1 X147.526 Y154.829 E27.14361
G1 X147.486 Y155.281 E27.16233
G1 X147.368 Y155.719 E27.18105
G1 X147.174 Y156.13 E27.1998
G1 X146.77 Y156.654 E27.2271
G1 X146.306 Y157.062 E27.2526
G1 X145.912 Y157.288 E27.27134
G1 X145.485 Y157.441 E27.29006
G1 X144.829 Y157.526 E27.31735
G1 X65.948 Y157.525 E30.57225
G1 X65.282 Y157.442 E30.59994
G1 X64.509 Y157.196 E30.63341
G1 X64.471 Y157.178 E30.63515
G1 X64.036 Y156.916 E30.6561
G1 X63.771 Y156.719 E30.66973
G1 X63.356 Y156.333 E30.69311
G1 X62.895 Y155.647 E30.72722
G1 X62.692 Y155.22 E30.74673
G1 X62.521 Y154.539 E30.7757
G1 X62.475 Y154.053 E30.79585
G1 X62.474 Y123.959 E32.03762
G1 X62.551 Y123.319 E32.06422
G1 X62.627 Y123.008 E32.07743
G1 X62.825 Y122.467 E32.10121
G1 X63.264 Y121.793 E32.1344
G1 X63.615 Y121.404 E32.15602
G1 X64.031 Y121.087 E32.1776
G1 X64.745 Y120.705 E32.21101
G1 X65.401 Y120.532 E32.23901
G1 X65.951 Y120.475 E32.26182
G1 X90.798 Y120.474 E33.28709
G1 X91.641 Y120.431 E33.32192
G1 X92.3 Y120.334 E33.34941
G1 X92.677 Y120.246 E33.36538
G1 X93.395 Y120.028 E33.39635
G1 X93.712 Y119.905 E33.41038
G1 X94.415 Y119.571 E33.44249
G1 X95.006 Y119.218 E33.4709
G1 X95.607 Y118.771 E33.5018
G1 X96.161 Y118.267 E33.53271
G1 X110.953 Y103.477 E34.39584
G1 X111.45 Y103.086 E34.42193
G1 X112.122 Y102.72 E34.45351
G1 X112.833 Y102.529 E34.48389
G1 X113.023 Y102.5 E34.49182
G1 X112.395 Y102.365 E34.51832
G1 X111.903 Y102.185 E34.53994
G1 X111.349 Y101.849 E34.56668
G1 X110.952 Y101.523 E34.58787
G1 X96.173 Y86.746 E35.45025
G1 X95.587 Y86.213 E35.48293
G1 X95.031 Y85.8 E35.51151
G1 X94.371 Y85.405 E35.54325
G1 X93.731 Y85.102 E35.57247
G1 X93.38 Y84.966 E35.588
G1 X92.662 Y84.75 E35.61894
G1 X91.946 Y84.605 E35.64908
G1 X91.24 Y84.536 E35.67836
G1 X90.844 Y84.526 E35.6947
G1 X65.949 Y84.525 E36.72195
G1 X65.282 Y84.442 E36.74969
G1 X64.511 Y84.196 E36.78308
G1 X64.052 Y83.927 E36.80503
G1 X63.786 Y83.732 E36.81864
G1 X63.329 Y83.302 E36.84454
G1 X62.897 Y82.65 E36.87681
G1 X62.675 Y82.173 E36.89852
G1 X62.518 Y81.516 E36.92639
G1 X62.474 Y81.04 E36.94612
G1 X62.475 Y50.944 E38.18798
G1 X62.559 Y50.274 E38.21584
G1 X62.802 Y49.515 E38.24873
G1 X63.071 Y49.056 E38.27068
G1 X63.266 Y48.79 E38.28429
M204 S3000
G0 F4200 X63.587 Y49.025
M204 S400
G1 F1800 X63.917 Y48.666 E38.30441
G1 X64.635 Y48.2 E38.33973
G1 X65.016 Y48.031 E38.35693
G1 X65.509 Y47.915 E38.37783
G1 X65.935 Y47.873 E38.39549
G1 X144.829 Y47.871 E41.65092
G1 X145.245 Y47.911 E41.66817
G1 X145.645 Y48.029 E41.68538
G1 X146.016 Y48.221 E41.70261
G1 X146.489 Y48.627 E41.72833
G1 X146.755 Y48.949 E41.74557
G1 X146.954 Y49.316 E41.7628
G1 X147.081 Y49.714 E41.78003
G1 X147.129 Y50.171 E41.79899
G1 X147.129 Y99.829 E43.84805
G1 X147.089 Y100.245 E43.8653
G1 X146.971 Y100.645 E43.8825
G1 X146.779 Y101.016 E43.89974
G1 X146.373 Y101.489 E43.92546
G1 X146.051 Y101.755 E43.9427
G1 X145.684 Y101.954 E43.95992
G1 X145.286 Y102.081 E43.97716
G1 X144.829 Y102.129 E43.99612
G1 X113.365 Y102.128 E45.29443
G1 X112.801 Y102.058 E45.31788
G1 X112.076 Y101.828 E45.34927
G1 X111.571 Y101.52 E45.37368
G1 X111.233 Y101.242 E45.39174
G1 X96.449 Y86.46 E46.2544
G1 X95.853 Y85.918 E46.28764
G1 X95.247 Y85.466 E46.31884
G1 X94.564 Y85.059 E46.35164
G1 X93.889 Y84.737 E46.3825
G1 X93.508 Y84.591 E46.39934
G1 X92.77 Y84.368 E46.43115
G1 X92.019 Y84.214 E46.46279
G1 X91.259 Y84.14 E46.49429
G1 X90.854 Y84.129 E46.51101
G1 X65.949 Y84.128 E47.53868
G1 X65.38 Y84.057 E47.56234
G1 X64.681 Y83.837 E47.59258
G1 X64.021 Y83.411 E47.62499
G1 X63.634 Y83.048 E47.64688
G1 X63.238 Y82.447 E47.67658
G1 X63.049 Y82.038 E47.69517
G1 X62.908 Y81.442 E47.72045
G1 X62.871 Y81.04 E47.7371
G1 X62.872 Y50.944 E48.97897
G1 X62.944 Y50.373 E49.00271
G1 X63.161 Y49.685 E49.03248
G1 X63.587 Y49.025 E49.0649
M204 S3000
G0 F4200 X63.907 Y49.259
M204 S400
G1 F1800 X64.183 Y48.961 E49.08166
G1 X64.83 Y48.546 E49.11337
G1 X65.36 Y48.349 E49.1367
G1 X65.935 Y48.27 E49.16065
G1 X144.829 Y48.268 E52.41608
G1 X145.204 Y48.308 E52.43165
G1 X145.563 Y48.426 E52.44724
G1 X145.889 Y48.616 E52.46281
G1 X146.209 Y48.907 E52.48066
G1 X146.446 Y49.201 E52.49624
G1 X146.616 Y49.538 E52.51181
G1 X146.712 Y49.903 E52.52739
G1 X146.732 Y50.171 E52.53848
G1 X146.732 Y99.829 E54.58753
G1 X146.692 Y100.204 E54.60309
G1 X146.574 Y100.563 E54.61869
G1 X146.384 Y100.889 E54.63426
G1 X146.093 Y101.209 E54.6521
G1 X145.799 Y101.446 E54.66769
G1 X145.462 Y101.616 E54.68326
G1 X145.097 Y101.712 E54.69884
G1 X144.829 Y101.732 E54.70992
G1 X113.365 Y101.731 E56.00823
G1 X112.898 Y101.673 E56.02765
G1 X112.249 Y101.471 E56.0557
G1 X111.793 Y101.191 E56.07778
G1 X111.513 Y100.962 E56.09271
G1 X96.701 Y86.152 E56.957
G1 X96.099 Y85.607 E56.99051
G1 X95.462 Y85.132 E57.0233
G1 X94.752 Y84.709 E57.0574
G1 X94.04 Y84.37 E57.08994
G1 X93.645 Y84.217 E57.10742
G1 X92.868 Y83.983 E57.14091
G1 X92.069 Y83.82 E57.17455
G1 X91.277 Y83.743 E57.20739
G1 X90.864 Y83.732 E57.22444
G1 X65.949 Y83.731 E58.25251
G1 X65.478 Y83.672 E58.2721
G1 X64.851 Y83.478 E58.29918
G1 X64.255 Y83.091 E58.32851
G1 X63.914 Y82.764 E58.348
G1 X63.579 Y82.244 E58.37352
G1 X63.422 Y81.903 E58.38901
G1 X63.299 Y81.369 E58.41163
G1 X63.268 Y81.04 E58.42526
G1 X63.269 Y50.944 E59.66712
G1 X63.328 Y50.472 E59.68675
G1 X63.52 Y49.855 E59.71342
G1 X63.907 Y49.259 E59.74274
M204 S3000
G0 F4200 X64.227 Y49.494
M204 S400
G1 F1800 X64.448 Y49.256 E59.75614
G1 X65.025 Y48.892 E59.78429
G1 X65.664 Y48.694 E59.81189
G1 X65.935 Y48.667 E59.82313
G1 X144.829 Y48.665 E63.07856
G1 X145.159 Y48.705 E63.09228
G1 X145.471 Y48.822 E63.10603
G1 X145.928 Y49.188 E63.13019
G1 X146.133 Y49.45 E63.14392
G1 X146.271 Y49.753 E63.15765
G1 X146.335 Y50.171 E63.1751
G1 X146.335 Y99.829 E65.22416
G1 X146.295 Y100.159 E65.23788
G1 X146.178 Y100.471 E65.25163
G1 X145.812 Y100.928 E65.27579
G1 X145.55 Y101.133 E65.28951
G1 X145.247 Y101.271 E65.30325
G1 X144.829 Y101.335 E65.3207
G1 X113.365 Y101.334 E66.61901
G1 X112.996 Y101.288 E66.63435
G1 X112.423 Y101.114 E66.65906
G1 X111.959 Y100.822 E66.68169
G1 X111.794 Y100.681 E66.69064
G1 X96.982 Y85.871 E67.55494
G1 X96.725 Y85.623 E67.56968
G1 X96.344 Y85.293 E67.59048
G1 X95.673 Y84.795 E67.62496
G1 X94.941 Y84.359 E67.66011
G1 X94.191 Y84.003 E67.69437
G1 X93.769 Y83.84 E67.71304
G1 X92.98 Y83.602 E67.74704
G1 X92.137 Y83.429 E67.78255
G1 X91.316 Y83.348 E67.81659
G1 X90.837 Y83.335 E67.83637
G1 X65.949 Y83.334 E68.86333
G1 X65.577 Y83.288 E68.8788
G1 X65.021 Y83.119 E68.90277
G1 X64.49 Y82.771 E68.92897
G1 X64.219 Y82.51 E68.9445
G1 X63.921 Y82.042 E68.96739
G1 X63.737 Y81.552 E68.98899
G1 X63.665 Y81.04 E69.01032
G1 X63.666 Y50.944 E70.25219
G1 X63.713 Y50.57 E70.26774
G1 X63.879 Y50.025 E70.29125
G1 X64.227 Y49.494 E70.31744
M204 S3000
G0 F4200 X64.352 Y49.995
M204 S400
G1 F1800 X64.684 Y49.578 E70.33944
G1 X65.221 Y49.237 E70.36569
G1 X65.741 Y49.083 E70.38807
G1 X65.935 Y49.064 E70.39611
G1 X144.829 Y49.062 E73.65154
G1 X145.107 Y49.102 E73.66313
G1 X145.363 Y49.218 E73.67473
G1 X145.647 Y49.469 E73.69037
G1 X145.816 Y49.694 E73.70198
G1 X145.915 Y49.957 E73.71357
G1 X145.938 Y50.171 E73.72245
G1 X145.938 Y99.829 E75.77151
G1 X145.898 Y100.107 E75.7831
G1 X145.782 Y100.363 E75.7947
G1 X145.531 Y100.647 E75.81034
G1 X145.306 Y100.816 E75.82195
G1 X145.043 Y100.915 E75.83354
G1 X144.829 Y100.938 E75.84243
G1 X113.365 Y100.937 E77.14074
G1 X112.785 Y100.826 E77.1651
G1 X112.441 Y100.67 E77.18069
G1 X112.075 Y100.4 E77.19946
G1 X97.263 Y85.59 E78.06375
G1 X96.61 Y84.998 E78.10012
G1 X95.895 Y84.465 E78.13692
G1 X95.135 Y84.012 E78.17343
G1 X94.326 Y83.629 E78.21037
G1 X93.909 Y83.468 E78.22881
G1 X93.074 Y83.216 E78.2648
G1 X92.188 Y83.035 E78.30211
G1 X91.334 Y82.951 E78.33752
G1 X90.847 Y82.938 E78.35763
G1 X65.949 Y82.937 E79.385
G1 X65.37 Y82.825 E79.40934
G1 X64.991 Y82.646 E79.42663
G1 X64.549 Y82.286 E79.45015
G1 X64.262 Y81.839 E79.47207
G1 X64.127 Y81.479 E79.48794
G1 X64.062 Y81.04 E79.50625
G1 X64.063 Y50.944 E80.74811
G1 X64.173 Y50.373 E80.77211
G1 X64.352 Y49.995 E80.78936
M204 S3000
G0 F4200 X64.672 Y50.23
M204 S400
G1 F1800 X64.979 Y49.846 E80.80965
G1 X65.416 Y49.583 E80.8307
G1 X65.819 Y49.472 E80.84794
G1 X65.935 Y49.461 E80.85275
G1 X144.829 Y49.459 E84.10818
G1 X145.043 Y49.499 E84.11717
G1 X145.366 Y49.75 E84.13405
G1 X145.49 Y49.929 E84.14303
G1 X145.541 Y50.171 E84.15324
G1 X145.541 Y99.829 E86.20229
G1 X145.501 Y100.043 E86.21128
G1 X145.25 Y100.366 E86.22815
G1 X145.071 Y100.49 E86.23714
G1 X144.829 Y100.541 E86.24734
G1 X113.365 Y100.54 E87.54566
G1 X112.883 Y100.441 E87.56596
G1 X112.663 Y100.341 E87.57593
G1 X112.356 Y100.119 E87.59156
G1 X97.551 Y85.317 E88.45543
G1 X97.253 Y85.029 E88.47253
G1 X96.844 Y84.676 E88.49482
G1 X96.105 Y84.128 E88.53278
G1 X95.335 Y83.669 E88.56977
G1 X94.493 Y83.268 E88.60825
G1 X94.034 Y83.091 E88.62855
G1 X93.168 Y82.83 E88.66588
G1 X92.242 Y82.642 E88.70486
G1 X91.353 Y82.554 E88.74173
G1 X90.857 Y82.541 E88.7622
G1 X65.949 Y82.54 E89.78999
G1 X65.468 Y82.44 E89.81026
G1 X65.226 Y82.326 E89.8213
G1 X64.829 Y82.002 E89.84244
G1 X64.555 Y81.534 E89.86482
G1 X64.459 Y81.04 E89.88559
G1 X64.46 Y50.944 E91.12745
G1 X64.558 Y50.472 E91.14734
G1 X64.672 Y50.23 E91.15838
M204 S3000
G0 F4200 X64.993 Y50.464
M204 S400
G1 F1800 X65.28 Y50.116 E91.17699
G1 X65.67 Y49.907 E91.19525
G1 X65.935 Y49.858 E91.20637
G1 X144.829 Y49.856 E94.4618
G1 X144.97 Y49.914 E94.46809
G1 X145.086 Y50.03 E94.47486
G1 X145.144 Y50.171 E94.48115
G1 X145.144 Y99.829 E96.53021
G1 X145.086 Y99.97 E96.5365
G1 X144.97 Y100.086 E96.54327
G1 X144.829 Y100.144 E96.54956
G1 X113.344 Y100.142 E97.84874
G1 X112.885 Y100.012 E97.86842
G1 X112.636 Y99.839 E97.88093
G1 X97.824 Y85.029 E98.74523
G1 X97.524 Y84.739 E98.76245
G1 X97.111 Y84.382 E98.78497
G1 X96.331 Y83.801 E98.82511
G1 X95.53 Y83.323 E98.8636
G1 X94.651 Y82.904 E98.90378
G1 X94.154 Y82.712 E98.92576
G1 X93.281 Y82.449 E98.96338
G1 X92.75 Y82.325 E98.98588
G1 X91.839 Y82.192 E99.02387
G1 X90.868 Y82.144 E99.06399
G1 X65.928 Y82.142 E100.0931
G1 X65.46 Y82.005 E100.11322
G1 X65.116 Y81.722 E100.1316
G1 X64.907 Y81.333 E100.14982
G1 X64.856 Y81.04 E100.16209
G1 X64.858 Y50.923 E101.40482
G1 X64.993 Y50.464 E101.42456
M204 S3000
G1 F3000 E96.42456
G0 F4200 X65.951 Y120.872
M204 S400
G1 F3000 E101.48693
G1 F1800 X90.818 Y120.871 E102.51302
G1 X91.667 Y120.827 E102.5481
G1 X92.387 Y120.722 E102.57813
G1 X92.776 Y120.631 E102.59461
G1 X93.525 Y120.404 E102.62691
G1 X93.877 Y120.267 E102.64249
G1 X94.589 Y119.929 E102.67501
G1 X95.223 Y119.551 E102.70547
G1 X95.852 Y119.084 E102.7378
G1 X96.459 Y118.531 E102.77168
G1 X111.234 Y103.758 E103.63382
G1 X111.657 Y103.424 E103.65606
G1 X112.268 Y103.089 E103.68481
G1 X112.912 Y102.918 E103.71231
G1 X113.367 Y102.872 E103.73118
G1 X144.829 Y102.871 E105.0294
