;FLAVOR:Marlin
;TIME:1734
;Filament used: 1.35733m
;Layer height: 0.2
;MINX:86.077
;MINY:81.077
;MINZ:0.25
;MAXX:123.923
;MAXY:116.355
;MAXZ:15.85
;Generated with Cura_SteamEngine 4.9.0
M140 S60
M105
M190 S60
M104 S200
M105
M109 S200
M82 ;absolute extrusion mode
G21 ;metric values
G90 ;absolute positioning
M82 ;set extruder to absolute mode
M107 ;start with the fan off
G28 X0 Y0 ;move X/Y to min endstops
G28 Z0 ;move Z to min endstops
G1 Z15.0 F120 ;move the platform down 15mm
G92 E0 ;zero the extruded length
G1 F200 E3 ;extrude 3mm of feed stock
G92 E0 ;zero the extruded length again
G1 F120
G0 Y20 F120
M117 Printing...
G5
G92 E0
G92 E0
G1 F3000 E-5
;LAYER_COUNT:79
;LAYER:0
M106 S51
M204 S3000
M205 X10 Y10
G1 F600 Z0.325
G0 F4200 X87.065 Y86.949 Z0.325
M204 S400
;TYPE:SKIRT
G1 F600 Z0.25
G1 F3000 E0.06236
G1 F1800 X87.437 Y86.634 E0.08288
G1 X87.856 Y86.383 E0.10344
G1 X88.309 Y86.204 E0.12394
G1 X88.786 Y86.102 E0.14447
G1 X89.171 Y86.077 E0.16071
G1 X92.077 Y86.077 E0.28301
G1 X92.077 Y85.01 E0.32792
G1 X92.151 Y84.339 E0.35634
G1 X92.236 Y83.959 E0.37272
G1 X92.436 Y83.366 E0.39906
G1 X92.453 Y83.329 E0.40078
G1 X92.835 Y82.71 E0.43139
G1 X93.073 Y82.413 E0.44741
G1 X93.483 Y81.993 E0.47212
G1 X93.912 Y81.686 E0.49432
G1 X94.467 Y81.406 E0.52048
G1 X94.945 Y81.224 E0.54201
G1 X94.973 Y81.216 E0.54324
G1 X95.474 Y81.118 E0.56472
G1 X96.015 Y81.077 E0.58756
G1 X113.99 Y81.077 E1.3441
G1 X114.661 Y81.151 E1.37251
G1 X115.041 Y81.236 E1.3889
G1 X115.634 Y81.436 E1.41524
G1 X116.096 Y81.692 E1.43747
G1 X116.588 Y82.074 E1.46369
G1 X117.016 Y82.496 E1.48899
G1 X117.045 Y82.531 E1.4909
G1 X117.427 Y83.122 E1.52052
G1 X117.752 Y83.866 E1.55469
G1 X117.762 Y83.898 E1.5561
G1 X117.88 Y84.46 E1.58027
G1 X117.923 Y85.013 E1.60361
G1 X117.923 Y86.077 E1.6484
G1 X120.829 Y86.077 E1.77071
G1 X121.315 Y86.117 E1.79123
G1 X121.788 Y86.236 E1.81176
G1 X122.235 Y86.43 E1.83227
G1 X122.645 Y86.695 E1.85281
G1 X123.051 Y87.065 E1.87593
G1 X123.366 Y87.437 E1.89645
G1 X123.617 Y87.856 E1.91701
G1 X123.796 Y88.309 E1.93751
G1 X123.898 Y88.786 E1.95804
G1 X123.923 Y89.171 E1.97428
G1 X123.923 Y91.829 E2.08615
G1 X123.883 Y92.315 E2.10667
G1 X123.764 Y92.788 E2.1272
G1 X123.57 Y93.235 E2.14771
G1 X123.305 Y93.645 E2.16826
G1 X122.935 Y94.051 E2.19138
G1 X122.563 Y94.366 E2.21189
G1 X122.144 Y94.617 E2.23245
G1 X121.691 Y94.796 E2.25295
G1 X121.214 Y94.898 E2.27348
G1 X120.829 Y94.923 E2.28972
G1 X112.696 Y94.923 E2.63203
G1 X112.21 Y94.883 E2.65255
G1 X111.737 Y94.764 E2.67308
G1 X111.29 Y94.57 E2.69359
G1 X110.88 Y94.305 E2.71413
G1 X110.474 Y93.935 E2.73725
G1 X110.159 Y93.563 E2.75777
G1 X109.908 Y93.144 E2.77833
G1 X109.729 Y92.691 E2.79883
G1 X109.627 Y92.214 E2.81936
G1 X109.602 Y91.829 E2.8356
G1 X109.602 Y89.398 E2.93791
G1 X100.398 Y89.398 E3.3253
G1 X100.398 Y91.829 E3.42761
G1 X100.358 Y92.315 E3.44814
G1 X100.239 Y92.788 E3.46867
G1 X100.045 Y93.235 E3.48918
G1 X99.78 Y93.645 E3.50972
G1 X99.41 Y94.051 E3.53284
G1 X99.038 Y94.366 E3.55336
G1 X98.619 Y94.617 E3.57392
G1 X98.166 Y94.796 E3.59442
G1 X97.689 Y94.898 E3.61495
G1 X97.304 Y94.923 E3.63118
G1 X89.171 Y94.923 E3.97349
G1 X88.685 Y94.883 E3.99402
G1 X88.212 Y94.764 E4.01454
G1 X87.765 Y94.57 E4.03505
G1 X87.355 Y94.305 E4.0556
G1 X86.949 Y93.935 E4.07872
G1 X86.634 Y93.563 E4.09924
G1 X86.383 Y93.144 E4.11979
G1 X86.204 Y92.691 E4.14029
G1 X86.102 Y92.214 E4.16082
G1 X86.077 Y91.829 E4.17706
G1 X86.077 Y89.171 E4.28893
G1 X86.117 Y88.685 E4.30946
G1 X86.236 Y88.212 E4.32999
G1 X86.43 Y87.765 E4.3505
G1 X86.695 Y87.355 E4.37104
G1 X87.065 Y86.949 E4.39416
M204 S3000
G0 F4200 X87.23 Y87.346
M204 S400
G1 F1800 X87.694 Y86.938 E4.42017
G1 X88.088 Y86.712 E4.43928
G1 X88.515 Y86.559 E4.45838
G1 X89.171 Y86.474 E4.48622
G1 X92.474 Y86.474 E4.62523
G1 X92.474 Y85.01 E4.68685
G1 X92.538 Y84.426 E4.71158
G1 X92.623 Y84.046 E4.72797
G1 X92.797 Y83.531 E4.75085
G1 X92.814 Y83.494 E4.75256
G1 X93.145 Y82.958 E4.77908
G1 X93.383 Y82.661 E4.79509
G1 X93.738 Y82.297 E4.81649
G1 X93.769 Y82.271 E4.8182
G1 X94.304 Y81.925 E4.84501
G1 X95.054 Y81.605 E4.87933
G1 X95.74 Y81.489 E4.90862
G1 X96.015 Y81.474 E4.92021
G1 X113.99 Y81.474 E5.67675
G1 X114.574 Y81.538 E5.70148
G1 X114.954 Y81.623 E5.71787
G1 X115.469 Y81.797 E5.74075
G1 X115.506 Y81.814 E5.74246
G1 X116.044 Y82.147 E5.76909
G1 X116.339 Y82.384 E5.78502
G1 X116.71 Y82.749 E5.80692
G1 X116.739 Y82.784 E5.80883
G1 X117.07 Y83.297 E5.83453
G1 X117.374 Y83.984 E5.86615
G1 X117.485 Y84.503 E5.88849
G1 X117.526 Y85.013 E5.91002
G1 X117.526 Y86.474 E5.97151
G1 X120.829 Y86.474 E6.11053
G1 X121.281 Y86.514 E6.12963
G1 X121.719 Y86.632 E6.14872
G1 X122.13 Y86.826 E6.16785
G1 X122.654 Y87.23 E6.1957
G1 X123.062 Y87.694 E6.22171
G1 X123.288 Y88.088 E6.24082
G1 X123.441 Y88.515 E6.25991
G1 X123.526 Y89.171 E6.28775
G1 X123.526 Y91.829 E6.39963
G1 X123.486 Y92.281 E6.41872
G1 X123.368 Y92.719 E6.43782
G1 X123.174 Y93.13 E6.45694
G1 X122.77 Y93.654 E6.48479
G1 X122.306 Y94.062 E6.5108
G1 X121.912 Y94.288 E6.52992
G1 X121.485 Y94.441 E6.54901
G1 X120.829 Y94.526 E6.57685
G1 X112.696 Y94.526 E6.91915
G1 X112.244 Y94.486 E6.93825
G1 X111.806 Y94.368 E6.95734
G1 X111.395 Y94.174 E6.97647
G1 X110.871 Y93.77 E7.00432
G1 X110.463 Y93.306 E7.03033
G1 X110.237 Y92.912 E7.04944
G1 X110.084 Y92.485 E7.06853
G1 X109.999 Y91.829 E7.09638
G1 X109.999 Y89.001 E7.2154
G1 X100.001 Y89.001 E7.6362
G1 X100.001 Y91.829 E7.75523
G1 X99.961 Y92.281 E7.77433
G1 X99.843 Y92.719 E7.79342
G1 X99.649 Y93.13 E7.81255
G1 X99.245 Y93.654 E7.8404
G1 X98.781 Y94.062 E7.8664
G1 X98.387 Y94.288 E7.88552
G1 X97.96 Y94.441 E7.90461
G1 X97.304 Y94.526 E7.93245
G1 X89.171 Y94.526 E8.27476
G1 X88.719 Y94.486 E8.29386
G1 X88.281 Y94.368 E8.31295
G1 X87.87 Y94.174 E8.33208
G1 X87.346 Y93.77 E8.35993
G1 X86.938 Y93.306 E8.38593
G1 X86.712 Y92.912 E8.40505
G1 X86.559 Y92.485 E8.42414
G1 X86.474 Y91.829 E8.45198
G1 X86.474 Y89.171 E8.56385
G1 X86.514 Y88.719 E8.58295
G1 X86.632 Y88.281 E8.60204
G1 X86.826 Y87.87 E8.62117
G1 X87.23 Y87.346 E8.64902
M204 S3000
G0 F4200 X87.627 Y87.511
M204 S400
G1 F1800 X87.949 Y87.245 E8.6666
G1 X88.316 Y87.046 E8.68417
G1 X88.714 Y86.919 E8.70175
G1 X89.171 Y86.871 E8.72109
G1 X92.871 Y86.871 E8.87682
G1 X92.871 Y85.01 E8.95515
G1 X92.926 Y84.512 E8.97624
G1 X93.157 Y83.697 E9.01189
G1 X93.174 Y83.66 E9.0136
G1 X93.455 Y83.206 E9.03608
G1 X93.994 Y82.602 E9.07015
G1 X94.025 Y82.576 E9.07185
G1 X94.477 Y82.283 E9.09452
G1 X95.163 Y81.987 E9.12597
G1 X95.782 Y81.883 E9.15239
G1 X96.015 Y81.871 E9.16221
G1 X113.99 Y81.871 E9.91875
G1 X114.488 Y81.926 E9.93984
G1 X115.303 Y82.157 E9.97549
G1 X115.34 Y82.174 E9.9772
G1 X115.796 Y82.456 E9.99977
G1 X116.405 Y83.003 E10.03422
G1 X116.434 Y83.038 E10.03614
G1 X116.714 Y83.471 E10.05784
G1 X116.995 Y84.103 E10.08695
G1 X117.116 Y84.774 E10.11565
G1 X117.129 Y85.013 E10.12572
G1 X117.129 Y86.871 E10.20392
G1 X120.829 Y86.871 E10.35965
G1 X121.245 Y86.911 E10.37724
G1 X121.645 Y87.029 E10.39479
G1 X122.016 Y87.221 E10.41237
G1 X122.489 Y87.627 E10.43861
G1 X122.755 Y87.949 E10.45619
G1 X122.954 Y88.316 E10.47376
G1 X123.081 Y88.714 E10.49134
G1 X123.129 Y89.171 E10.51068
G1 X123.129 Y91.829 E10.62255
G1 X123.089 Y92.245 E10.64014
G1 X122.971 Y92.645 E10.6577
G1 X122.779 Y93.016 E10.67528
G1 X122.373 Y93.489 E10.70151
G1 X122.051 Y93.755 E10.71909
G1 X121.684 Y93.954 E10.73666
G1 X121.286 Y94.081 E10.75425
G1 X120.829 Y94.129 E10.77359
G1 X112.696 Y94.129 E11.11589
G1 X112.28 Y94.089 E11.13348
G1 X111.88 Y93.971 E11.15104
G1 X111.509 Y93.779 E11.16862
G1 X111.036 Y93.373 E11.19485
G1 X110.77 Y93.051 E11.21243
G1 X110.571 Y92.684 E11.23
G1 X110.444 Y92.286 E11.24759
G1 X110.396 Y91.829 E11.26693
G1 X110.396 Y88.604 E11.40266
G1 X99.604 Y88.604 E11.85688
G1 X99.604 Y91.829 E11.99262
G1 X99.564 Y92.245 E12.01021
G1 X99.446 Y92.645 E12.02776
G1 X99.254 Y93.016 E12.04534
G1 X98.848 Y93.489 E12.07158
G1 X98.526 Y93.755 E12.08916
G1 X98.159 Y93.954 E12.10673
G1 X97.761 Y94.081 E12.12431
G1 X97.304 Y94.129 E12.14365
G1 X89.171 Y94.129 E12.48596
G1 X88.755 Y94.089 E12.50355
G1 X88.355 Y93.971 E12.5211
G1 X87.984 Y93.779 E12.53869
G1 X87.511 Y93.373 E12.56492
G1 X87.245 Y93.051 E12.5825
G1 X87.046 Y92.684 E12.60007
G1 X86.919 Y92.286 E12.61765
G1 X86.871 Y91.829 E12.637
G1 X86.871 Y89.171 E12.74887
G1 X86.911 Y88.755 E12.76646
G1 X87.029 Y88.355 E12.78401
G1 X87.221 Y87.984 E12.80159
G1 X87.627 Y87.511 E12.82783
M204 S3000
G0 F4200 X87.907 Y87.791
M204 S400
G1 F1800 X88.201 Y87.554 E12.84372
G1 X88.538 Y87.384 E12.85961
G1 X88.903 Y87.288 E12.87549
G1 X89.171 Y87.268 E12.8868
G1 X93.268 Y87.268 E13.05924
G1 X93.268 Y85.01 E13.15428
G1 X93.313 Y84.599 E13.17168
G1 X93.518 Y83.863 E13.20383
G1 X93.765 Y83.455 E13.22391
G1 X94.249 Y82.906 E13.25471
G1 X94.65 Y82.64 E13.27497
G1 X95.272 Y82.369 E13.30352
G1 X95.825 Y82.278 E13.32711
G1 X96.015 Y82.268 E13.33512
G1 X113.99 Y82.268 E14.09166
G1 X114.401 Y82.313 E14.10906
G1 X115.137 Y82.518 E14.14122
G1 X115.547 Y82.766 E14.16139
G1 X116.099 Y83.256 E14.19245
G1 X116.357 Y83.646 E14.21213
G1 X116.616 Y84.221 E14.23868
G1 X116.721 Y84.817 E14.26415
G1 X116.732 Y85.013 E14.27241
G1 X116.732 Y87.268 E14.36732
G1 X120.829 Y87.268 E14.53976
G1 X121.204 Y87.308 E14.55563
G1 X121.563 Y87.426 E14.57153
G1 X121.889 Y87.616 E14.58742
G1 X122.209 Y87.907 E14.60562
G1 X122.446 Y88.201 E14.62151
G1 X122.616 Y88.538 E14.6374
G1 X122.712 Y88.903 E14.65329
G1 X122.732 Y89.171 E14.6646
G1 X122.732 Y91.829 E14.77647
G1 X122.692 Y92.204 E14.79234
G1 X122.574 Y92.563 E14.80825
G1 X122.384 Y92.889 E14.82413
G1 X122.093 Y93.209 E14.84233
G1 X121.799 Y93.446 E14.85823
G1 X121.462 Y93.616 E14.87411
G1 X121.097 Y93.712 E14.89
G1 X120.829 Y93.732 E14.90131
G1 X112.696 Y93.732 E15.24361
G1 X112.321 Y93.692 E15.25949
G1 X111.962 Y93.574 E15.27539
G1 X111.636 Y93.384 E15.29127
G1 X111.316 Y93.093 E15.30948
G1 X111.079 Y92.799 E15.32537
G1 X110.909 Y92.462 E15.34126
G1 X110.813 Y92.097 E15.35714
G1 X110.793 Y91.829 E15.36845
G1 X110.793 Y88.207 E15.5209
G1 X99.207 Y88.207 E16.00854
G1 X99.207 Y91.829 E16.16098
G1 X99.167 Y92.204 E16.17686
G1 X99.049 Y92.563 E16.19276
G1 X98.859 Y92.889 E16.20864
G1 X98.568 Y93.209 E16.22685
G1 X98.274 Y93.446 E16.24274
G1 X97.937 Y93.616 E16.25863
G1 X97.572 Y93.712 E16.27451
G1 X97.304 Y93.732 E16.28582
G1 X89.171 Y93.732 E16.62813
G1 X88.796 Y93.692 E16.644
G1 X88.437 Y93.574 E16.65991
G1 X88.111 Y93.384 E16.67579
G1 X87.791 Y93.093 E16.69399
G1 X87.554 Y92.799 E16.70989
G1 X87.384 Y92.462 E16.72577
G1 X87.288 Y92.097 E16.74166
G1 X87.268 Y91.829 E16.75297
G1 X87.268 Y89.171 E16.86484
G1 X87.308 Y88.796 E16.88071
G1 X87.426 Y88.437 E16.89662
G1 X87.616 Y88.111 E16.9125
G1 X87.907 Y87.791 E16.93071
M204 S3000
G0 F4200 X88.188 Y88.072
M204 S400
G1 F1800 X88.45 Y87.867 E16.94471
G1 X88.753 Y87.729 E16.95872
G1 X89.171 Y87.665 E16.97652
G1 X93.665 Y87.665 E17.16566
G1 X93.665 Y85.01 E17.27741
G1 X93.786 Y84.306 E17.30747
G1 X93.896 Y83.992 E17.32148
G1 X94.312 Y83.406 E17.35172
G1 X94.535 Y83.184 E17.36497
G1 X95.158 Y82.836 E17.395
G1 X95.643 Y82.697 E17.41624
G1 X96.015 Y82.665 E17.43195
G1 X113.99 Y82.665 E18.1885
G1 X114.694 Y82.786 E18.21856
G1 X115.008 Y82.896 E18.23256
G1 X115.594 Y83.312 E18.26281
G1 X115.822 Y83.544 E18.2765
G1 X116.159 Y84.143 E18.30543
G1 X116.302 Y84.634 E18.32695
G1 X116.335 Y85.013 E18.34296
G1 X116.335 Y87.665 E18.45458
G1 X120.829 Y87.665 E18.64373
G1 X121.159 Y87.705 E18.65772
G1 X121.471 Y87.822 E18.67175
G1 X121.928 Y88.188 E18.69639
G1 X122.133 Y88.45 E18.71039
G1 X122.271 Y88.753 E18.7244
G1 X122.335 Y89.171 E18.7422
G1 X122.335 Y91.829 E18.85407
G1 X122.295 Y92.159 E18.86806
G1 X122.178 Y92.471 E18.88209
G1 X121.812 Y92.928 E18.90673
G1 X121.55 Y93.133 E18.92073
G1 X121.247 Y93.271 E18.93475
G1 X120.829 Y93.335 E18.95254
G1 X112.696 Y93.335 E19.29485
G1 X112.366 Y93.295 E19.30884
G1 X112.054 Y93.178 E19.32287
G1 X111.597 Y92.812 E19.34751
G1 X111.392 Y92.55 E19.36151
G1 X111.254 Y92.247 E19.37552
G1 X111.19 Y91.829 E19.39332
G1 X111.19 Y88.08 E19.55111
G1 X111.17 Y87.949 E19.55669
G1 X111.073 Y87.837 E19.56293
G1 X110.921 Y87.81 E19.56942
G1 X99.082 Y87.81 E20.06771
G1 X98.886 Y87.861 E20.07623
G1 X98.822 Y87.967 E20.08145
G1 X98.81 Y88.073 E20.08594
G1 X98.81 Y91.829 E20.24402
G1 X98.77 Y92.159 E20.25801
G1 X98.653 Y92.471 E20.27204
G1 X98.287 Y92.928 E20.29668
G1 X98.025 Y93.133 E20.31068
G1 X97.722 Y93.271 E20.32469
G1 X97.304 Y93.335 E20.34249
G1 X89.171 Y93.335 E20.6848
G1 X88.841 Y93.295 E20.69879
G1 X88.529 Y93.178 E20.71281
G1 X88.072 Y92.812 E20.73746
G1 X87.867 Y92.55 E20.75146
G1 X87.729 Y92.247 E20.76547
G1 X87.665 Y91.829 E20.78327
G1 X87.665 Y89.171 E20.89514
G1 X87.705 Y88.841 E20.90913
G1 X87.822 Y88.529 E20.92316
G1 X88.188 Y88.072 E20.9478
M204 S3000
G0 F4200 X88.469 Y88.353
M204 S400
G1 F1800 X88.694 Y88.184 E20.95964
G1 X88.957 Y88.085 E20.97147
G1 X89.171 Y88.062 E20.98053
G1 X93.938 Y88.062 E21.18117
G1 X94.049 Y88.023 E21.18612
G1 X94.062 Y87.95 E21.18924
G1 X94.062 Y85.01 E21.31298
G1 X94.173 Y84.392 E21.33941
G1 X94.257 Y84.157 E21.34991
G1 X94.622 Y83.654 E21.37607
G1 X94.79 Y83.488 E21.38601
G1 X95.331 Y83.193 E21.41194
G1 X95.685 Y83.092 E21.42744
G1 X96.015 Y83.062 E21.44138
G1 X113.99 Y83.062 E22.19793
G1 X114.608 Y83.173 E22.22435
G1 X114.843 Y83.257 E22.23486
G1 X115.345 Y83.622 E22.26098
G1 X115.517 Y83.797 E22.27131
G1 X115.802 Y84.318 E22.2963
G1 X115.907 Y84.677 E22.31204
G1 X115.938 Y85.013 E22.32625
G1 X115.938 Y87.943 E22.44957
G1 X115.973 Y88.047 E22.45418
G1 X116.062 Y88.062 E22.45798
G1 X120.829 Y88.062 E22.65862
G1 X121.107 Y88.102 E22.67044
G1 X121.363 Y88.218 E22.68227
G1 X121.647 Y88.469 E22.69822
G1 X121.816 Y88.694 E22.71007
G1 X121.915 Y88.957 E22.72189
G1 X121.938 Y89.171 E22.73095
G1 X121.938 Y91.829 E22.84282
G1 X121.898 Y92.107 E22.85465
G1 X121.782 Y92.363 E22.86647
G1 X121.531 Y92.647 E22.88243
G1 X121.306 Y92.816 E22.89427
G1 X121.043 Y92.915 E22.9061
G1 X120.829 Y92.938 E22.91516
G1 X112.696 Y92.938 E23.25746
G1 X112.418 Y92.898 E23.26929
G1 X112.162 Y92.782 E23.28111
G1 X111.878 Y92.531 E23.29707
G1 X111.709 Y92.306 E23.30891
G1 X111.61 Y92.043 E23.32074
G1 X111.587 Y91.829 E23.3298
G1 X111.587 Y88.053 E23.48872
G1 X111.526 Y87.765 E23.50111
G1 X111.355 Y87.545 E23.51284
G1 X111.116 Y87.432 E23.52397
G1 X110.949 Y87.413 E23.53104
G1 X99.061 Y87.413 E24.03139
G1 X98.742 Y87.482 E24.04513
G1 X98.545 Y87.642 E24.05581
G1 X98.432 Y87.88 E24.0669
G1 X98.413 Y88.051 E24.07414
G1 X98.413 Y91.829 E24.23315
G1 X98.373 Y92.107 E24.24497
G1 X98.257 Y92.363 E24.2568
G1 X98.006 Y92.647 E24.27275
G1 X97.781 Y92.816 E24.2846
G1 X97.518 Y92.915 E24.29643
G1 X97.304 Y92.938 E24.30548
G1 X89.171 Y92.938 E24.64779
G1 X88.893 Y92.898 E24.65961
G1 X88.637 Y92.782 E24.67144
G1 X88.353 Y92.531 E24.68739
G1 X88.184 Y92.306 E24.69924
G1 X88.085 Y92.043 E24.71107
G1 X88.062 Y91.829 E24.72012
G1 X88.062 Y89.171 E24.832
G1 X88.102 Y88.893 E24.84382
G1 X88.218 Y88.637 E24.85565
G1 X88.469 Y88.353 E24.8716
M204 S3000
G0 F4200 X88.75 Y88.634
M204 S400
G1 F1800 X88.929 Y88.51 E24.88076
G1 X89.171 Y88.459 E24.89117
G1 X93.966 Y88.459 E25.09299
G1 X94.201 Y88.406 E25.10313
G1 X94.355 Y88.284 E25.1114
G1 X94.446 Y88.091 E25.12038
G1 X94.459 Y87.975 E25.12529
G1 X94.459 Y85.01 E25.25008
G1 X94.56 Y84.479 E25.27283
G1 X94.694 Y84.199 E25.2859
G1 X95.045 Y83.792 E25.30852
G1 X95.504 Y83.55 E25.33036
G1 X95.952 Y83.462 E25.34957
G1 X96.015 Y83.459 E25.35223
G1 X113.99 Y83.459 E26.10877
G1 X114.521 Y83.56 E26.13152
G1 X114.801 Y83.694 E26.14459
G1 X115.211 Y84.051 E26.16747
G1 X115.479 Y84.576 E26.19228
G1 X115.541 Y85.013 E26.21085
G1 X115.541 Y87.97 E26.33531
G1 X115.592 Y88.199 E26.34518
G1 X115.722 Y88.359 E26.35386
G1 X115.91 Y88.445 E26.36256
G1 X116.036 Y88.459 E26.3679
G1 X120.829 Y88.459 E26.56963
G1 X121.043 Y88.499 E26.57879
G1 X121.366 Y88.75 E26.59601
G1 X121.49 Y88.929 E26.60517
G1 X121.541 Y89.171 E26.61558
G1 X121.541 Y91.829 E26.72745
G1 X121.501 Y92.043 E26.73662
G1 X121.25 Y92.366 E26.75383
G1 X121.071 Y92.49 E26.763
G1 X120.829 Y92.541 E26.77341
G1 X112.696 Y92.541 E27.11571
