;FLAVOR:Marlin
;TIME:776
;Filament used: 0.609279m
;Layer height: 0.2
;MINX:86.077
;MINY:90.077
;MINZ:0.25
;MAXX:123.923
;MAXY:103.923
;MAXZ:15.85
;Generated with Cura_SteamEngine 4.9.0
M140 S60
M105
M190 S60
M104 S200
M105
M109 S200
M82 ;absolute extrusion mode
G21 ;metric values
G90 ;absolute positioning
M82 ;set extruder to absolute mode
M107 ;start with the fan off
G28 X0 Y0 ;move X/Y to min endstops
G28 Z0 ;move Z to min endstops
G1 Z15.0 F120 ;move the platform down 15mm
G92 E0 ;zero the extruded length
G1 F200 E3 ;extrude 3mm of feed stock
G92 E0 ;zero the extruded length again
G1 F120
G0 Y20 F120
M117 Printing...
G5
G92 E0
G92 E0
G1 F3000 E-5
;LAYER_COUNT:79
;LAYER:0
M106 S51
M204 S3000
M205 X10 Y10
G1 F600 Z0.325
G0 F4200 X87.065 Y95.949 Z0.325
M204 S400
;TYPE:SKIRT
G1 F600 Z0.25
G1 F3000 E0.06236
G1 F1800 X87.437 Y95.634 E0.08248
G1 X87.856 Y95.383 E0.10263
G1 X88.309 Y95.204 E0.12273
G1 X88.786 Y95.102 E0.14286
G1 X89.171 Y95.077 E0.15878
G1 X92.077 Y95.077 E0.27869
G1 X92.077 Y94.01 E0.32272
G1 X92.151 Y93.339 E0.35057
G1 X92.236 Y92.959 E0.36664
G1 X92.436 Y92.366 E0.39246
G1 X92.453 Y92.329 E0.39414
G1 X92.835 Y91.71 E0.42416
G1 X93.073 Y91.413 E0.43986
G1 X93.483 Y90.993 E0.46408
G1 X93.912 Y90.686 E0.48585
G1 X94.467 Y90.406 E0.5115
G1 X94.945 Y90.224 E0.5326
G1 X94.973 Y90.216 E0.53381
G1 X95.474 Y90.118 E0.55487
G1 X96.015 Y90.077 E0.57726
G1 X113.99 Y90.077 E1.31897
G1 X114.661 Y90.151 E1.34682
G1 X115.041 Y90.236 E1.36289
G1 X115.634 Y90.436 E1.38871
G1 X116.096 Y90.692 E1.41051
G1 X116.588 Y91.074 E1.43621
G1 X117.016 Y91.496 E1.46101
G1 X117.045 Y91.531 E1.46289
G1 X117.427 Y92.122 E1.49193
G1 X117.752 Y92.866 E1.52543
G1 X117.762 Y92.898 E1.52681
G1 X117.88 Y93.46 E1.55051
G1 X117.923 Y94.013 E1.57339
G1 X117.923 Y95.077 E1.6173
G1 X120.829 Y95.077 E1.73721
G1 X121.315 Y95.117 E1.75733
G1 X121.788 Y95.236 E1.77746
G1 X122.235 Y95.43 E1.79756
G1 X122.645 Y95.695 E1.81771
G1 X123.051 Y96.065 E1.84037
G1 X123.366 Y96.437 E1.86049
G1 X123.617 Y96.856 E1.88064
G1 X123.796 Y97.309 E1.90074
G1 X123.898 Y97.786 E1.92087
G1 X123.923 Y98.171 E1.93679
G1 X123.923 Y100.829 E2.04647
G1 X123.883 Y101.315 E2.06659
G1 X123.764 Y101.788 E2.08671
G1 X123.57 Y102.235 E2.10682
G1 X123.305 Y102.645 E2.12696
G1 X122.935 Y103.051 E2.14963
G1 X122.563 Y103.366 E2.16974
G1 X122.144 Y103.617 E2.1899
G1 X121.691 Y103.796 E2.21
G1 X121.214 Y103.898 E2.23012
G1 X120.829 Y103.923 E2.24604
G1 X112.696 Y103.923 E2.58164
G1 X112.21 Y103.883 E2.60176
G1 X111.737 Y103.764 E2.62189
G1 X111.29 Y103.57 E2.64199
G1 X110.88 Y103.305 E2.66214
G1 X110.474 Y102.935 E2.6848
G1 X110.159 Y102.563 E2.70492
G1 X109.908 Y102.144 E2.72507
G1 X109.729 Y101.691 E2.74517
G1 X109.627 Y101.214 E2.7653
G1 X109.602 Y100.829 E2.78122
G1 X109.602 Y98.398 E2.88153
G1 X100.398 Y98.398 E3.26132
G1 X100.398 Y100.829 E3.36163
G1 X100.358 Y101.315 E3.38175
G1 X100.239 Y101.788 E3.40188
G1 X100.045 Y102.235 E3.42198
G1 X99.78 Y102.645 E3.44213
G1 X99.41 Y103.051 E3.46479
G1 X99.038 Y103.366 E3.48491
G1 X98.619 Y103.617 E3.50506
G1 X98.166 Y103.796 E3.52516
G1 X97.689 Y103.898 E3.54529
G1 X97.304 Y103.923 E3.56121
G1 X89.171 Y103.923 E3.8968
G1 X88.685 Y103.883 E3.91692
G1 X88.212 Y103.764 E3.93705
G1 X87.765 Y103.57 E3.95716
G1 X87.355 Y103.305 E3.9773
G1 X86.949 Y102.935 E3.99997
G1 X86.634 Y102.563 E4.02008
G1 X86.383 Y102.144 E4.04024
G1 X86.204 Y101.691 E4.06033
G1 X86.102 Y101.214 E4.08046
G1 X86.077 Y100.829 E4.09638
G1 X86.077 Y98.171 E4.20606
G1 X86.117 Y97.685 E4.22618
G1 X86.236 Y97.212 E4.24631
G1 X86.43 Y96.765 E4.26641
G1 X86.695 Y96.355 E4.28656
G1 X87.065 Y95.949 E4.30922
M204 S3000
G0 F4200 X87.23 Y96.346
M204 S400
G1 F1800 X87.694 Y95.938 E4.33472
G1 X88.088 Y95.712 E4.35346
G1 X88.515 Y95.559 E4.37218
G1 X89.171 Y95.474 E4.39947
G1 X92.474 Y95.474 E4.53577
G1 X92.474 Y94.01 E4.59618
G1 X92.538 Y93.426 E4.62042
G1 X92.623 Y93.046 E4.63649
G1 X92.797 Y92.531 E4.65892
G1 X92.814 Y92.494 E4.6606
G1 X93.145 Y91.958 E4.68659
G1 X93.383 Y91.661 E4.7023
G1 X93.738 Y91.297 E4.72328
G1 X93.769 Y91.271 E4.72495
G1 X94.304 Y90.925 E4.75124
G1 X95.054 Y90.605 E4.78488
G1 X95.74 Y90.489 E4.81359
G1 X96.015 Y90.474 E4.82496
G1 X113.99 Y90.474 E5.56666
G1 X114.574 Y90.538 E5.59091
G1 X114.954 Y90.623 E5.60697
G1 X115.469 Y90.797 E5.6294
G1 X115.506 Y90.814 E5.63109
G1 X116.044 Y91.147 E5.65719
G1 X116.339 Y91.384 E5.67281
G1 X116.71 Y91.749 E5.69428
G1 X116.739 Y91.784 E5.69616
G1 X117.07 Y92.297 E5.72135
G1 X117.374 Y92.984 E5.75235
G1 X117.485 Y93.503 E5.77425
G1 X117.526 Y94.013 E5.79536
G1 X117.526 Y95.474 E5.85565
G1 X120.829 Y95.474 E5.99194
G1 X121.281 Y95.514 E6.01066
G1 X121.719 Y95.632 E6.02938
G1 X122.13 Y95.826 E6.04814
G1 X122.654 Y96.23 E6.07544
G1 X123.062 Y96.694 E6.10093
G1 X123.288 Y97.088 E6.11968
G1 X123.441 Y97.515 E6.13839
G1 X123.526 Y98.171 E6.16569
G1 X123.526 Y100.829 E6.27537
G1 X123.486 Y101.281 E6.29409
G1 X123.368 Y101.719 E6.31281
G1 X123.174 Y102.13 E6.33156
G1 X122.77 Y102.654 E6.35886
G1 X122.306 Y103.062 E6.38436
G1 X121.912 Y103.288 E6.4031
G1 X121.485 Y103.441 E6.42182
G1 X120.829 Y103.526 E6.44911
G1 X112.696 Y103.526 E6.78471
G1 X112.244 Y103.486 E6.80343
G1 X111.806 Y103.368 E6.82215
G1 X111.395 Y103.174 E6.8409
G1 X110.871 Y102.77 E6.8682
G1 X110.463 Y102.306 E6.8937
G1 X110.237 Y101.912 E6.91244
G1 X110.084 Y101.485 E6.93116
G1 X109.999 Y100.829 E6.95845
G1 X109.999 Y98.001 E7.07515
G1 X100.001 Y98.001 E7.4877
G1 X100.001 Y100.829 E7.60439
G1 X99.961 Y101.281 E7.62311
G1 X99.843 Y101.719 E7.64183
G1 X99.649 Y102.13 E7.66059
G1 X99.245 Y102.654 E7.68789
G1 X98.781 Y103.062 E7.71338
G1 X98.387 Y103.288 E7.73213
G1 X97.96 Y103.441 E7.75084
G1 X97.304 Y103.526 E7.77814
G1 X89.171 Y103.526 E8.11373
G1 X88.719 Y103.486 E8.13246
G1 X88.281 Y103.368 E8.15117
G1 X87.87 Y103.174 E8.16993
G1 X87.346 Y102.77 E8.19723
G1 X86.938 Y102.306 E8.22272
G1 X86.712 Y101.912 E8.24147
G1 X86.559 Y101.485 E8.26018
G1 X86.474 Y100.829 E8.28748
G1 X86.474 Y98.171 E8.39716
G1 X86.514 Y97.719 E8.41588
G1 X86.632 Y97.281 E8.4346
G1 X86.826 Y96.87 E8.45335
G1 X87.23 Y96.346 E8.48065
M204 S3000
G0 F4200 X87.627 Y96.511
M204 S400
G1 F1800 X87.949 Y96.245 E8.49789
G1 X88.316 Y96.046 E8.51511
G1 X88.714 Y95.919 E8.53235
G1 X89.171 Y95.871 E8.55131
G1 X92.871 Y95.871 E8.70399
G1 X92.871 Y94.01 E8.78078
G1 X92.926 Y93.512 E8.80145
G1 X93.157 Y92.697 E8.83641
G1 X93.174 Y92.66 E8.83809
G1 X93.455 Y92.206 E8.86012
G1 X93.994 Y91.602 E8.89352
G1 X94.025 Y91.576 E8.89519
G1 X94.477 Y91.283 E8.91742
G1 X95.163 Y90.987 E8.94825
G1 X95.782 Y90.883 E8.97415
G1 X96.015 Y90.871 E8.98378
G1 X113.99 Y90.871 E9.72549
G1 X114.488 Y90.926 E9.74616
G1 X115.303 Y91.157 E9.78111
G1 X115.34 Y91.174 E9.78279
G1 X115.796 Y91.456 E9.80492
G1 X116.405 Y92.003 E9.8387
G1 X116.434 Y92.038 E9.84057
G1 X116.714 Y92.471 E9.86185
G1 X116.995 Y93.103 E9.89039
G1 X117.116 Y93.774 E9.91852
G1 X117.129 Y94.013 E9.9284
G1 X117.129 Y95.871 E10.00507
G1 X120.829 Y95.871 E10.15774
G1 X121.245 Y95.911 E10.17499
G1 X121.645 Y96.029 E10.19219
G1 X122.016 Y96.221 E10.20943
G1 X122.489 Y96.627 E10.23515
G1 X122.755 Y96.949 E10.25239
G1 X122.954 Y97.316 E10.26961
G1 X123.081 Y97.714 E10.28685
G1 X123.129 Y98.171 E10.30581
G1 X123.129 Y100.829 E10.41549
G1 X123.089 Y101.245 E10.43274
G1 X122.971 Y101.645 E10.44994
G1 X122.779 Y102.016 E10.46718
G1 X122.373 Y102.489 E10.4929
G1 X122.051 Y102.755 E10.51014
G1 X121.684 Y102.954 E10.52736
G1 X121.286 Y103.081 E10.5446
G1 X120.829 Y103.129 E10.56356
G1 X112.696 Y103.129 E10.89916
G1 X112.28 Y103.089 E10.9164
G1 X111.88 Y102.971 E10.93361
G1 X111.509 Y102.779 E10.95085
G1 X111.036 Y102.373 E10.97657
G1 X110.77 Y102.051 E10.9938
G1 X110.571 Y101.684 E11.01103
G1 X110.444 Y101.286 E11.02827
G1 X110.396 Y100.829 E11.04723
G1 X110.396 Y97.604 E11.18031
G1 X99.604 Y97.604 E11.62562
G1 X99.604 Y100.829 E11.75869
G1 X99.564 Y101.245 E11.77594
G1 X99.446 Y101.645 E11.79315
G1 X99.254 Y102.016 E11.81038
G1 X98.848 Y102.489 E11.83611
G1 X98.526 Y102.755 E11.85334
G1 X98.159 Y102.954 E11.87057
G1 X97.761 Y103.081 E11.88781
G1 X97.304 Y103.129 E11.90677
G1 X89.171 Y103.129 E12.24236
G1 X88.755 Y103.089 E12.25961
G1 X88.355 Y102.971 E12.27681
G1 X87.984 Y102.779 E12.29405
G1 X87.511 Y102.373 E12.31977
G1 X87.245 Y102.051 E12.33701
G1 X87.046 Y101.684 E12.35423
G1 X86.919 Y101.286 E12.37147
G1 X86.871 Y100.829 E12.39043
G1 X86.871 Y98.171 E12.50011
G1 X86.911 Y97.755 E12.51736
G1 X87.029 Y97.355 E12.53457
G1 X87.221 Y96.984 E12.5518
G1 X87.627 Y96.511 E12.57752
M204 S3000
G0 F4200 X87.907 Y96.791
M204 S400
G1 F1800 X88.201 Y96.554 E12.59311
G1 X88.538 Y96.384 E12.60868
G1 X88.903 Y96.288 E12.62425
G1 X89.171 Y96.268 E12.63534
G1 X93.268 Y96.268 E12.8044
G1 X93.268 Y94.01 E12.89757
G1 X93.313 Y93.599 E12.91463
G1 X93.518 Y92.863 E12.94616
G1 X93.765 Y92.455 E12.96584
G1 X94.249 Y91.906 E12.99604
G1 X94.65 Y91.64 E13.0159
G1 X95.272 Y91.369 E13.04389
G1 X95.825 Y91.278 E13.06702
G1 X96.015 Y91.268 E13.07487
G1 X113.99 Y91.268 E13.81658
G1 X114.401 Y91.313 E13.83364
G1 X115.137 Y91.518 E13.86516
G1 X115.547 Y91.766 E13.88494
G1 X116.099 Y92.256 E13.91539
G1 X116.357 Y92.646 E13.93469
G1 X116.616 Y93.221 E13.96071
G1 X116.721 Y93.817 E13.98568
G1 X116.732 Y94.013 E13.99378
G1 X116.732 Y96.268 E14.08683
G1 X120.829 Y96.268 E14.25589
G1 X121.204 Y96.308 E14.27145
G1 X121.563 Y96.426 E14.28704
G1 X121.889 Y96.616 E14.30261
G1 X122.209 Y96.907 E14.32046
G1 X122.446 Y97.201 E14.33604
G1 X122.616 Y97.538 E14.35162
G1 X122.712 Y97.903 E14.36719
G1 X122.732 Y98.171 E14.37828
G1 X122.732 Y100.829 E14.48796
G1 X122.692 Y101.204 E14.50352
G1 X122.574 Y101.563 E14.51911
G1 X122.384 Y101.889 E14.53468
G1 X122.093 Y102.209 E14.55253
G1 X121.799 Y102.446 E14.56811
G1 X121.462 Y102.616 E14.58369
G1 X121.097 Y102.712 E14.59926
G1 X120.829 Y102.732 E14.61035
G1 X112.696 Y102.732 E14.94594
G1 X112.321 Y102.692 E14.9615
G1 X111.962 Y102.574 E14.9771
G1 X111.636 Y102.384 E14.99267
G1 X111.316 Y102.093 E15.01052
G1 X111.079 Y101.799 E15.0261
G1 X110.909 Y101.462 E15.04167
G1 X110.813 Y101.097 E15.05725
G1 X110.793 Y100.829 E15.06834
G1 X110.793 Y97.207 E15.21779
G1 X99.207 Y97.207 E15.69587
G1 X99.207 Y100.829 E15.84532
G1 X99.167 Y101.204 E15.86089
G1 X99.049 Y101.563 E15.87648
G1 X98.859 Y101.889 E15.89205
G1 X98.568 Y102.209 E15.9099
G1 X98.274 Y102.446 E15.92548
G1 X97.937 Y102.616 E15.94105
G1 X97.572 Y102.712 E15.95663
G1 X97.304 Y102.732 E15.96772
G1 X89.171 Y102.732 E16.30331
G1 X88.796 Y102.692 E16.31887
G1 X88.437 Y102.574 E16.33447
G1 X88.111 Y102.384 E16.35004
G1 X87.791 Y102.093 E16.36788
G1 X87.554 Y101.799 E16.38347
G1 X87.384 Y101.462 E16.39904
G1 X87.288 Y101.097 E16.41461
G1 X87.268 Y100.829 E16.4257
G1 X87.268 Y98.171 E16.53538
G1 X87.308 Y97.796 E16.55094
G1 X87.426 Y97.437 E16.56654
G1 X87.616 Y97.111 E16.58211
G1 X87.907 Y96.791 E16.59995
M204 S3000
G0 F4200 X88.188 Y97.072
M204 S400
G1 F1800 X88.45 Y96.867 E16.61368
G1 X88.753 Y96.729 E16.62742
G1 X89.171 Y96.665 E16.64487
G1 X93.665 Y96.665 E16.83031
G1 X93.665 Y94.01 E16.93986
G1 X93.786 Y93.306 E16.96934
G1 X93.896 Y92.992 E16.98306
G1 X94.312 Y92.406 E17.01272
G1 X94.535 Y92.184 E17.0257
G1 X95.158 Y91.836 E17.05515
G1 X95.643 Y91.697 E17.07597
G1 X96.015 Y91.665 E17.09137
G1 X113.99 Y91.665 E17.83308
G1 X114.694 Y91.786 E17.86256
G1 X115.008 Y91.896 E17.87629
G1 X115.594 Y92.312 E17.90594
G1 X115.822 Y92.544 E17.91936
G1 X116.159 Y93.143 E17.94772
G1 X116.302 Y93.634 E17.96882
G1 X116.335 Y94.013 E17.98452
G1 X116.335 Y96.665 E18.09395
G1 X120.829 Y96.665 E18.27939
G1 X121.159 Y96.705 E18.29311
G1 X121.471 Y96.822 E18.30686
G1 X121.928 Y97.188 E18.33102
G1 X122.133 Y97.45 E18.34474
G1 X122.271 Y97.753 E18.35848
G1 X122.335 Y98.171 E18.37593
G1 X122.335 Y100.829 E18.48561
G1 X122.295 Y101.159 E18.49932
G1 X122.178 Y101.471 E18.51307
G1 X121.812 Y101.928 E18.53723
G1 X121.55 Y102.133 E18.55096
G1 X121.247 Y102.271 E18.5647
G1 X120.829 Y102.335 E18.58215
G1 X112.696 Y102.335 E18.91774
G1 X112.366 Y102.295 E18.93146
G1 X112.054 Y102.178 E18.94521
G1 X111.597 Y101.812 E18.96937
G1 X111.392 Y101.55 E18.9831
G1 X111.254 Y101.247 E18.99683
G1 X111.19 Y100.829 E19.01428
G1 X111.19 Y97.08 E19.16898
G1 X111.17 Y96.949 E19.17445
G1 X111.073 Y96.837 E19.18056
G1 X110.921 Y96.81 E19.18693
G1 X99.082 Y96.81 E19.67545
G1 X98.886 Y96.861 E19.68381
G1 X98.822 Y96.967 E19.68891
G1 X98.81 Y97.073 E19.69332
G1 X98.81 Y100.829 E19.8483
G1 X98.77 Y101.159 E19.86202
G1 X98.653 Y101.471 E19.87577
G1 X98.287 Y101.928 E19.89993
G1 X98.025 Y102.133 E19.91365
G1 X97.722 Y102.271 E19.92739
G1 X97.304 Y102.335 E19.94484
G1 X89.171 Y102.335 E20.28044
G1 X88.841 Y102.295 E20.29415
G1 X88.529 Y102.178 E20.3079
G1 X88.072 Y101.812 E20.33206
G1 X87.867 Y101.55 E20.34579
G1 X87.729 Y101.247 E20.35953
G1 X87.665 Y100.829 E20.37698
G1 X87.665 Y98.171 E20.48666
G1 X87.705 Y97.841 E20.50037
G1 X87.822 Y97.529 E20.51412
G1 X88.188 Y97.072 E20.53828
M204 S3000
G0 F4200 X88.469 Y97.353
M204 S400
G1 F1800 X88.694 Y97.184 E20.54989
G1 X88.957 Y97.085 E20.56149
G1 X89.171 Y97.062 E20.57037
G1 X93.938 Y97.062 E20.76707
G1 X94.049 Y97.023 E20.77193
G1 X94.062 Y96.95 E20.77499
G1 X94.062 Y94.01 E20.8963
G1 X94.173 Y93.392 E20.92221
G1 X94.257 Y93.157 E20.93251
G1 X94.622 Y92.654 E20.95815
G1 X94.79 Y92.488 E20.9679
G1 X95.331 Y92.193 E20.99332
G1 X95.685 Y92.092 E21.00851
G1 X96.015 Y92.062 E21.02219
G1 X113.99 Y92.062 E21.7639
G1 X114.608 Y92.173 E21.7898
G1 X114.843 Y92.257 E21.8001
G1 X115.345 Y92.622 E21.82571
G1 X115.517 Y92.797 E21.83584
G1 X115.802 Y93.318 E21.86034
G1 X115.907 Y93.677 E21.87578
G1 X115.938 Y94.013 E21.8897
G1 X115.938 Y96.943 E22.0106
G1 X115.973 Y97.047 E22.01513
G1 X116.062 Y97.062 E22.01885
G1 X120.829 Y97.062 E22.21556
G1 X121.107 Y97.102 E22.22715
G1 X121.363 Y97.218 E22.23874
G1 X121.647 Y97.469 E22.25438
G1 X121.816 Y97.694 E22.26599
G1 X121.915 Y97.957 E22.27759
G1 X121.938 Y98.171 E22.28647
G1 X121.938 Y100.829 E22.39615
G1 X121.898 Y101.107 E22.40774
G1 X121.782 Y101.363 E22.41934
G1 X121.531 Y101.647 E22.43497
G1 X121.306 Y101.816 E22.44659
G1 X121.043 Y101.915 E22.45818
G1 X120.829 Y101.938 E22.46706
G1 X112.696 Y101.938 E22.80266
G1 X112.418 Y101.898 E22.81425
G1 X112.162 Y101.782 E22.82584
G1 X111.878 Y101.531 E22.84148
G1 X111.709 Y101.306 E22.8531
G1 X111.61 Y101.043 E22.86469
G1 X111.587 Y100.829 E22.87357
G1 X111.587 Y97.053 E23.02938
G1 X111.526 Y96.765 E23.04153
G1 X111.355 Y96.545 E23.05303
G1 X111.116 Y96.432 E23.06394
G1 X110.949 Y96.413 E23.07087
G1 X99.061 Y96.413 E23.56141
G1 X98.742 Y96.482 E23.57488
G1 X98.545 Y96.642 E23.58535
G1 X98.432 Y96.88 E23.59622
G1 X98.413 Y97.051 E23.60332
G1 X98.413 Y100.829 E23.75921
G1 X98.373 Y101.107 E23.7708
G1 X98.257 Y101.363 E23.7824
G1 X98.006 Y101.647 E23.79804
G1 X97.781 Y101.816 E23.80965
G1 X97.518 Y101.915 E23.82125
G1 X97.304 Y101.938 E23.83013
G1 X89.171 Y101.938 E24.16572
G1 X88.893 Y101.898 E24.17731
G1 X88.637 Y101.782 E24.18891
G1 X88.353 Y101.531 E24.20455
G1 X88.184 Y101.306 E24.21616
G1 X88.085 Y101.043 E24.22776
G1 X88.062 Y100.829 E24.23664
G1 X88.062 Y98.171 E24.34632
G1 X88.102 Y97.893 E24.35791
G1 X88.218 Y97.637 E24.3695
G1 X88.469 Y97.353 E24.38514
M204 S3000
G0 F4200 X88.75 Y97.634
M204 S400
G1 F1800 X88.929 Y97.51 E24.39413
G1 X89.171 Y97.459 E24.40433
G1 X93.966 Y97.459 E24.60219
G1 X94.201 Y97.406 E24.61213
G1 X94.355 Y97.284 E24.62024
G1 X94.446 Y97.091 E24.62904
G1 X94.459 Y96.975 E24.63386
G1 X94.459 Y94.01 E24.75621
G1 X94.56 Y93.479 E24.77851
G1 X94.694 Y93.199 E24.79132
G1 X95.045 Y92.792 E24.8135
G1 X95.504 Y92.55 E24.83491
G1 X95.952 Y92.462 E24.85375
G1 X96.015 Y92.459 E24.85635
G1 X113.99 Y92.459 E25.59806
G1 X114.521 Y92.56 E25.62036
G1 X114.801 Y92.694 E25.63317
G1 X115.211 Y93.051 E25.6556
G1 X115.479 Y93.576 E25.67992
G1 X115.541 Y94.013 E25.69814
G1 X115.541 Y96.97 E25.82015
G1 X115.592 Y97.199 E25.82983
G1 X115.722 Y97.359 E25.83834
G1 X115.91 Y97.445 E25.84687
G1 X116.036 Y97.459 E25.8521
G1 X120.829 Y97.459 E26.04988
G1 X121.043 Y97.499 E26.05886
G1 X121.366 Y97.75 E26.07574
G1 X121.49 Y97.929 E26.08472
