;FLAVOR:Marlin
;TIME:6016
;Filament used: 4.65149m
;Layer height: 0.2
;MINX:54.077
;MINY:52.077
;MINZ:0.25
;MAXX:132.915
;MAXY:162.923
;MAXZ:14.85
;Generated with Cura_SteamEngine 4.9.0
M140 S60
M105
M190 S60
M104 S200
M105
M109 S200
M82 ;absolute extrusion mode
G21 ;metric values
G90 ;absolute positioning
M82 ;set extruder to absolute mode
M107 ;start with the fan off
G28 X0 Y0 ;move X/Y to min endstops
G28 Z0 ;move Z to min endstops
G1 Z15.0 F120 ;move the platform down 15mm
G92 E0 ;zero the extruded length
G1 F200 E3 ;extrude 3mm of feed stock
G92 E0 ;zero the extruded length again
G1 F120
G0 Y20 F120
M117 Printing...
G5
G92 E0
G92 E0
G1 F3000 E-5
;LAYER_COUNT:74
;LAYER:0
M106 S51
M204 S3000
M205 X10 Y10
G1 F600 Z0.325
G0 F4200 X55.065 Y61.949 Z0.325
M204 S400
;TYPE:SKIRT
G1 F600 Z0.25
G1 F3000 E0.06236
G1 F1800 X55.437 Y61.634 E0.08248
G1 X55.856 Y61.383 E0.10263
G1 X56.309 Y61.204 E0.12273
G1 X56.786 Y61.102 E0.14286
G1 X57.171 Y61.077 E0.15878
G1 X72.829 Y61.077 E0.80488
G1 X73.315 Y61.117 E0.825
G1 X73.788 Y61.236 E0.84513
G1 X74.235 Y61.43 E0.86523
G1 X74.645 Y61.695 E0.88538
G1 X75.051 Y62.065 E0.90804
G1 X75.366 Y62.437 E0.92816
G1 X75.617 Y62.856 E0.94831
G1 X75.796 Y63.309 E0.96841
G1 X75.898 Y63.786 E0.98854
G1 X75.923 Y64.171 E1.00446
G1 X75.922 Y71.997 E1.32738
G1 X75.846 Y72.679 E1.3557
G1 X75.761 Y73.053 E1.37153
G1 X75.548 Y73.668 E1.39838
G1 X75.53 Y73.706 E1.40012
G1 X75.157 Y74.301 E1.42909
G1 X75.012 Y74.481 E1.43863
G1 X75.292 Y75.02 E1.46369
G1 X75.428 Y75.488 E1.48381
G1 X75.488 Y76.083 E1.50848
G1 X75.488 Y83.926 E1.83211
G1 X75.448 Y84.412 E1.85223
G1 X75.329 Y84.885 E1.87236
G1 X75.024 Y85.504 E1.90083
G1 X75.315 Y85.914 E1.92158
G1 X75.597 Y86.475 E1.94749
G1 X75.776 Y86.947 E1.96832
G1 X75.784 Y86.975 E1.96952
G1 X75.881 Y87.469 E1.99029
G1 X75.923 Y88.012 E2.01276
G1 X75.923 Y95.829 E2.33532
G1 X75.883 Y96.315 E2.35544
G1 X75.764 Y96.788 E2.37557
G1 X75.57 Y97.235 E2.39567
G1 X75.305 Y97.645 E2.41582
G1 X74.935 Y98.051 E2.43848
G1 X74.563 Y98.366 E2.4586
G1 X74.144 Y98.617 E2.47875
G1 X73.691 Y98.796 E2.49885
G1 X73.214 Y98.898 E2.51898
G1 X72.829 Y98.923 E2.5349
G1 X57.171 Y98.923 E3.181
G1 X56.685 Y98.883 E3.20112
G1 X56.212 Y98.764 E3.22125
G1 X55.765 Y98.57 E3.24136
G1 X55.355 Y98.305 E3.2615
G1 X54.949 Y97.935 E3.28417
G1 X54.634 Y97.563 E3.30428
G1 X54.383 Y97.144 E3.32443
G1 X54.204 Y96.691 E3.34453
G1 X54.102 Y96.214 E3.36466
G1 X54.077 Y95.829 E3.38058
G1 X54.077 Y88.01 E3.70322
G1 X54.151 Y87.339 E3.73107
G1 X54.236 Y86.959 E3.74714
G1 X54.436 Y86.366 E3.77296
G1 X54.453 Y86.329 E3.77464
G1 X54.836 Y85.709 E3.80472
G1 X54.988 Y85.52 E3.81472
G1 X54.707 Y84.979 E3.83988
G1 X54.571 Y84.51 E3.86003
G1 X54.511 Y83.917 E3.88462
G1 X54.511 Y76.075 E4.20821
G1 X54.551 Y75.589 E4.22833
G1 X54.67 Y75.116 E4.24846
G1 X54.977 Y74.494 E4.27708
G1 X54.937 Y74.448 E4.27959
G1 X54.565 Y73.863 E4.3082
G1 X54.404 Y73.529 E4.3235
G1 X54.216 Y73.028 E4.34558
G1 X54.118 Y72.526 E4.36669
G1 X54.077 Y71.984 E4.38911
G1 X54.077 Y64.171 E4.71151
G1 X54.117 Y63.685 E4.73163
G1 X54.236 Y63.212 E4.75175
G1 X54.43 Y62.765 E4.77186
G1 X54.695 Y62.355 E4.792
G1 X55.065 Y61.949 E4.81467
M204 S3000
G0 F4200 X55.23 Y62.346
M204 S400
G1 F1800 X55.694 Y61.938 E4.84017
G1 X56.088 Y61.712 E4.85891
G1 X56.515 Y61.559 E4.87762
G1 X57.171 Y61.474 E4.90492
G1 X72.829 Y61.474 E5.55102
G1 X73.281 Y61.514 E5.56974
G1 X73.719 Y61.632 E5.58846
G1 X74.13 Y61.826 E5.60722
G1 X74.654 Y62.23 E5.63452
G1 X75.062 Y62.694 E5.66001
G1 X75.288 Y63.088 E5.67876
G1 X75.441 Y63.515 E5.69747
G1 X75.526 Y64.171 E5.72477
G1 X75.525 Y71.997 E6.04769
G1 X75.459 Y72.591 E6.07236
G1 X75.374 Y72.965 E6.08818
G1 X75.19 Y73.498 E6.11145
G1 X75.172 Y73.536 E6.11318
G1 X74.848 Y74.052 E6.13833
G1 X74.502 Y74.457 E6.16031
G1 X74.841 Y74.975 E6.18585
G1 X74.999 Y75.4 E6.20456
G1 X75.091 Y76.083 E6.233
G1 X75.091 Y83.926 E6.55663
G1 X75.051 Y84.378 E6.57535
G1 X74.933 Y84.816 E6.59407
G1 X74.739 Y85.227 E6.61282
G1 X74.51 Y85.55 E6.62916
G1 X74.73 Y85.771 E6.64203
G1 X75.078 Y86.312 E6.66857
G1 X75.395 Y87.056 E6.70194
G1 X75.511 Y87.731 E6.7302
G1 X75.526 Y88.012 E6.74181
G1 X75.526 Y95.829 E7.06437
G1 X75.486 Y96.281 E7.08309
G1 X75.368 Y96.719 E7.10181
G1 X75.174 Y97.13 E7.12056
G1 X74.77 Y97.654 E7.14787
G1 X74.306 Y98.062 E7.17336
G1 X73.912 Y98.288 E7.1921
G1 X73.485 Y98.441 E7.21082
G1 X72.829 Y98.526 E7.23811
G1 X57.171 Y98.526 E7.88422
G1 X56.719 Y98.486 E7.90294
G1 X56.281 Y98.368 E7.92166
G1 X55.87 Y98.174 E7.94041
G1 X55.346 Y97.77 E7.96771
G1 X54.938 Y97.306 E7.99321
G1 X54.712 Y96.912 E8.01195
G1 X54.559 Y96.485 E8.03067
G1 X54.474 Y95.829 E8.05796
G1 X54.474 Y88.01 E8.3806
G1 X54.538 Y87.426 E8.40484
G1 X54.623 Y87.046 E8.42091
G1 X54.797 Y86.531 E8.44334
G1 X54.814 Y86.494 E8.44502
G1 X55.146 Y85.957 E8.47107
G1 X55.497 Y85.544 E8.49344
G1 X55.158 Y85.024 E8.51905
G1 X55 Y84.599 E8.53776
G1 X54.908 Y83.917 E8.56616
G1 X54.908 Y76.075 E8.88974
G1 X54.948 Y75.623 E8.90847
G1 X55.066 Y75.185 E8.92719
G1 X55.26 Y74.774 E8.94594
G1 X55.491 Y74.448 E8.96243
G1 X55.245 Y74.198 E8.9769
G1 X54.923 Y73.691 E9.00168
G1 X54.599 Y72.922 E9.03612
G1 X54.489 Y72.26 E9.06381
G1 X54.474 Y71.984 E9.07521
G1 X54.474 Y64.171 E9.3976
G1 X54.514 Y63.719 E9.41633
G1 X54.632 Y63.281 E9.43504
G1 X54.826 Y62.87 E9.4538
G1 X55.23 Y62.346 E9.4811
M204 S3000
G0 F4200 X55.627 Y62.511
M204 S400
G1 F1800 X55.949 Y62.245 E9.49833
G1 X56.316 Y62.046 E9.51556
G1 X56.714 Y61.919 E9.5328
G1 X57.171 Y61.871 E9.55176
G1 X72.829 Y61.871 E10.19786
G1 X73.245 Y61.911 E10.21511
G1 X73.645 Y62.029 E10.23232
G1 X74.016 Y62.221 E10.24955
G1 X74.489 Y62.627 E10.27527
G1 X74.755 Y62.949 E10.29251
G1 X74.954 Y63.316 E10.30973
G1 X75.081 Y63.714 E10.32697
G1 X75.129 Y64.171 E10.34593
G1 X75.128 Y71.997 E10.66886
G1 X75.072 Y72.503 E10.68987
G1 X74.831 Y73.328 E10.72533
G1 X74.813 Y73.366 E10.72707
G1 X74.539 Y73.802 E10.74832
G1 X74.004 Y74.399 E10.7814
G1 X73.942 Y74.445 E10.78458
G1 X74.153 Y74.644 E10.79655
G1 X74.397 Y74.983 E10.81378
G1 X74.572 Y75.362 E10.83101
G1 X74.671 Y75.768 E10.84825
G1 X74.694 Y76.083 E10.86129
G1 X74.694 Y83.926 E11.18491
G1 X74.654 Y84.342 E11.20216
G1 X74.536 Y84.742 E11.21937
G1 X74.344 Y85.113 E11.2366
G1 X74.084 Y85.44 E11.25384
G1 X73.935 Y85.568 E11.26195
G1 X74.399 Y85.996 E11.288
G1 X74.425 Y86.027 E11.28967
G1 X74.72 Y86.484 E11.31211
G1 X75.013 Y87.165 E11.3427
G1 X75.116 Y87.774 E11.36819
G1 X75.129 Y88.012 E11.37802
G1 X75.129 Y95.829 E11.70058
G1 X75.089 Y96.245 E11.71782
G1 X74.971 Y96.645 E11.73503
G1 X74.779 Y97.016 E11.75227
G1 X74.373 Y97.489 E11.77799
G1 X74.051 Y97.755 E11.79522
G1 X73.684 Y97.954 E11.81245
G1 X73.286 Y98.081 E11.82969
G1 X72.829 Y98.129 E11.84865
G1 X57.171 Y98.129 E12.49475
G1 X56.755 Y98.089 E12.512
G1 X56.355 Y97.971 E12.52921
G1 X55.984 Y97.779 E12.54644
G1 X55.511 Y97.373 E12.57216
G1 X55.245 Y97.051 E12.5894
G1 X55.046 Y96.684 E12.60663
G1 X54.919 Y96.286 E12.62386
G1 X54.871 Y95.829 E12.64283
G1 X54.871 Y88.01 E12.96546
G1 X54.926 Y87.512 E12.98614
G1 X55.157 Y86.697 E13.02109
G1 X55.174 Y86.66 E13.02277
G1 X55.455 Y86.206 E13.0448
G1 X55.995 Y85.601 E13.07827
G1 X56.057 Y85.555 E13.08145
G1 X55.845 Y85.355 E13.09348
G1 X55.602 Y85.016 E13.11069
G1 X55.427 Y84.637 E13.12791
G1 X55.328 Y84.231 E13.14516
G1 X55.305 Y83.917 E13.15815
G1 X55.305 Y76.075 E13.48174
G1 X55.345 Y75.659 E13.49898
G1 X55.463 Y75.259 E13.51619
G1 X55.655 Y74.888 E13.53343
G1 X55.915 Y74.561 E13.55067
G1 X56.065 Y74.432 E13.55883
G1 X55.579 Y73.979 E13.58624
G1 X55.553 Y73.947 E13.58794
G1 X55.281 Y73.518 E13.60891
G1 X54.982 Y72.817 E13.64035
G1 X54.884 Y72.218 E13.6654
G1 X54.871 Y71.984 E13.67507
G1 X54.871 Y64.171 E13.99746
G1 X54.911 Y63.755 E14.0147
G1 X55.029 Y63.355 E14.03191
G1 X55.221 Y62.984 E14.04915
G1 X55.627 Y62.511 E14.07487
M204 S3000
G0 F4200 X55.907 Y62.791
M204 S400
G1 F1800 X56.201 Y62.554 E14.09045
G1 X56.538 Y62.384 E14.10603
G1 X56.903 Y62.288 E14.1216
G1 X57.171 Y62.268 E14.13269
G1 X72.829 Y62.268 E14.77879
G1 X73.204 Y62.308 E14.79435
G1 X73.563 Y62.426 E14.80995
G1 X73.889 Y62.616 E14.82552
G1 X74.209 Y62.907 E14.84336
G1 X74.446 Y63.201 E14.85895
G1 X74.616 Y63.538 E14.87452
G1 X74.712 Y63.903 E14.89009
G1 X74.732 Y64.171 E14.90118
G1 X74.731 Y71.997 E15.22411
G1 X74.685 Y72.415 E15.24146
G1 X74.472 Y73.158 E15.27336
G1 X74.23 Y73.553 E15.29247
G1 X73.749 Y74.095 E15.32237
G1 X73.187 Y74.439 E15.34956
G1 X73.412 Y74.54 E15.35974
G1 X73.716 Y74.764 E15.37532
G1 X73.966 Y75.047 E15.3909
G1 X74.151 Y75.376 E15.40648
G1 X74.263 Y75.737 E15.42207
G1 X74.297 Y76.083 E15.43642
G1 X74.297 Y83.926 E15.76005
G1 X74.257 Y84.301 E15.77561
G1 X74.139 Y84.66 E15.7912
G1 X73.949 Y84.986 E15.80677
G1 X73.694 Y85.265 E15.82237
G1 X73.386 Y85.484 E15.83796
G1 X73.213 Y85.558 E15.84573
G1 X73.851 Y86.011 E15.87802
G1 X74.121 Y86.282 E15.8938
G1 X74.363 Y86.656 E15.91218
G1 X74.631 Y87.274 E15.93998
G1 X74.721 Y87.817 E15.96269
G1 X74.732 Y88.012 E15.97075
G1 X74.732 Y95.829 E16.2933
G1 X74.692 Y96.204 E16.30886
G1 X74.574 Y96.563 E16.32446
G1 X74.384 Y96.889 E16.34003
G1 X74.093 Y97.209 E16.35788
G1 X73.799 Y97.446 E16.37346
G1 X73.462 Y97.616 E16.38903
G1 X73.097 Y97.712 E16.40461
G1 X72.829 Y97.732 E16.4157
G1 X57.171 Y97.732 E17.0618
G1 X56.796 Y97.692 E17.07736
G1 X56.437 Y97.574 E17.09295
G1 X56.111 Y97.384 E17.10852
G1 X55.791 Y97.093 E17.12637
G1 X55.554 Y96.799 E17.14195
G1 X55.384 Y96.462 E17.15753
G1 X55.288 Y96.097 E17.1731
G1 X55.268 Y95.829 E17.18419
G1 X55.268 Y88.01 E17.50683
G1 X55.313 Y87.599 E17.52389
G1 X55.518 Y86.863 E17.55541
G1 X55.765 Y86.454 E17.57513
G1 X56.25 Y85.905 E17.60536
G1 X56.813 Y85.561 E17.63258
G1 X56.586 Y85.459 E17.64285
G1 X56.282 Y85.235 E17.65843
G1 X56.032 Y84.952 E17.67401
G1 X55.847 Y84.623 E17.68959
G1 X55.736 Y84.262 E17.70517
G1 X55.702 Y83.917 E17.71948
G1 X55.702 Y76.075 E18.04306
G1 X55.742 Y75.7 E18.05863
G1 X55.86 Y75.341 E18.07422
G1 X56.05 Y75.015 E18.08979
G1 X56.305 Y74.736 E18.10539
G1 X56.613 Y74.517 E18.12098
G1 X56.788 Y74.442 E18.12884
G1 X56.156 Y73.996 E18.16075
G1 X55.861 Y73.697 E18.17809
G1 X55.477 Y73.012 E18.21049
G1 X55.356 Y72.682 E18.22499
G1 X55.278 Y72.175 E18.24616
G1 X55.268 Y71.984 E18.25405
G1 X55.268 Y64.171 E18.57644
G1 X55.308 Y63.796 E18.592
G1 X55.426 Y63.437 E18.6076
G1 X55.616 Y63.111 E18.62317
G1 X55.907 Y62.791 E18.64101
M204 S3000
G0 F4200 X56.188 Y63.072
M204 S400
G1 F1800 X56.45 Y62.867 E18.65474
G1 X56.753 Y62.729 E18.66848
G1 X57.171 Y62.665 E18.68593
G1 X72.829 Y62.665 E19.33203
G1 X73.159 Y62.705 E19.34575
G1 X73.471 Y62.822 E19.3595
G1 X73.928 Y63.188 E19.38366
G1 X74.133 Y63.45 E19.39738
G1 X74.271 Y63.753 E19.41112
G1 X74.335 Y64.171 E19.42857
G1 X74.334 Y71.997 E19.7515
G1 X74.212 Y72.701 E19.78098
G1 X74.095 Y73.026 E19.79523
G1 X73.683 Y73.599 E19.82436
G1 X73.463 Y73.817 E19.83713
G1 X72.837 Y74.166 E19.86671
G1 X72.356 Y74.303 E19.88735
G1 X71.985 Y74.335 E19.90271
G1 X58.01 Y74.335 E20.47937
G1 X57.306 Y74.214 E20.50884
G1 X56.992 Y74.104 E20.52257
G1 X56.404 Y73.686 E20.55234
G1 X56.169 Y73.447 E20.56617
G1 X55.835 Y72.84 E20.59476
G1 X55.697 Y72.356 E20.61553
G1 X55.665 Y71.984 E20.63093
G1 X55.665 Y64.171 E20.95332
G1 X55.705 Y63.841 E20.96704
G1 X55.822 Y63.529 E20.98079
G1 X56.188 Y63.072 E21.00495
M204 S3000
G0 F4200 X56.469 Y63.353
M204 S400
G1 F1800 X56.694 Y63.184 E21.01656
G1 X56.957 Y63.085 E21.02816
G1 X57.171 Y63.062 E21.03704
G1 X72.829 Y63.062 E21.68314
G1 X73.107 Y63.102 E21.69473
G1 X73.363 Y63.218 E21.70633
G1 X73.647 Y63.469 E21.72197
G1 X73.816 Y63.694 E21.73358
G1 X73.915 Y63.957 E21.74517
G1 X73.938 Y64.171 E21.75405
G1 X73.937 Y71.997 E22.07698
G1 X73.825 Y72.613 E22.10282
G1 X73.736 Y72.856 E22.11349
G1 X73.374 Y73.35 E22.13877
G1 X73.208 Y73.513 E22.14837
G1 X72.665 Y73.808 E22.17386
G1 X72.313 Y73.908 E22.18896
G1 X71.985 Y73.938 E22.20255
G1 X58.01 Y73.938 E22.77921
G1 X57.392 Y73.827 E22.80512
G1 X57.157 Y73.743 E22.81542
G1 X56.653 Y73.377 E22.84112
G1 X56.477 Y73.196 E22.85154
G1 X56.192 Y72.667 E22.87633
G1 X56.092 Y72.313 E22.89151
G1 X56.062 Y71.984 E22.90514
G1 X56.062 Y64.171 E23.22753
G1 X56.102 Y63.893 E23.23912
G1 X56.218 Y63.637 E23.25072
G1 X56.469 Y63.353 E23.26636
M204 S3000
G0 F4200 X56.75 Y63.634
M204 S400
G1 F1800 X56.929 Y63.51 E23.27534
G1 X57.171 Y63.459 E23.28555
G1 X72.829 Y63.459 E23.93165
G1 X73.043 Y63.499 E23.94063
G1 X73.366 Y63.75 E23.95751
G1 X73.49 Y63.929 E23.9665
G1 X73.541 Y64.171 E23.9767
G1 X73.54 Y71.997 E24.29963
G1 X73.438 Y72.525 E24.32182
G1 X73.303 Y72.805 E24.33465
G1 X72.953 Y73.209 E24.3567
G1 X72.493 Y73.45 E24.37813
G1 X72.049 Y73.538 E24.39681
G1 X71.985 Y73.541 E24.39945
G1 X58.01 Y73.541 E24.97611
G1 X57.479 Y73.44 E24.99841
G1 X57.199 Y73.306 E25.01122
G1 X56.811 Y72.978 E25.03218
G1 X56.55 Y72.495 E25.05484
G1 X56.462 Y72.048 E25.07364
G1 X56.459 Y71.984 E25.07628
G1 X56.459 Y64.171 E25.39867
G1 X56.499 Y63.957 E25.40765
G1 X56.75 Y63.634 E25.42453
M204 S3000
G0 F4200 X57.03 Y63.914
M204 S400
G1 F1800 X57.171 Y63.856 E25.43082
G1 X72.829 Y63.856 E26.07693
G1 X72.97 Y63.914 E26.08322
G1 X73.086 Y64.03 E26.08999
G1 X73.144 Y64.171 E26.09628
G1 X73.142 Y72.015 E26.41995
G1 X73.019 Y72.516 E26.44123
G1 X72.698 Y72.904 E26.46201
G1 X72.227 Y73.119 E26.48338
G1 X71.985 Y73.144 E26.49342
G1 X57.991 Y73.143 E27.07086
G1 X57.489 Y73.022 E27.09216
G1 X57.094 Y72.695 E27.11332
G1 X56.881 Y72.228 E27.1345
G1 X56.856 Y71.984 E27.14462
G1 X56.856 Y64.171 E27.46701
G1 X56.914 Y64.03 E27.47331
G1 X57.03 Y63.914 E27.48007
M204 S3000
G1 F3000 E22.48007
G0 F4200 X57.308 Y74.697
M204 S400
G1 F3000 E27.54244
G1 F1800 X57.851 Y74.723 E27.56487
G1 X58.032 Y74.731 E27.57234
G1 X71.964 Y74.731 E28.14723
G1 X72.696 Y74.706 E28.17745
G1 X73.018 Y74.789 E28.19117
G1 X73.311 Y74.947 E28.20491
G1 X73.558 Y75.17 E28.21864
G1 X73.745 Y75.446 E28.23239
G1 X73.861 Y75.758 E28.24613
G1 X73.9 Y76.083 E28.25964
G1 X73.9 Y83.926 E28.58326
G1 X73.86 Y84.256 E28.59698
G1 X73.743 Y84.568 E28.61073
G1 X73.555 Y84.843 E28.62448
G1 X73.307 Y85.065 E28.63821
G1 X73.013 Y85.222 E28.65196
G1 X72.691 Y85.304 E28.66567
G1 X72.153 Y85.278 E28.6879
G1 X71.973 Y85.27 E28.69533
G1 X58.036 Y85.269 E29.27042
G1 X57.302 Y85.294 E29.30073
G1 X56.98 Y85.211 E29.31445
G1 X56.687 Y85.052 E29.3282
G1 X56.44 Y84.829 E29.34193
G1 X56.253 Y84.554 E29.35566
G1 X56.137 Y84.242 E29.36939
G1 X56.099 Y83.917 E29.38289
G1 X56.099 Y76.075 E29.70648
G1 X56.139 Y75.745 E29.7202
G1 X56.256 Y75.433 E29.73395
G1 X56.444 Y75.158 E29.74769
G1 X56.692 Y74.936 E29.76143
G1 X56.986 Y74.779 E29.77518
G1 X57.308 Y74.697 E29.78889
M204 S3000
G0 F4200 X57.34 Y75.093
M204 S400
G1 F1800 X58.034 Y75.128 E29.81756
G1 X71.96 Y75.128 E30.3922
G1 X72.686 Y75.106 E30.42217
G1 X72.953 Y75.194 E30.43377
G1 X73.184 Y75.354 E30.44536
G1 X73.362 Y75.572 E30.45698
G1 X73.471 Y75.831 E30.46857
G1 X73.503 Y76.083 E30.47905
G1 X73.503 Y83.926 E30.80268
G1 X73.463 Y84.204 E30.81427
G1 X73.347 Y84.46 E30.82587
G1 X73.164 Y84.673 E30.83746
G1 X72.928 Y84.827 E30.84908
G1 X72.659 Y84.908 E30.86068
G1 X71.97 Y84.873 E30.88914
G1 X58.04 Y84.872 E31.46394
G1 X57.312 Y84.894 E31.494
G1 X57.046 Y84.806 E31.50556
G1 X56.814 Y84.646 E31.51719
G1 X56.637 Y84.427 E31.52881
G1 X56.528 Y84.168 E31.5404
G1 X56.496 Y83.917 E31.55084
G1 X56.496 Y76.075 E31.87443
G1 X56.536 Y75.797 E31.88602
G1 X56.652 Y75.541 E31.89762
G1 X56.835 Y75.328 E31.9092
G1 X57.071 Y75.174 E31.92083
G1 X57.34 Y75.093 E31.93242
M204 S3000
G0 F4200 X57.428 Y75.482
M204 S400
G1 F1800 X58.016 Y75.525 E31.95675
G1 X71.979 Y75.525 E32.53291
G1 X72.664 Y75.507 E32.56119
G1 X72.86 Y75.601 E32.57016
G1 X73.01 Y75.758 E32.57912
G1 X73.106 Y76.083 E32.5931
G1 X73.106 Y83.926 E32.91673
G1 X73.066 Y84.14 E32.92571
G1 X72.953 Y84.325 E32.93466
G1 X72.78 Y84.457 E32.94363
G1 X72.571 Y84.519 E32.95263
G1 X71.988 Y84.476 E32.97675
G1 X58.021 Y84.475 E33.55308
G1 X57.335 Y84.493 E33.58139
G1 X57.139 Y84.399 E33.59036
G1 X56.989 Y84.241 E33.59935
G1 X56.893 Y83.917 E33.6133
G1 X56.893 Y76.075 E33.93688
G1 X56.933 Y75.861 E33.94587
G1 X57.046 Y75.676 E33.95481
