;FLAVOR:Marlin
;TIME:4695
;Filament used: 3.69534m
;Layer height: 0.2
;MINX:50.085
;MINY:77.077
;MINZ:0.25
;MAXX:159.915
;MAXY:132.923
;MAXZ:14.85
;Generated with Cura_SteamEngine 4.9.0
M140 S60
M105
M190 S60
M104 S200
M105
M109 S200
M82 ;absolute extrusion mode
G21 ;metric values
G90 ;absolute positioning
M82 ;set extruder to absolute mode
M107 ;start with the fan off
G28 X0 Y0 ;move X/Y to min endstops
G28 Z0 ;move Z to min endstops
G1 Z15.0 F120 ;move the platform down 15mm
G92 E0 ;zero the extruded length
G1 F200 E3 ;extrude 3mm of feed stock
G92 E0 ;zero the extruded length again
G1 F120
G0 Y20 F120
M117 Printing...
G5
G92 E0
G92 E0
G1 F3000 E-5
;LAYER_COUNT:74
;LAYER:0
M106 S51
M204 S3000
M205 X10 Y10
G1 F600 Z0.325
G0 F4200 X63.437 Y77.634 Z0.325
M204 S400
;TYPE:SKIRT
G1 F600 Z0.25
G1 F3000 E0.06236
G1 F1800 X63.856 Y77.383 E0.08292
G1 X64.309 Y77.204 E0.10342
G1 X64.786 Y77.102 E0.12395
G1 X65.171 Y77.077 E0.14019
G1 X90.829 Y77.077 E1.2201
G1 X91.315 Y77.117 E1.24062
G1 X91.788 Y77.236 E1.26115
G1 X92.235 Y77.43 E1.28166
G1 X92.645 Y77.695 E1.30221
G1 X93.051 Y78.065 E1.32533
G1 X93.366 Y78.437 E1.34584
G1 X93.617 Y78.856 E1.3664
G1 X93.796 Y79.309 E1.3869
G1 X93.898 Y79.786 E1.40743
G1 X93.923 Y80.171 E1.42367
G1 X93.923 Y82.069 E1.50355
G1 X94.763 Y82.669 E1.547
G1 X94.885 Y82.761 E1.55343
G1 X95.867 Y83.542 E1.60624
G1 X95.98 Y83.637 E1.61245
G1 X96.905 Y84.451 E1.66431
G1 X97.015 Y84.553 E1.67063
G1 X97.908 Y85.422 E1.72307
G1 X98.012 Y85.529 E1.72935
G1 X98.869 Y86.451 E1.78233
G1 X98.966 Y86.56 E1.78847
G1 X99.761 Y87.504 E1.84042
G1 X99.856 Y87.623 E1.84683
G1 X100.61 Y88.618 E1.89937
G1 X100.694 Y88.735 E1.90543
G1 X101.397 Y89.762 E1.95782
G1 X101.479 Y89.888 E1.96414
G1 X102.134 Y90.957 E2.01691
G1 X102.209 Y91.087 E2.02323
G1 X102.801 Y92.172 E2.07525
G1 X102.87 Y92.305 E2.08155
G1 X103.412 Y93.43 E2.13411
G1 X103.472 Y93.564 E2.14029
G1 X103.956 Y94.71 E2.19265
G1 X104.011 Y94.849 E2.19894
G1 X104.441 Y96.028 E2.25176
G1 X104.488 Y96.168 E2.25798
G1 X104.854 Y97.352 E2.31014
G1 X104.999 Y97.908 E2.33432
G1 X105.14 Y97.371 E2.35769
G1 X105.512 Y96.168 E2.41069
G1 X105.559 Y96.028 E2.4169
G1 X105.99 Y94.846 E2.46986
G1 X106.045 Y94.706 E2.47619
G1 X106.526 Y93.569 E2.52815
G1 X106.586 Y93.437 E2.53425
G1 X107.131 Y92.305 E2.58713
G1 X107.2 Y92.171 E2.59347
G1 X107.792 Y91.086 E2.64549
G1 X107.867 Y90.956 E2.65181
G1 X108.519 Y89.892 E2.70433
G1 X108.6 Y89.766 E2.71064
G1 X109.309 Y88.73 E2.76347
G1 X109.393 Y88.614 E2.7695
G1 X110.145 Y87.621 E2.82193
G1 X110.242 Y87.5 E2.82845
G1 X111.037 Y86.557 E2.88037
G1 X111.131 Y86.451 E2.88633
G1 X111.979 Y85.537 E2.93881
G1 X112.087 Y85.426 E2.94532
G1 X112.986 Y84.553 E2.99807
G1 X113.093 Y84.454 E3.0042
G1 X114.023 Y83.635 E3.05636
G1 X114.137 Y83.539 E3.06263
G1 X115.11 Y82.765 E3.11496
G1 X115.231 Y82.674 E3.12133
G1 X116.077 Y82.069 E3.16511
G1 X116.077 Y80.171 E3.24499
G1 X116.117 Y79.685 E3.26552
G1 X116.236 Y79.212 E3.28604
G1 X116.43 Y78.765 E3.30655
G1 X116.695 Y78.355 E3.3271
G1 X117.065 Y77.949 E3.35022
G1 X117.437 Y77.634 E3.37074
G1 X117.856 Y77.383 E3.39129
G1 X118.309 Y77.204 E3.41179
G1 X118.786 Y77.102 E3.43232
G1 X119.171 Y77.077 E3.44856
G1 X144.829 Y77.077 E4.52847
G1 X145.315 Y77.117 E4.549
G1 X145.788 Y77.236 E4.56952
G1 X146.235 Y77.43 E4.59003
G1 X146.645 Y77.695 E4.61058
G1 X147.051 Y78.065 E4.6337
G1 X147.366 Y78.437 E4.65422
G1 X147.617 Y78.856 E4.67477
G1 X147.796 Y79.309 E4.69527
G1 X147.898 Y79.786 E4.7158
G1 X147.923 Y80.171 E4.73204
G1 X147.923 Y82.069 E4.81193
G1 X148.763 Y82.669 E4.85537
G1 X148.885 Y82.761 E4.86181
G1 X149.867 Y83.542 E4.91461
G1 X149.98 Y83.637 E4.92083
G1 X150.905 Y84.451 E4.97269
G1 X151.015 Y84.553 E4.979
G1 X151.908 Y85.422 E5.03145
G1 X152.012 Y85.529 E5.03773
G1 X152.869 Y86.451 E5.09071
G1 X152.966 Y86.56 E5.09685
G1 X153.761 Y87.504 E5.14879
G1 X153.856 Y87.623 E5.1552
G1 X154.61 Y88.618 E5.20774
G1 X154.694 Y88.735 E5.21381
G1 X155.397 Y89.762 E5.26619
G1 X155.479 Y89.888 E5.27252
G1 X156.134 Y90.957 E5.32528
G1 X156.209 Y91.087 E5.3316
G1 X156.801 Y92.172 E5.38362
G1 X156.87 Y92.305 E5.38993
G1 X157.412 Y93.43 E5.44249
G1 X157.472 Y93.564 E5.44867
G1 X157.956 Y94.71 E5.50102
G1 X158.011 Y94.849 E5.50732
G1 X158.441 Y96.028 E5.56014
G1 X158.488 Y96.168 E5.56635
G1 X158.854 Y97.352 E5.61851
G1 X158.894 Y97.495 E5.62476
G1 X159.204 Y98.709 E5.6775
G1 X159.237 Y98.853 E5.68371
G1 X159.482 Y100.059 E5.73551
G1 X159.508 Y100.215 E5.74217
G1 X159.694 Y101.44 E5.79431
G1 X159.713 Y101.589 E5.80064
G1 X159.838 Y102.83 E5.85313
G1 X159.849 Y102.979 E5.85942
G1 X159.911 Y104.22 E5.91172
G1 X159.915 Y104.369 E5.91799
G1 X159.915 Y105.618 E5.97056
G1 X159.911 Y105.767 E5.97683
G1 X159.848 Y107.023 E6.02976
G1 X159.837 Y107.172 E6.03605
G1 X159.712 Y108.417 E6.08872
G1 X159.694 Y108.563 E6.09491
G1 X159.511 Y109.777 E6.14658
G1 X159.485 Y109.924 E6.15286
G1 X159.237 Y111.149 E6.20547
G1 X159.204 Y111.292 E6.21164
G1 X158.901 Y112.483 E6.26337
G1 X158.86 Y112.629 E6.26975
G1 X158.488 Y113.832 E6.32275
G1 X158.441 Y113.972 E6.32897
G1 X158.01 Y115.154 E6.38192
G1 X157.955 Y115.294 E6.38825
G1 X157.474 Y116.431 E6.44021
G1 X157.414 Y116.563 E6.44631
G1 X156.869 Y117.695 E6.49919
G1 X156.801 Y117.829 E6.50552
G1 X156.211 Y118.911 E6.55739
G1 X156.135 Y119.041 E6.56372
G1 X155.481 Y120.108 E6.6164
G1 X155.399 Y120.234 E6.62272
G1 X154.691 Y121.268 E6.67547
G1 X154.61 Y121.382 E6.68135
G1 X153.864 Y122.369 E6.73343
G1 X153.765 Y122.493 E6.7401
G1 X152.963 Y123.444 E6.79246
G1 X152.869 Y123.549 E6.7984
G1 X152.021 Y124.463 E6.85087
G1 X151.913 Y124.574 E6.85739
G1 X151.014 Y125.447 E6.91013
G1 X150.907 Y125.546 E6.91627
G1 X149.977 Y126.365 E6.96842
G1 X149.863 Y126.461 E6.9747
G1 X148.89 Y127.235 E7.02703
G1 X148.769 Y127.326 E7.0334
G1 X147.923 Y127.931 E7.07717
G1 X147.923 Y129.829 E7.15706
G1 X147.883 Y130.315 E7.17758
G1 X147.764 Y130.788 E7.19811
G1 X147.57 Y131.235 E7.21862
G1 X147.305 Y131.645 E7.23917
G1 X146.935 Y132.051 E7.26229
G1 X146.563 Y132.366 E7.2828
G1 X146.144 Y132.617 E7.30336
G1 X145.691 Y132.796 E7.32386
G1 X145.214 Y132.898 E7.34439
G1 X144.829 Y132.923 E7.36063
G1 X119.171 Y132.923 E8.44054
G1 X118.685 Y132.883 E8.46106
G1 X118.212 Y132.764 E8.48159
G1 X117.765 Y132.57 E8.5021
G1 X117.355 Y132.305 E8.52265
G1 X116.949 Y131.935 E8.54577
G1 X116.634 Y131.563 E8.56628
G1 X116.383 Y131.144 E8.58684
G1 X116.204 Y130.691 E8.60734
G1 X116.102 Y130.214 E8.62787
G1 X116.077 Y129.829 E8.64411
G1 X116.077 Y127.931 E8.72399
G1 X115.229 Y127.324 E8.76789
G1 X115.108 Y127.232 E8.77428
G1 X114.134 Y126.457 E8.82667
G1 X114.021 Y126.363 E8.83286
G1 X113.092 Y125.546 E8.88493
G1 X112.982 Y125.444 E8.89124
G1 X112.083 Y124.569 E8.94404
G1 X111.978 Y124.462 E8.95035
G1 X111.129 Y123.548 E9.00286
G1 X111.033 Y123.439 E9.00897
G1 X110.232 Y122.488 E9.0613
G1 X110.135 Y122.366 E9.06786
G1 X109.387 Y121.377 E9.12005
G1 X109.305 Y121.263 E9.12596
G1 X108.597 Y120.229 E9.17871
G1 X108.514 Y120.102 E9.18509
G1 X107.864 Y119.04 E9.2375
G1 X107.79 Y118.911 E9.24376
G1 X107.197 Y117.824 E9.29587
G1 X107.127 Y117.689 E9.30227
G1 X106.582 Y116.556 E9.35519
G1 X106.523 Y116.424 E9.36128
G1 X106.043 Y115.288 E9.41318
G1 X105.988 Y115.15 E9.41943
G1 X105.557 Y113.969 E9.47235
G1 X105.51 Y113.827 E9.47864
G1 X105.146 Y112.648 E9.53058
G1 X105 Y112.094 E9.55469
G1 X104.86 Y112.629 E9.57797
G1 X104.488 Y113.832 E9.63096
G1 X104.441 Y113.972 E9.63718
G1 X104.01 Y115.154 E9.69013
G1 X103.955 Y115.294 E9.69646
G1 X103.474 Y116.431 E9.74842
G1 X103.414 Y116.563 E9.75453
G1 X102.869 Y117.695 E9.8074
G1 X102.801 Y117.829 E9.81373
G1 X102.211 Y118.911 E9.8656
G1 X102.135 Y119.041 E9.87194
G1 X101.481 Y120.108 E9.92461
G1 X101.4 Y120.233 E9.93088
G1 X100.692 Y121.268 E9.98366
G1 X100.609 Y121.384 E9.98966
G1 X99.859 Y122.375 E10.04197
G1 X99.76 Y122.498 E10.04862
G1 X98.962 Y123.444 E10.10071
G1 X98.869 Y123.549 E10.10661
G1 X98.021 Y124.463 E10.15908
G1 X97.913 Y124.574 E10.1656
G1 X97.014 Y125.447 E10.21835
G1 X96.907 Y125.546 E10.22448
G1 X95.977 Y126.365 E10.27664
G1 X95.863 Y126.461 E10.28291
G1 X94.89 Y127.235 E10.33524
G1 X94.769 Y127.326 E10.34161
G1 X93.923 Y127.931 E10.38539
G1 X93.923 Y129.829 E10.46527
G1 X93.883 Y130.315 E10.4858
G1 X93.764 Y130.788 E10.50632
G1 X93.57 Y131.235 E10.52683
G1 X93.305 Y131.645 E10.54738
G1 X92.935 Y132.051 E10.5705
G1 X92.563 Y132.366 E10.59102
G1 X92.144 Y132.617 E10.61157
G1 X91.691 Y132.796 E10.63207
G1 X91.214 Y132.898 E10.6526
G1 X90.829 Y132.923 E10.66884
G1 X65.171 Y132.923 E11.74875
G1 X64.685 Y132.883 E11.76928
G1 X64.212 Y132.764 E11.7898
G1 X63.765 Y132.57 E11.81031
G1 X63.355 Y132.305 E11.83086
G1 X62.949 Y131.935 E11.85398
G1 X62.634 Y131.563 E11.8745
G1 X62.383 Y131.144 E11.89505
G1 X62.204 Y130.691 E11.91555
G1 X62.102 Y130.214 E11.93608
G1 X62.077 Y129.829 E11.95232
G1 X62.077 Y127.931 E12.03221
G1 X61.229 Y127.324 E12.0761
G1 X61.108 Y127.232 E12.0825
G1 X60.134 Y126.457 E12.13488
G1 X60.021 Y126.363 E12.14107
G1 X59.092 Y125.546 E12.19314
G1 X58.982 Y125.444 E12.19945
G1 X58.083 Y124.569 E12.25226
G1 X57.978 Y124.462 E12.25857
G1 X57.129 Y123.548 E12.31107
G1 X57.034 Y123.44 E12.31712
G1 X56.237 Y122.494 E12.36919
G1 X56.14 Y122.373 E12.37571
G1 X55.388 Y121.38 E12.42814
G1 X55.304 Y121.263 E12.4342
G1 X54.596 Y120.228 E12.48698
G1 X54.514 Y120.102 E12.49331
G1 X53.864 Y119.04 E12.54571
G1 X53.79 Y118.911 E12.55197
G1 X53.197 Y117.824 E12.60409
G1 X53.127 Y117.689 E12.61049
G1 X52.582 Y116.556 E12.66341
G1 X52.523 Y116.424 E12.66949
G1 X52.043 Y115.288 E12.7214
G1 X51.988 Y115.15 E12.72765
G1 X51.557 Y113.969 E12.78056
G1 X51.51 Y113.827 E12.78686
G1 X51.146 Y112.648 E12.83879
G1 X51.105 Y112.505 E12.84505
G1 X50.795 Y111.29 E12.89783
G1 X50.763 Y111.147 E12.904
G1 X50.516 Y109.931 E12.95622
G1 X50.306 Y108.558 E13.01468
G1 X50.287 Y108.409 E13.021
G1 X50.162 Y107.163 E13.07371
G1 X50.151 Y107.015 E13.07995
G1 X50.089 Y105.781 E13.13196
G1 X50.085 Y105.632 E13.13823
G1 X50.085 Y104.381 E13.19088
G1 X50.089 Y104.232 E13.19716
G1 X50.152 Y102.977 E13.25004
G1 X50.163 Y102.828 E13.25633
G1 X50.288 Y101.583 E13.309
G1 X50.306 Y101.437 E13.31519
G1 X50.489 Y100.223 E13.36686
G1 X50.515 Y100.076 E13.37314
G1 X50.763 Y98.851 E13.42575
G1 X50.796 Y98.708 E13.43193
G1 X51.099 Y97.517 E13.48365
G1 X51.14 Y97.371 E13.49003
G1 X51.512 Y96.168 E13.54303
G1 X51.559 Y96.028 E13.54925
G1 X51.99 Y94.846 E13.6022
G1 X52.045 Y94.706 E13.60853
G1 X52.526 Y93.569 E13.66049
G1 X52.586 Y93.437 E13.66659
G1 X53.131 Y92.305 E13.71947
G1 X53.2 Y92.171 E13.72582
G1 X53.792 Y91.086 E13.77784
G1 X53.867 Y90.956 E13.78415
G1 X54.519 Y89.892 E13.83668
G1 X54.6 Y89.766 E13.84298
G1 X55.309 Y88.73 E13.89582
G1 X55.393 Y88.614 E13.90185
G1 X56.145 Y87.621 E13.95427
G1 X56.242 Y87.5 E13.9608
G1 X57.037 Y86.557 E14.01271
G1 X57.131 Y86.451 E14.01867
G1 X57.979 Y85.537 E14.07115
G1 X58.087 Y85.426 E14.07767
G1 X58.986 Y84.553 E14.13041
G1 X59.093 Y84.454 E14.13655
G1 X60.023 Y83.635 E14.1887
G1 X60.137 Y83.539 E14.19498
G1 X61.11 Y82.765 E14.2473
G1 X61.231 Y82.674 E14.25368
G1 X62.077 Y82.069 E14.29745
G1 X62.077 Y80.171 E14.37734
G1 X62.117 Y79.685 E14.39786
G1 X62.236 Y79.212 E14.41839
G1 X62.43 Y78.765 E14.4389
G1 X62.695 Y78.355 E14.45944
G1 X63.065 Y77.949 E14.48256
G1 X63.437 Y77.634 E14.50308
M204 S3000
G0 F4200 X63.694 Y77.938
M204 S400
G1 F1800 X64.088 Y77.712 E14.5222
G1 X64.515 Y77.559 E14.54129
G1 X65.171 Y77.474 E14.56913
G1 X90.829 Y77.474 E15.64904
G1 X91.281 Y77.514 E15.66814
G1 X91.719 Y77.632 E15.68723
G1 X92.13 Y77.826 E15.70636
G1 X92.654 Y78.23 E15.73421
G1 X93.062 Y78.694 E15.76021
G1 X93.288 Y79.088 E15.77933
G1 X93.441 Y79.515 E15.79842
G1 X93.526 Y80.171 E15.82626
G1 X93.526 Y82.273 E15.91473
G1 X94.532 Y82.992 E15.96677
G1 X94.638 Y83.072 E15.97236
G1 X95.62 Y83.853 E16.02517
G1 X95.718 Y83.935 E16.03055
G1 X96.643 Y84.749 E16.08241
G1 X96.738 Y84.837 E16.08786
G1 X97.631 Y85.706 E16.1403
G1 X97.721 Y85.799 E16.14575
G1 X98.578 Y86.721 E16.19873
G1 X98.662 Y86.815 E16.20404
G1 X99.457 Y87.759 E16.25598
G1 X99.54 Y87.863 E16.26158
G1 X100.294 Y88.858 E16.31413
G1 X100.367 Y88.959 E16.31937
G1 X101.07 Y89.986 E16.37175
G1 X101.141 Y90.096 E16.37726
G1 X101.796 Y91.165 E16.43003
G1 X101.861 Y91.277 E16.43548
G1 X102.453 Y92.362 E16.4875
G1 X102.512 Y92.478 E16.49298
G1 X103.054 Y93.603 E16.54554
G1 X103.107 Y93.719 E16.55091
G1 X103.591 Y94.865 E16.60327
G1 X103.638 Y94.985 E16.60869
G1 X104.068 Y96.164 E16.66151
G1 X104.109 Y96.286 E16.66693
G1 X104.475 Y97.47 E16.71909
G1 X104.51 Y97.593 E16.72447
G1 X104.82 Y98.807 E16.7772
G1 X104.848 Y98.932 E16.78259
G1 X105 Y99.681 E16.81476
G1 X105.152 Y98.93 E16.84701
G1 X105.181 Y98.806 E16.85237
G1 X105.484 Y97.615 E16.9041
G1 X105.519 Y97.489 E16.9096
G1 X105.891 Y96.286 E16.9626
G1 X105.932 Y96.164 E16.96801
G1 X106.363 Y94.982 E17.02097
G1 X106.411 Y94.86 E17.02649
G1 X106.892 Y93.723 E17.07845
G1 X106.943 Y93.609 E17.0837
G1 X107.488 Y92.477 E17.13658
G1 X107.548 Y92.361 E17.14208
G1 X108.14 Y91.276 E17.1941
G1 X108.205 Y91.163 E17.19959
G1 X108.857 Y90.099 E17.25211
G1 X108.928 Y89.99 E17.25758
G1 X109.637 Y88.954 E17.31042
G1 X109.709 Y88.854 E17.31561
G1 X110.461 Y87.861 E17.36803
G1 X110.546 Y87.755 E17.37375
G1 X111.341 Y86.812 E17.42566
G1 X111.422 Y86.721 E17.43079
G1 X112.27 Y85.807 E17.48327
G1 X112.364 Y85.71 E17.48895
G1 X113.263 Y84.837 E17.54169
G1 X113.355 Y84.752 E17.54697
G1 X114.285 Y83.933 E17.59912
G1 X114.384 Y83.85 E17.60456
G1 X115.357 Y83.076 E17.65689
G1 X115.462 Y82.997 E17.66242
G1 X116.474 Y82.273 E17.71479
G1 X116.474 Y80.171 E17.80326
G1 X116.514 Y79.719 E17.82236
G1 X116.632 Y79.281 E17.84145
G1 X116.826 Y78.87 E17.86058
G1 X117.23 Y78.346 E17.88843
G1 X117.694 Y77.938 E17.91443
G1 X118.088 Y77.712 E17.93355
G1 X118.515 Y77.559 E17.95264
G1 X119.171 Y77.474 E17.98048
G1 X144.829 Y77.474 E19.06039
G1 X145.281 Y77.514 E19.07949
G1 X145.719 Y77.632 E19.09858
G1 X146.13 Y77.826 E19.11771
G1 X146.654 Y78.23 E19.14556
G1 X147.062 Y78.694 E19.17157
G1 X147.288 Y79.088 E19.19068
G1 X147.441 Y79.515 E19.20977
G1 X147.526 Y80.171 E19.23761
G1 X147.526 Y82.273 E19.32608
G1 X148.532 Y82.992 E19.37813
G1 X148.638 Y83.072 E19.38372
G1 X149.62 Y83.853 E19.43653
G1 X149.718 Y83.935 E19.4419
G1 X150.643 Y84.749 E19.49376
G1 X150.738 Y84.837 E19.49921
G1 X151.631 Y85.706 E19.55166
G1 X151.721 Y85.799 E19.55711
G1 X152.578 Y86.721 E19.61009
G1 X152.662 Y86.815 E19.61539
G1 X153.457 Y87.759 E19.66734
G1 X153.54 Y87.863 E19.67294
G1 X154.294 Y88.858 E19.72548
G1 X154.367 Y88.959 E19.73073
G1 X155.07 Y89.986 E19.78311
G1 X155.141 Y90.096 E19.78862
G1 X155.796 Y91.165 E19.84139
G1 X155.861 Y91.277 E19.84684
G1 X156.453 Y92.362 E19.89886
G1 X156.512 Y92.478 E19.90433
G1 X157.054 Y93.603 E19.95689
G1 X157.107 Y93.719 E19.96226
G1 X157.591 Y94.865 E20.01462
G1 X157.638 Y94.985 E20.02004
G1 X158.068 Y96.164 E20.07286
G1 X158.109 Y96.286 E20.07828
G1 X158.475 Y97.47 E20.13044
G1 X158.51 Y97.593 E20.13582
G1 X158.82 Y98.807 E20.18856
G1 X158.848 Y98.932 E20.19395
G1 X159.093 Y100.138 E20.24574
G1 X159.302 Y101.5 E20.30374
G1 X159.318 Y101.628 E20.30917
G1 X159.443 Y102.869 E20.36167
G1 X159.453 Y102.999 E20.36715
G1 X159.515 Y104.24 E20.41945
G1 X159.518 Y104.369 E20.42488
G1 X159.518 Y105.618 E20.47745
G1 X159.515 Y105.747 E20.48288
G1 X159.452 Y107.003 E20.53581
G1 X159.442 Y107.132 E20.54126
G1 X159.317 Y108.377 E20.59392
G1 X159.301 Y108.504 E20.59931
G1 X159.118 Y109.718 E20.65098
G1 X159.096 Y109.845 E20.65641
G1 X158.848 Y111.07 E20.70901
G1 X158.819 Y111.194 E20.71437
G1 X158.516 Y112.385 E20.76609
G1 X158.481 Y112.511 E20.7716
G1 X158.109 Y113.714 E20.8246
G1 X158.068 Y113.836 E20.83001
G1 X157.637 Y115.018 E20.88297
G1 X157.589 Y115.14 E20.88848
G1 X157.108 Y116.277 E20.94045
G1 X157.057 Y116.391 E20.9457
G1 X156.512 Y117.523 E20.99858
G1 X156.452 Y117.639 E21.00408
G1 X155.862 Y118.721 E21.05595
G1 X155.797 Y118.834 E21.06143
G1 X155.143 Y119.901 E21.11411
G1 X155.072 Y120.01 E21.11958
G1 X154.364 Y121.044 E21.17233
G1 X154.293 Y121.142 E21.17742
G1 X153.547 Y122.129 E21.22949
