;FLAVOR:Marlin
;TIME:4289
;Filament used: 3.28027m
;Layer height: 0.2
;MINX:77.077
;MINY:49.085
;MINZ:0.25
;MAXX:132.923
;MAXY:160.915
;MAXZ:14.85
;Generated with Cura_SteamEngine 4.9.0
M140 S60
M105
M190 S60
M104 S200
M105
M109 S200
M82 ;absolute extrusion mode
G21 ;metric values
G90 ;absolute positioning
M82 ;set extruder to absolute mode
M107 ;start with the fan off
G28 X0 Y0 ;move X/Y to min endstops
G28 Z0 ;move Z to min endstops
G1 Z15.0 F120 ;move the platform down 15mm
G92 E0 ;zero the extruded length
G1 F200 E3 ;extrude 3mm of feed stock
G92 E0 ;zero the extruded length again
G1 F120
G0 Y20 F120
M117 Printing...
G5
G92 E0
G92 E0
G1 F3000 E-5
;LAYER_COUNT:74
;LAYER:0
M106 S51
M204 S3000
M205 X10 Y10
G1 F600 Z0.325
G0 F4200 X77.695 Y62.355 Z0.325
M204 S400
;TYPE:SKIRT
G1 F600 Z0.25
G1 F3000 E0.06236
G1 F1800 X78.065 Y61.949 E0.08503
G1 X78.437 Y61.634 E0.10514
G1 X78.856 Y61.383 E0.1253
G1 X79.309 Y61.204 E0.1454
G1 X79.786 Y61.102 E0.16552
G1 X80.171 Y61.077 E0.18144
G1 X82.069 Y61.077 E0.25976
G1 X82.669 Y60.237 E0.30236
G1 X82.761 Y60.115 E0.30866
G1 X83.542 Y59.133 E0.36043
G1 X83.637 Y59.02 E0.36653
G1 X84.451 Y58.095 E0.41737
G1 X84.553 Y57.985 E0.42356
G1 X85.422 Y57.092 E0.47498
G1 X85.528 Y56.988 E0.4811
G1 X86.451 Y56.13 E0.5331
G1 X86.561 Y56.033 E0.53915
G1 X87.504 Y55.239 E0.59002
G1 X87.624 Y55.143 E0.59636
G1 X88.618 Y54.39 E0.64782
G1 X88.737 Y54.305 E0.65385
G1 X89.774 Y53.597 E0.70567
G1 X89.895 Y53.518 E0.71163
G1 X90.955 Y52.867 E0.76296
G1 X91.087 Y52.791 E0.76924
G1 X92.174 Y52.198 E0.82034
G1 X92.309 Y52.128 E0.82661
G1 X93.444 Y51.582 E0.87858
G1 X93.576 Y51.523 E0.88455
G1 X94.71 Y51.044 E0.93534
G1 X94.848 Y50.989 E0.94147
G1 X96.029 Y50.558 E0.99335
G1 X96.171 Y50.511 E0.99952
G1 X97.353 Y50.146 E1.05057
G1 X97.495 Y50.106 E1.05666
G1 X98.709 Y49.796 E1.10836
G1 X98.856 Y49.762 E1.11458
G1 X100.069 Y49.517 E1.16565
G1 X100.213 Y49.492 E1.17168
G1 X101.442 Y49.306 E1.22297
G1 X101.59 Y49.287 E1.22912
G1 X102.834 Y49.162 E1.28071
G1 X102.984 Y49.151 E1.28692
G1 X104.233 Y49.089 E1.33852
G1 X104.381 Y49.085 E1.34463
G1 X105.618 Y49.085 E1.39567
G1 X105.767 Y49.089 E1.40182
G1 X107.023 Y49.152 E1.45372
G1 X107.172 Y49.163 E1.45988
G1 X108.417 Y49.288 E1.51151
G1 X108.564 Y49.306 E1.51762
G1 X109.788 Y49.491 E1.5687
G1 X109.934 Y49.517 E1.57482
G1 X111.145 Y49.762 E1.6258
G1 X111.289 Y49.795 E1.6319
G1 X112.483 Y50.099 E1.68274
G1 X112.627 Y50.14 E1.68892
G1 X113.834 Y50.513 E1.74105
G1 X113.976 Y50.56 E1.74722
G1 X115.157 Y50.991 E1.79909
G1 X115.296 Y51.046 E1.80526
G1 X116.431 Y51.526 E1.85611
G1 X116.563 Y51.586 E1.8621
G1 X117.695 Y52.131 E1.91394
G1 X117.829 Y52.2 E1.92016
G1 X118.914 Y52.792 E1.97116
G1 X119.044 Y52.867 E1.97735
G1 X120.108 Y53.519 E2.02884
G1 X120.234 Y53.6 E2.03502
G1 X121.27 Y54.309 E2.08683
G1 X121.387 Y54.394 E2.09279
G1 X122.382 Y55.148 E2.14431
G1 X122.501 Y55.243 E2.15059
G1 X123.443 Y56.036 E2.2014
G1 X123.552 Y56.133 E2.20742
G1 X124.472 Y56.988 E2.25924
G1 X124.582 Y57.095 E2.26558
G1 X125.448 Y57.987 E2.31688
G1 X125.546 Y58.093 E2.32283
G1 X126.365 Y59.023 E2.37397
G1 X126.461 Y59.138 E2.38015
G1 X127.235 Y60.112 E2.43148
G1 X127.325 Y60.231 E2.43764
G1 X127.931 Y61.077 E2.48058
G1 X129.829 Y61.077 E2.5589
G1 X130.315 Y61.117 E2.57902
G1 X130.788 Y61.236 E2.59915
G1 X131.235 Y61.43 E2.61925
G1 X131.645 Y61.695 E2.6394
G1 X132.051 Y62.065 E2.66206
G1 X132.366 Y62.437 E2.68218
G1 X132.617 Y62.856 E2.70233
G1 X132.796 Y63.309 E2.72243
G1 X132.898 Y63.786 E2.74256
G1 X132.923 Y64.171 E2.75848
G1 X132.923 Y89.829 E3.81721
G1 X132.883 Y90.315 E3.83734
G1 X132.764 Y90.788 E3.85746
G1 X132.57 Y91.235 E3.87757
G1 X132.305 Y91.645 E3.89771
G1 X131.935 Y92.051 E3.92038
G1 X131.563 Y92.366 E3.94049
G1 X131.144 Y92.617 E3.96065
G1 X130.691 Y92.796 E3.98075
G1 X130.214 Y92.898 E4.00087
G1 X129.829 Y92.923 E4.01679
G1 X127.931 Y92.923 E4.09511
G1 X127.331 Y93.763 E4.13771
G1 X127.239 Y93.884 E4.14398
G1 X126.459 Y94.865 E4.19569
G1 X126.363 Y94.98 E4.20187
G1 X125.548 Y95.906 E4.25278
G1 X125.447 Y96.015 E4.25891
G1 X124.578 Y96.908 E4.31032
G1 X124.471 Y97.012 E4.31648
G1 X123.549 Y97.869 E4.36842
G1 X123.44 Y97.966 E4.37444
G1 X122.496 Y98.761 E4.42537
G1 X122.376 Y98.857 E4.43171
G1 X121.382 Y99.61 E4.48317
G1 X121.266 Y99.693 E4.48905
G1 X120.229 Y100.403 E4.54091
G1 X120.101 Y100.486 E4.5472
G1 X119.042 Y101.134 E4.59843
G1 X118.915 Y101.208 E4.6045
G1 X117.827 Y101.802 E4.65565
G1 X117.69 Y101.872 E4.662
G1 X116.558 Y102.416 E4.71382
G1 X116.428 Y102.475 E4.71971
G1 X115.291 Y102.956 E4.77065
G1 X115.152 Y103.011 E4.77682
G1 X113.971 Y103.442 E4.8287
G1 X113.829 Y103.489 E4.83487
G1 X112.647 Y103.854 E4.88592
G1 X112.504 Y103.895 E4.89205
G1 X111.289 Y104.205 E4.9438
G1 X111.143 Y104.238 E4.94997
G1 X109.931 Y104.483 E5.00099
G1 X109.787 Y104.508 E5.00703
G1 X108.558 Y104.694 E5.05832
G1 X108.41 Y104.713 E5.06447
G1 X107.166 Y104.838 E5.11606
G1 X107.016 Y104.849 E5.12227
G1 X105.767 Y104.911 E5.17387
G1 X105.619 Y104.915 E5.17998
G1 X104.382 Y104.915 E5.23102
G1 X104.233 Y104.911 E5.23717
G1 X102.977 Y104.848 E5.28906
G1 X102.828 Y104.837 E5.29523
G1 X101.583 Y104.712 E5.34686
G1 X101.436 Y104.694 E5.35297
G1 X100.212 Y104.509 E5.40405
G1 X100.066 Y104.483 E5.41017
G1 X98.852 Y104.237 E5.46128
G1 X98.709 Y104.204 E5.46734
G1 X97.518 Y103.901 E5.51805
G1 X97.373 Y103.86 E5.52427
G1 X96.166 Y103.487 E5.5764
G1 X96.024 Y103.44 E5.58257
G1 X94.843 Y103.009 E5.63444
G1 X94.702 Y102.953 E5.6407
G1 X93.562 Y102.47 E5.69179
G1 X93.433 Y102.412 E5.69763
G1 X92.304 Y101.869 E5.74932
G1 X92.168 Y101.799 E5.75563
G1 X91.082 Y101.206 E5.80669
G1 X90.953 Y101.131 E5.81285
G1 X89.892 Y100.481 E5.86419
G1 X89.766 Y100.4 E5.87037
G1 X88.73 Y99.691 E5.92217
G1 X88.613 Y99.606 E5.92814
G1 X87.618 Y98.852 E5.97965
G1 X87.498 Y98.756 E5.986
G1 X86.556 Y97.962 E6.03683
G1 X86.449 Y97.867 E6.04274
G1 X85.527 Y97.011 E6.09465
G1 X85.416 Y96.903 E6.10104
G1 X84.55 Y96.011 E6.15234
G1 X84.452 Y95.905 E6.1583
G1 X83.635 Y94.977 E6.20931
G1 X83.539 Y94.863 E6.21546
G1 X82.758 Y93.881 E6.26724
G1 X82.666 Y93.759 E6.27354
G1 X82.069 Y92.923 E6.31593
G1 X80.171 Y92.923 E6.39425
G1 X79.685 Y92.883 E6.41437
G1 X79.212 Y92.764 E6.4345
G1 X78.765 Y92.57 E6.4546
G1 X78.355 Y92.305 E6.47475
G1 X77.949 Y91.935 E6.49741
G1 X77.634 Y91.563 E6.51753
G1 X77.383 Y91.144 E6.53768
G1 X77.204 Y90.691 E6.55778
G1 X77.102 Y90.214 E6.57791
G1 X77.077 Y89.829 E6.59383
G1 X77.077 Y64.171 E7.65256
G1 X77.117 Y63.685 E7.67269
G1 X77.236 Y63.212 E7.69281
G1 X77.43 Y62.765 E7.71292
G1 X77.695 Y62.355 E7.73306
M204 S3000
G0 F4200 X77.826 Y62.87
M204 S400
G1 F1800 X78.23 Y62.346 E7.76036
G1 X78.694 Y61.938 E7.78586
G1 X79.088 Y61.712 E7.8046
G1 X79.515 Y61.559 E7.82332
G1 X80.171 Y61.474 E7.85061
G1 X82.273 Y61.474 E7.93735
G1 X82.992 Y60.468 E7.98837
G1 X83.072 Y60.362 E7.99385
G1 X83.853 Y59.38 E8.04563
G1 X83.935 Y59.282 E8.0509
G1 X84.749 Y58.357 E8.10174
G1 X84.837 Y58.262 E8.10708
G1 X85.706 Y57.369 E8.1585
G1 X85.799 Y57.279 E8.16384
G1 X86.722 Y56.421 E8.21584
G1 X86.817 Y56.337 E8.22107
G1 X87.76 Y55.543 E8.27194
G1 X87.863 Y55.46 E8.2774
G1 X88.857 Y54.707 E8.32886
G1 X88.961 Y54.632 E8.33415
G1 X89.998 Y53.924 E8.38596
G1 X90.102 Y53.857 E8.39106
G1 X91.162 Y53.206 E8.44239
G1 X91.277 Y53.139 E8.44788
G1 X92.364 Y52.546 E8.49898
G1 X92.481 Y52.486 E8.5044
G1 X93.616 Y51.94 E8.55637
G1 X93.731 Y51.888 E8.56158
G1 X94.865 Y51.409 E8.61238
G1 X94.984 Y51.362 E8.61766
G1 X96.165 Y50.931 E8.66953
G1 X96.288 Y50.89 E8.67488
G1 X97.47 Y50.525 E8.72593
G1 X97.593 Y50.49 E8.73121
G1 X98.807 Y50.18 E8.78291
G1 X98.935 Y50.151 E8.78832
G1 X100.148 Y49.906 E8.83939
G1 X100.273 Y49.884 E8.84462
G1 X101.502 Y49.698 E8.89591
G1 X101.63 Y49.682 E8.90124
G1 X102.874 Y49.557 E8.95283
G1 X103.004 Y49.547 E8.95821
G1 X104.253 Y49.485 E9.00981
G1 X104.381 Y49.482 E9.01509
G1 X105.618 Y49.482 E9.06613
G1 X105.747 Y49.485 E9.07146
G1 X107.003 Y49.548 E9.12335
G1 X107.132 Y49.558 E9.12869
G1 X108.377 Y49.683 E9.18032
G1 X108.505 Y49.699 E9.18564
G1 X109.729 Y49.884 E9.23672
G1 X109.855 Y49.906 E9.242
G1 X111.066 Y50.151 E9.29298
G1 X111.191 Y50.18 E9.29828
G1 X112.385 Y50.484 E9.34912
G1 X112.51 Y50.519 E9.35447
G1 X113.717 Y50.892 E9.4066
G1 X113.84 Y50.933 E9.41195
G1 X115.021 Y51.364 E9.46383
G1 X115.141 Y51.412 E9.46916
G1 X116.276 Y51.892 E9.52001
G1 X116.391 Y51.943 E9.5252
G1 X117.523 Y52.488 E9.57704
G1 X117.639 Y52.548 E9.58243
G1 X118.724 Y53.14 E9.63343
G1 X118.837 Y53.205 E9.63881
G1 X119.901 Y53.857 E9.69031
G1 X120.01 Y53.928 E9.69567
G1 X121.046 Y54.637 E9.74747
G1 X121.147 Y54.71 E9.75262
G1 X122.142 Y55.464 E9.80413
G1 X122.245 Y55.546 E9.80956
G1 X123.187 Y56.339 E9.86037
G1 X123.282 Y56.423 E9.86561
G1 X124.202 Y57.278 E9.91743
G1 X124.297 Y57.371 E9.92292
G1 X125.163 Y58.263 E9.97422
G1 X125.248 Y58.355 E9.97938
G1 X126.067 Y59.285 E10.03052
G1 X126.151 Y59.385 E10.03591
G1 X126.925 Y60.359 E10.08724
G1 X127.002 Y60.462 E10.09255
G1 X127.727 Y61.474 E10.14392
G1 X129.829 Y61.474 E10.23065
G1 X130.281 Y61.514 E10.24938
G1 X130.719 Y61.632 E10.26809
G1 X131.13 Y61.826 E10.28685
G1 X131.654 Y62.23 E10.31415
G1 X132.062 Y62.694 E10.33965
G1 X132.288 Y63.088 E10.35839
G1 X132.441 Y63.515 E10.3771
G1 X132.526 Y64.171 E10.4044
G1 X132.526 Y89.829 E11.46314
G1 X132.486 Y90.281 E11.48186
G1 X132.368 Y90.719 E11.50058
G1 X132.174 Y91.13 E11.51933
G1 X131.77 Y91.654 E11.54663
G1 X131.306 Y92.062 E11.57213
G1 X130.912 Y92.288 E11.59087
G1 X130.485 Y92.441 E11.60959
G1 X129.829 Y92.526 E11.63688
G1 X127.727 Y92.526 E11.72362
G1 X127.008 Y93.532 E11.77464
G1 X126.928 Y93.637 E11.78009
G1 X126.148 Y94.618 E11.8318
G1 X126.065 Y94.717 E11.83713
G1 X125.25 Y95.643 E11.88804
G1 X125.163 Y95.738 E11.89335
G1 X124.294 Y96.631 E11.94477
G1 X124.201 Y96.721 E11.95011
G1 X123.279 Y97.578 E12.00205
G1 X123.185 Y97.662 E12.00725
G1 X122.241 Y98.457 E12.05818
G1 X122.137 Y98.54 E12.06367
G1 X121.143 Y99.293 E12.11512
G1 X121.042 Y99.366 E12.12026
G1 X120.005 Y100.076 E12.17212
G1 X119.894 Y100.148 E12.17758
G1 X118.835 Y100.796 E12.22881
G1 X118.725 Y100.859 E12.23404
G1 X117.637 Y101.453 E12.28519
G1 X117.518 Y101.514 E12.29071
G1 X116.386 Y102.058 E12.34253
G1 X116.274 Y102.109 E12.34761
G1 X115.137 Y102.59 E12.39855
G1 X115.016 Y102.638 E12.40393
G1 X113.835 Y103.069 E12.4558
G1 X113.712 Y103.11 E12.46115
G1 X112.53 Y103.475 E12.5122
G1 X112.406 Y103.51 E12.51751
G1 X111.191 Y103.82 E12.56925
G1 X111.064 Y103.849 E12.57463
G1 X109.852 Y104.094 E12.62565
G1 X109.727 Y104.116 E12.63089
G1 X108.498 Y104.302 E12.68218
G1 X108.37 Y104.318 E12.6875
G1 X107.126 Y104.443 E12.73909
G1 X106.996 Y104.453 E12.74447
G1 X105.747 Y104.515 E12.79607
G1 X105.619 Y104.518 E12.80136
G1 X104.382 Y104.518 E12.8524
G1 X104.253 Y104.515 E12.85772
G1 X102.997 Y104.452 E12.90962
G1 X102.868 Y104.442 E12.91496
G1 X101.623 Y104.317 E12.96659
G1 X101.495 Y104.301 E12.97191
G1 X100.271 Y104.116 E13.02299
G1 X100.144 Y104.094 E13.02831
G1 X98.93 Y103.848 E13.07942
G1 X98.807 Y103.819 E13.08463
G1 X97.616 Y103.516 E13.13534
G1 X97.49 Y103.481 E13.14074
G1 X96.283 Y103.108 E13.19287
G1 X96.16 Y103.067 E13.19822
G1 X94.979 Y102.636 E13.25009
G1 X94.857 Y102.587 E13.25552
G1 X93.717 Y102.104 E13.30661
G1 X93.605 Y102.054 E13.31167
G1 X92.476 Y101.511 E13.36336
G1 X92.358 Y101.45 E13.36884
G1 X91.272 Y100.857 E13.4199
G1 X91.161 Y100.793 E13.42519
G1 X90.1 Y100.143 E13.47653
G1 X89.99 Y100.072 E13.48193
G1 X88.954 Y99.363 E13.53374
G1 X88.853 Y99.29 E13.53888
G1 X87.858 Y98.536 E13.59039
G1 X87.754 Y98.452 E13.59591
G1 X86.812 Y97.658 E13.64674
G1 X86.719 Y97.576 E13.65186
G1 X85.797 Y96.72 E13.70377
G1 X85.701 Y96.627 E13.70929
G1 X84.835 Y95.735 E13.76059
G1 X84.75 Y95.643 E13.76576
G1 X83.933 Y94.715 E13.81678
G1 X83.85 Y94.616 E13.82211
G1 X83.069 Y93.634 E13.87388
G1 X82.989 Y93.528 E13.87936
G1 X82.273 Y92.526 E13.93018
G1 X80.171 Y92.526 E14.01691
G1 X79.719 Y92.486 E14.03564
G1 X79.281 Y92.368 E14.05435
G1 X78.87 Y92.174 E14.07311
G1 X78.346 Y91.77 E14.10041
G1 X77.938 Y91.306 E14.1259
G1 X77.712 Y90.912 E14.14465
G1 X77.559 Y90.485 E14.16336
G1 X77.474 Y89.829 E14.19066
G1 X77.474 Y64.171 E15.24939
G1 X77.514 Y63.719 E15.26812
G1 X77.632 Y63.281 E15.28684
G1 X77.826 Y62.87 E15.30559
M204 S3000
G0 F4200 X78.221 Y62.984
M204 S400
G1 F1800 X78.627 Y62.511 E15.33131
G1 X78.949 Y62.245 E15.34854
G1 X79.316 Y62.046 E15.36577
G1 X79.714 Y61.919 E15.38301
G1 X80.171 Y61.871 E15.40197
G1 X82.486 Y61.871 E15.4975
G1 X82.596 Y61.705 E15.50571
G1 X83.315 Y60.699 E15.55674
G1 X83.383 Y60.61 E15.56136
G1 X84.164 Y59.628 E15.61313
G1 X84.233 Y59.544 E15.61762
G1 X85.047 Y58.619 E15.66846
G1 X85.122 Y58.539 E15.67298
G1 X85.991 Y57.646 E15.7244
G1 X86.069 Y57.569 E15.72892
G1 X86.992 Y56.711 E15.78092
G1 X87.072 Y56.64 E15.78534
G1 X88.015 Y55.846 E15.8362
G1 X88.103 Y55.776 E15.84084
G1 X89.097 Y55.023 E15.8923
G1 X89.185 Y54.96 E15.89677
G1 X90.222 Y54.252 E15.94858
G1 X90.31 Y54.195 E15.9529
G1 X91.37 Y53.544 E16.00423
G1 X91.467 Y53.488 E16.00885
G1 X92.554 Y52.895 E16.05995
G1 X92.653 Y52.844 E16.06454
G1 X93.788 Y52.298 E16.11651
G1 X93.885 Y52.254 E16.12091
G1 X95.019 Y51.775 E16.17171
G1 X95.12 Y51.735 E16.17619
G1 X96.301 Y51.304 E16.22806
G1 X96.406 Y51.269 E16.23263
G1 X97.588 Y50.904 E16.28368
G1 X97.692 Y50.875 E16.28813
G1 X98.906 Y50.565 E16.33983
G1 X99.014 Y50.54 E16.34441
G1 X100.227 Y50.295 E16.39547
G1 X100.332 Y50.277 E16.39987
G1 X101.561 Y50.091 E16.45116
G1 X101.67 Y50.077 E16.45569
G1 X102.914 Y49.952 E16.50728
G1 X103.024 Y49.944 E16.51183
G1 X104.273 Y49.882 E16.56343
G1 X104.381 Y49.879 E16.56789
G1 X105.618 Y49.879 E16.61893
G1 X105.727 Y49.882 E16.62343
G1 X106.983 Y49.945 E16.67533
G1 X107.092 Y49.953 E16.67984
G1 X108.337 Y50.078 E16.73147
G1 X108.445 Y50.092 E16.73596
G1 X109.669 Y50.277 E16.78704
G1 X109.776 Y50.295 E16.79152
G1 X110.987 Y50.54 E16.8425
G1 X111.093 Y50.565 E16.84699
G1 X112.287 Y50.869 E16.89783
G1 X112.393 Y50.898 E16.90237
G1 X113.6 Y51.271 E16.9545
G1 X113.704 Y51.306 E16.95903
G1 X114.885 Y51.737 E17.0109
G1 X114.987 Y51.777 E17.01542
G1 X116.122 Y52.257 E17.06627
G1 X116.218 Y52.301 E17.07063
G1 X117.35 Y52.846 E17.12247
G1 X117.449 Y52.897 E17.12707
G1 X118.534 Y53.489 E17.17807
G1 X118.629 Y53.544 E17.1826
G1 X119.693 Y54.196 E17.23409
G1 X119.785 Y54.256 E17.23862
G1 X120.821 Y54.965 E17.29042
G1 X120.907 Y55.026 E17.29477
G1 X121.902 Y55.78 E17.34629
G1 X121.99 Y55.85 E17.35093
G1 X122.932 Y56.643 E17.40174
G1 X123.012 Y56.714 E17.40615
G1 X123.932 Y57.569 E17.45798
G1 X124.012 Y57.648 E17.46261
G1 X124.878 Y58.54 E17.51391
G1 X124.95 Y58.618 E17.51829
G1 X125.769 Y59.548 E17.56943
G1 X125.84 Y59.632 E17.57397
G1 X126.614 Y60.606 E17.6253
G1 X126.679 Y60.693 E17.62978
G1 X127.404 Y61.705 E17.68115
G1 X127.515 Y61.871 E17.68939
G1 X129.829 Y61.871 E17.78488
G1 X130.245 Y61.911 E17.80212
G1 X130.645 Y62.029 E17.81933
G1 X131.016 Y62.221 E17.83657
G1 X131.489 Y62.627 E17.86229
G1 X131.755 Y62.949 E17.87952
G1 X131.954 Y63.316 E17.89675
G1 X132.081 Y63.714 E17.91399
G1 X132.129 Y64.171 E17.93295
G1 X132.129 Y89.829 E18.99168
G1 X132.089 Y90.245 E19.00893
G1 X131.971 Y90.645 E19.02614
G1 X131.779 Y91.016 E19.04337
G1 X131.373 Y91.489 E19.0691
G1 X131.051 Y91.755 E19.08633
G1 X130.684 Y91.954 E19.10356
G1 X130.286 Y92.081 E19.12079
G1 X129.829 Y92.129 E19.13976
G1 X127.514 Y92.129 E19.23528
G1 X127.404 Y92.295 E19.2435
G1 X126.685 Y93.301 E19.29452
G1 X126.617 Y93.39 E19.29914
G1 X125.837 Y94.371 E19.35086
G1 X125.767 Y94.455 E19.35537
G1 X124.952 Y95.381 E19.40627
G1 X124.878 Y95.461 E19.41077
G1 X124.009 Y96.354 E19.46218
G1 X123.931 Y96.431 E19.46671
G1 X123.009 Y97.288 E19.51865
G1 X122.929 Y97.359 E19.52306
G1 X121.985 Y98.154 E19.57399
G1 X121.897 Y98.224 E19.57863
G1 X120.903 Y98.977 E19.63008
G1 X120.818 Y99.038 E19.6344
G1 X119.781 Y99.748 E19.68626
G1 X119.687 Y99.809 E19.69088
G1 X118.628 Y100.457 E19.74211
G1 X118.535 Y100.511 E19.74655
G1 X117.447 Y101.105 E19.7977
G1 X117.346 Y101.156 E19.80237
G1 X116.214 Y101.7 E19.85419
G1 X116.119 Y101.743 E19.85849
