;FLAVOR:Marlin
;TIME:4982
;Filament used: 4.14866m
;Layer height: 0.2
;MINX:75.579
;MINY:59.077
;MINZ:0.25
;MAXX:165.923
;MAXY:150.923
;MAXZ:4.85
;Generated with Cura_SteamEngine 4.9.0
M140 S60
M105
M190 S60
M104 S200
M105
M109 S200
M82 ;absolute extrusion mode
G21 ;metric values
G90 ;absolute positioning
M82 ;set extruder to absolute mode
M107 ;start with the fan off
G28 X0 Y0 ;move X/Y to min endstops
G28 Z0 ;move Z to min endstops
G1 Z15.0 F120 ;move the platform down 15mm
G92 E0 ;zero the extruded length
G1 F200 E3 ;extrude 3mm of feed stock
G92 E0 ;zero the extruded length again
G1 F120
G0 Y20 F120
M117 Printing...
G5
G92 E0
G92 E0
G1 F3000 E-5
;LAYER_COUNT:24
;LAYER:0
M106 S51
M204 S3000
M205 X10 Y10
G1 F600 Z0.325
G0 F4200 X76.197 Y60.355 Z0.325
M204 S400
;TYPE:SKIRT
G1 F600 Z0.25
G1 F3000 E0.06236
G1 F1800 X76.567 Y59.949 E0.08503
G1 X76.939 Y59.634 E0.10514
G1 X77.358 Y59.383 E0.1253
G1 X77.811 Y59.204 E0.1454
G1 X78.288 Y59.102 E0.16552
G1 X78.673 Y59.077 E0.18144
G1 X118.5 Y59.077 E1.82484
G1 X119.226 Y59.094 E1.8548
G1 X119.382 Y59.102 E1.86125
G1 X120.017 Y59.151 E1.88753
G1 X120.155 Y59.165 E1.89325
G1 X120.8 Y59.245 E1.92007
G1 X120.949 Y59.267 E1.92629
G1 X121.585 Y59.379 E1.95293
G1 X121.736 Y59.41 E1.9593
G1 X122.371 Y59.556 E1.98618
G1 X122.511 Y59.591 E1.99214
G1 X123.122 Y59.763 E2.01833
G1 X123.26 Y59.806 E2.02429
G1 X123.87 Y60.01 E2.05083
G1 X124.012 Y60.062 E2.05707
G1 X124.624 Y60.302 E2.0842
G1 X124.761 Y60.359 E2.09032
G1 X125.369 Y60.633 E2.11784
G1 X125.516 Y60.704 E2.12458
G1 X126.083 Y60.998 E2.15093
G1 X126.205 Y61.065 E2.15667
G1 X126.773 Y61.394 E2.18376
G1 X126.902 Y61.474 E2.19002
G1 X127.413 Y61.806 E2.21517
G1 X127.536 Y61.89 E2.22131
G1 X128.089 Y62.29 E2.24948
G1 X128.196 Y62.371 E2.25501
G1 X128.682 Y62.757 E2.28062
G1 X128.802 Y62.857 E2.28707
G1 X129.275 Y63.275 E2.31311
G1 X129.386 Y63.378 E2.31936
G1 X129.848 Y63.83 E2.34603
G1 X129.949 Y63.934 E2.35202
G1 X130.407 Y64.428 E2.37981
G1 X130.504 Y64.538 E2.38586
G1 X130.902 Y65.012 E2.4114
G1 X130.997 Y65.132 E2.41772
G1 X131.393 Y65.656 E2.44482
G1 X131.48 Y65.778 E2.451
G1 X131.855 Y66.33 E2.47854
G1 X131.933 Y66.45 E2.48445
G1 X132.257 Y66.98 E2.51008
G1 X132.332 Y67.11 E2.51627
G1 X132.635 Y67.667 E2.54244
G1 X132.701 Y67.795 E2.54838
G1 X132.98 Y68.373 E2.57486
G1 X133.05 Y68.526 E2.5818
G1 X133.298 Y69.12 E2.60836
G1 X133.348 Y69.247 E2.614
G1 X133.573 Y69.864 E2.6411
G1 X133.623 Y70.014 E2.64762
G1 X133.814 Y70.639 E2.67459
G1 X133.851 Y70.769 E2.68016
G1 X134.009 Y71.385 E2.70641
G1 X134.042 Y71.53 E2.71254
G1 X134.168 Y72.148 E2.73857
G1 X134.196 Y72.31 E2.74535
G1 X134.291 Y72.956 E2.77229
G1 X134.307 Y73.083 E2.77758
G1 X134.373 Y73.721 E2.80404
G1 X134.385 Y73.879 E2.81058
G1 X134.417 Y74.521 E2.8371
G1 X134.421 Y74.669 E2.84321
G1 X134.421 Y75.318 E2.86999
G1 X134.417 Y75.468 E2.87619
G1 X134.384 Y76.124 E2.90329
G1 X134.373 Y76.271 E2.90937
G1 X134.308 Y76.919 E2.93624
G1 X134.29 Y77.064 E2.94227
G1 X134.197 Y77.684 E2.96814
G1 X134.172 Y77.829 E2.97421
G1 X134.044 Y78.466 E3.00102
G1 X134.009 Y78.619 E3.0075
G1 X133.852 Y79.231 E3.03357
G1 X133.814 Y79.365 E3.03932
G1 X133.621 Y79.994 E3.06647
G1 X133.572 Y80.139 E3.07278
G1 X133.352 Y80.743 E3.09931
G1 X133.299 Y80.88 E3.10537
G1 X133.048 Y81.476 E3.13205
G1 X132.985 Y81.614 E3.13831
G1 X132.7 Y82.205 E3.16539
G1 X132.634 Y82.334 E3.17137
G1 X132.33 Y82.893 E3.19762
G1 X132.254 Y83.025 E3.20391
G1 X131.916 Y83.577 E3.23062
G1 X131.839 Y83.696 E3.23647
G1 X131.478 Y84.227 E3.26296
G1 X131.388 Y84.353 E3.26935
G1 X130.992 Y84.875 E3.29639
G1 X130.899 Y84.99 E3.30249
G1 X130.49 Y85.477 E3.32873
G1 X130.392 Y85.589 E3.33487
G1 X129.948 Y86.067 E3.36179
G1 X129.846 Y86.171 E3.3678
G1 X129.381 Y86.625 E3.39462
G1 X129.274 Y86.725 E3.40066
G1 X128.799 Y87.145 E3.42683
G1 X128.682 Y87.243 E3.43312
G1 X128.179 Y87.644 E3.45967
G1 X128.062 Y87.732 E3.46571
G1 X127.527 Y88.117 E3.49291
G1 X127.412 Y88.196 E3.49866
G1 X126.888 Y88.537 E3.52446
G1 X126.184 Y88.946 E3.55806
G1 X126.057 Y89.016 E3.56404
G1 X125.473 Y89.316 E3.59113
G1 X125.326 Y89.386 E3.59785
G1 X124.721 Y89.656 E3.62519
G1 X124.595 Y89.709 E3.63083
G1 X124.009 Y89.939 E3.6568
G1 X123.87 Y90.01 E3.66324
G1 X124.019 Y90.064 E3.66978
G1 X124.632 Y90.306 E3.69698
G1 X124.762 Y90.361 E3.7028
G1 X125.352 Y90.627 E3.72951
G1 X125.486 Y90.692 E3.73565
G1 X126.056 Y90.984 E3.76208
G1 X126.188 Y91.055 E3.76826
G1 X126.747 Y91.378 E3.7949
G1 X126.875 Y91.457 E3.80111
G1 X127.411 Y91.804 E3.82746
G1 X127.532 Y91.887 E3.83351
G1 X128.056 Y92.264 E3.86015
G1 X128.168 Y92.349 E3.86595
G1 X128.682 Y92.757 E3.89303
G1 X128.805 Y92.86 E3.89965
G1 X129.277 Y93.278 E3.92567
G1 X129.383 Y93.376 E3.93162
G1 X129.846 Y93.828 E3.95832
G1 X129.95 Y93.934 E3.96445
G1 X130.395 Y94.414 E3.99146
G1 X130.491 Y94.523 E3.99745
G1 X130.901 Y95.011 E4.02375
G1 X130.996 Y95.13 E4.03004
G1 X131.391 Y95.652 E4.05705
G1 X131.476 Y95.771 E4.06308
G1 X131.834 Y96.296 E4.0893
G1 X131.916 Y96.423 E4.09554
G1 X132.265 Y96.995 E4.12319
G1 X132.339 Y97.123 E4.12929
G1 X132.635 Y97.667 E4.15484
G1 X132.701 Y97.795 E4.16079
G1 X132.98 Y98.373 E4.18727
G1 X133.05 Y98.526 E4.19421
G1 X133.298 Y99.12 E4.22077
G1 X133.348 Y99.247 E4.22641
G1 X133.569 Y99.853 E4.25302
G1 X133.616 Y99.992 E4.25908
G1 X133.816 Y100.638 E4.28698
G1 X133.859 Y100.791 E4.29354
G1 X134.016 Y101.414 E4.32005
G1 X134.078 Y101.702 E4.33221
G1 X134.077 Y78.673 E5.28246
G1 X134.117 Y78.187 E5.30258
G1 X134.236 Y77.714 E5.32271
G1 X134.43 Y77.267 E5.34281
G1 X134.695 Y76.857 E5.36296
G1 X135.065 Y76.451 E5.38562
G1 X135.437 Y76.136 E5.40574
G1 X135.856 Y75.885 E5.42589
G1 X136.309 Y75.706 E5.44599
G1 X136.786 Y75.604 E5.46612
G1 X137.171 Y75.579 E5.48204
G1 X162.829 Y75.579 E6.54077
G1 X163.315 Y75.619 E6.5609
G1 X163.788 Y75.738 E6.58102
G1 X164.235 Y75.932 E6.60113
G1 X164.645 Y76.197 E6.62127
G1 X165.051 Y76.567 E6.64394
G1 X165.366 Y76.939 E6.66405
G1 X165.617 Y77.358 E6.68421
G1 X165.796 Y77.811 E6.70431
G1 X165.898 Y78.288 E6.72443
G1 X165.923 Y78.673 E6.74035
G1 X165.922 Y118.573 E8.38676
G1 X165.906 Y119.225 E8.41367
G1 X165.899 Y119.377 E8.41995
G1 X165.851 Y120.011 E8.44619
G1 X165.836 Y120.156 E8.4522
G1 X165.755 Y120.803 E8.47911
G1 X165.733 Y120.949 E8.4852
G1 X165.622 Y121.58 E8.51164
G1 X165.592 Y121.728 E8.51787
G1 X165.449 Y122.353 E8.54432
G1 X165.415 Y122.488 E8.55007
G1 X165.241 Y123.113 E8.57684
G1 X165.194 Y123.264 E8.58337
G1 X164.994 Y123.858 E8.60923
G1 X164.946 Y123.99 E8.61502
G1 X164.705 Y124.608 E8.64239
G1 X164.643 Y124.756 E8.64902
G1 X164.37 Y125.358 E8.67629
G1 X164.309 Y125.484 E8.68207
G1 X164.018 Y126.053 E8.70844
G1 X163.945 Y126.188 E8.71477
G1 X163.621 Y126.748 E8.74147
G1 X163.543 Y126.875 E8.74762
G1 X163.196 Y127.411 E8.77397
G1 X163.116 Y127.528 E8.77981
G1 X162.741 Y128.051 E8.80637
G1 X162.65 Y128.172 E8.81262
G1 X162.242 Y128.684 E8.83963
G1 X162.144 Y128.801 E8.84593
G1 X161.724 Y129.276 E8.87209
G1 X161.624 Y129.383 E8.87813
G1 X161.172 Y129.846 E8.90483
G1 X161.066 Y129.95 E8.91096
G1 X160.585 Y130.396 E8.93803
G1 X160.474 Y130.493 E8.94411
G1 X159.989 Y130.9 E8.97024
G1 X159.873 Y130.993 E8.97637
G1 X159.349 Y131.39 E9.0035
G1 X159.228 Y131.477 E9.00965
G1 X158.697 Y131.839 E9.03617
G1 X158.569 Y131.921 E9.04244
G1 X157.996 Y132.27 E9.07012
G1 X157.868 Y132.344 E9.07622
G1 X157.334 Y132.634 E9.1013
G1 X157.212 Y132.697 E9.10696
G1 X156.618 Y132.985 E9.1342
G1 X156.468 Y133.053 E9.141
G1 X155.882 Y133.298 E9.16721
G1 X155.755 Y133.347 E9.17282
G1 X155.142 Y133.571 E9.19975
G1 X154.997 Y133.62 E9.20607
G1 X154.358 Y133.817 E9.23366
G1 X154.204 Y133.86 E9.24026
G1 X153.577 Y134.017 E9.26693
G1 X153.444 Y134.047 E9.27256
G1 X152.84 Y134.169 E9.29798
G1 X152.695 Y134.195 E9.30406
G1 X152.06 Y134.291 E9.33056
G1 X151.913 Y134.309 E9.33667
G1 X151.266 Y134.374 E9.3635
G1 X151.114 Y134.385 E9.36979
G1 X150.46 Y134.417 E9.39681
G1 X150.309 Y134.421 E9.40304
G1 X149.648 Y134.42 E9.43032
G1 X149.501 Y134.416 E9.43639
G1 X148.874 Y134.384 E9.46229
G1 X148.729 Y134.373 E9.46829
G1 X148.081 Y134.308 E9.49517
G1 X147.935 Y134.29 E9.50124
G1 X147.31 Y134.196 E9.52732
G1 X147.154 Y134.168 E9.53386
G1 X146.492 Y134.032 E9.56174
G1 X146.352 Y134 E9.56767
G1 X145.747 Y133.845 E9.59344
G1 X145.609 Y133.806 E9.59936
G1 X144.999 Y133.618 E9.6257
G1 X144.855 Y133.57 E9.63196
G1 X144.241 Y133.346 E9.65893
G1 X144.105 Y133.292 E9.66497
G1 X143.519 Y133.045 E9.69121
G1 X143.383 Y132.983 E9.69737
G1 X142.794 Y132.699 E9.72436
G1 X142.663 Y132.632 E9.73043
G1 X142.103 Y132.327 E9.75674
G1 X141.973 Y132.253 E9.76291
G1 X141.422 Y131.916 E9.78956
G1 X141.299 Y131.836 E9.79562
G1 X140.768 Y131.474 E9.82214
G1 X140.647 Y131.387 E9.82829
G1 X140.124 Y130.991 E9.85535
G1 X140.002 Y130.893 E9.86181
G1 X139.497 Y130.467 E9.88907
G1 X139.391 Y130.373 E9.89492
G1 X138.929 Y129.944 E9.92094
G1 X138.824 Y129.842 E9.92698
G1 X138.375 Y129.382 E9.9535
G1 X138.276 Y129.276 E9.95948
G1 X137.851 Y128.796 E9.98594
G1 X137.745 Y128.669 E9.99277
G1 X137.325 Y128.138 E10.0207
G1 X137.238 Y128.022 E10.02668
G1 X136.863 Y127.497 E10.05331
G1 X136.784 Y127.382 E10.05906
G1 X136.452 Y126.868 E10.08431
G1 X136.375 Y126.74 E10.09048
G1 X136.053 Y126.182 E10.11706
G1 X135.982 Y126.052 E10.12317
G1 X135.69 Y125.482 E10.1496
G1 X135.626 Y125.35 E10.15565
G1 X135.355 Y124.75 E10.18282
G1 X135.296 Y124.609 E10.18913
G1 X135.053 Y123.988 E10.21664
G1 X135.003 Y123.852 E10.22262
G1 X134.805 Y123.263 E10.24826
G1 X134.76 Y123.117 E10.25457
G1 X134.585 Y122.492 E10.28135
G1 X134.549 Y122.349 E10.28743
G1 X134.406 Y121.72 E10.31405
G1 X134.377 Y121.574 E10.32019
G1 X134.266 Y120.94 E10.34675
G1 X134.244 Y120.793 E10.35288
G1 X134.164 Y120.148 E10.3797
G1 X134.15 Y120.006 E10.38559
G1 X134.102 Y119.373 E10.41178
G1 X134.094 Y119.22 E10.41811
G1 X134.078 Y118.531 E10.44654
G1 X134.078 Y108.289 E10.86916
G1 X134 Y108.651 E10.88444
G1 X133.838 Y109.279 E10.91121
G1 X133.799 Y109.414 E10.917
G1 X133.619 Y109.997 E10.94218
G1 X133.573 Y110.134 E10.94814
G1 X133.353 Y110.74 E10.97475
G1 X133.299 Y110.88 E10.98094
G1 X133.048 Y111.476 E11.00762
G1 X132.986 Y111.613 E11.01383
G1 X132.705 Y112.196 E11.04053
G1 X132.639 Y112.324 E11.04648
G1 X132.331 Y112.891 E11.0731
G1 X132.254 Y113.025 E11.07948
G1 X131.916 Y113.577 E11.10619
G1 X131.839 Y113.696 E11.11204
G1 X131.478 Y114.227 E11.13853
G1 X131.39 Y114.35 E11.14477
G1 X130.995 Y114.872 E11.17178
G1 X130.896 Y114.996 E11.17833
G1 X130.468 Y115.503 E11.20571
G1 X130.373 Y115.609 E11.21158
G1 X129.952 Y116.062 E11.2371
G1 X129.852 Y116.166 E11.24305
G1 X129.383 Y116.624 E11.2701
G1 X129.275 Y116.724 E11.27618
G1 X128.799 Y117.145 E11.3024
G1 X128.679 Y117.245 E11.30884
G1 X128.152 Y117.664 E11.33662
G1 X128.029 Y117.757 E11.34299
G1 X127.494 Y118.139 E11.37011
G1 X127.382 Y118.215 E11.3757
G1 X126.872 Y118.545 E11.40076
G1 X126.742 Y118.624 E11.40704
G1 X126.184 Y118.946 E11.43362
G1 X126.054 Y119.018 E11.43976
G1 X125.482 Y119.311 E11.46627
G1 X125.346 Y119.376 E11.47249
G1 X124.755 Y119.642 E11.49924
G1 X124.627 Y119.696 E11.50497
G1 X124.014 Y119.938 E11.53216
G1 X123.87 Y120.01 E11.53881
G1 X124.012 Y120.062 E11.54505
G1 X124.624 Y120.302 E11.57217
G1 X124.761 Y120.359 E11.5783
G1 X125.369 Y120.633 E11.60581
G1 X125.516 Y120.704 E11.61255
G1 X126.083 Y120.998 E11.6389
G1 X126.205 Y121.065 E11.64465
G1 X126.773 Y121.394 E11.67173
G1 X126.902 Y121.474 E11.678
G1 X127.413 Y121.806 E11.70314
G1 X127.536 Y121.89 E11.70929
G1 X128.089 Y122.29 E11.73745
G1 X128.196 Y122.371 E11.74299
G1 X128.682 Y122.757 E11.7686
G1 X128.802 Y122.857 E11.77504
G1 X129.275 Y123.275 E11.80109
G1 X129.386 Y123.378 E11.80734
G1 X129.848 Y123.83 E11.83401
G1 X129.949 Y123.934 E11.83999
G1 X130.407 Y124.428 E11.86779
G1 X130.504 Y124.538 E11.87384
G1 X130.902 Y125.012 E11.89938
G1 X130.997 Y125.132 E11.90569
G1 X131.393 Y125.656 E11.9328
G1 X131.48 Y125.778 E11.93898
G1 X131.855 Y126.33 E11.96651
G1 X131.933 Y126.45 E11.97242
G1 X132.257 Y126.98 E11.99805
G1 X132.332 Y127.11 E12.00425
G1 X132.635 Y127.667 E12.03041
G1 X132.701 Y127.795 E12.03635
G1 X132.98 Y128.373 E12.06284
G1 X133.05 Y128.526 E12.06978
G1 X133.298 Y129.12 E12.09634
G1 X133.348 Y129.247 E12.10197
G1 X133.573 Y129.864 E12.12907
G1 X133.623 Y130.014 E12.1356
G1 X133.814 Y130.639 E12.16256
G1 X133.851 Y130.769 E12.16814
G1 X134.009 Y131.385 E12.19438
G1 X134.042 Y131.53 E12.20052
G1 X134.168 Y132.148 E12.22654
G1 X134.196 Y132.31 E12.23333
G1 X134.291 Y132.956 E12.26027
G1 X134.307 Y133.083 E12.26555
G1 X134.373 Y133.721 E12.29202
G1 X134.385 Y133.879 E12.29856
G1 X134.417 Y134.521 E12.32508
G1 X134.421 Y134.669 E12.33119
G1 X134.421 Y135.318 E12.35797
G1 X134.417 Y135.468 E12.36416
G1 X134.384 Y136.124 E12.39126
G1 X134.373 Y136.271 E12.39735
G1 X134.308 Y136.919 E12.42422
G1 X134.29 Y137.064 E12.43025
G1 X134.197 Y137.684 E12.45612
G1 X134.172 Y137.829 E12.46219
G1 X134.044 Y138.466 E12.489
G1 X134.009 Y138.619 E12.49548
G1 X133.852 Y139.231 E12.52155
G1 X133.814 Y139.365 E12.52729
G1 X133.621 Y139.994 E12.55444
G1 X133.572 Y140.139 E12.56076
G1 X133.352 Y140.743 E12.58728
G1 X133.299 Y140.88 E12.59334
G1 X133.048 Y141.476 E12.62003
G1 X132.985 Y141.614 E12.62629
G1 X132.7 Y142.205 E12.65336
G1 X132.634 Y142.334 E12.65934
G1 X132.33 Y142.893 E12.6856
G1 X132.254 Y143.025 E12.69188
G1 X131.916 Y143.577 E12.71859
G1 X131.839 Y143.696 E12.72444
G1 X131.478 Y144.227 E12.75094
G1 X131.388 Y144.353 E12.75732
G1 X130.992 Y144.875 E12.78436
G1 X130.899 Y144.99 E12.79046
G1 X130.49 Y145.477 E12.81671
G1 X130.392 Y145.589 E12.82285
G1 X129.948 Y146.067 E12.84977
G1 X129.846 Y146.171 E12.85578
G1 X129.381 Y146.625 E12.88259
G1 X129.274 Y146.725 E12.88864
G1 X128.799 Y147.145 E12.9148
G1 X128.682 Y147.243 E12.9211
G1 X128.179 Y147.644 E12.94764
G1 X128.062 Y147.732 E12.95368
G1 X127.527 Y148.117 E12.98088
G1 X127.412 Y148.196 E12.98664
G1 X126.888 Y148.537 E13.01243
G1 X126.184 Y148.946 E13.04603
G1 X126.057 Y149.016 E13.05201
G1 X125.473 Y149.316 E13.07911
G1 X125.326 Y149.386 E13.08582
G1 X124.721 Y149.656 E13.11316
G1 X124.595 Y149.709 E13.1188
G1 X124.009 Y149.939 E13.14478
G1 X123.87 Y149.99 E13.15089
G1 X123.272 Y150.191 E13.17692
G1 X123.131 Y150.234 E13.183
G1 X122.507 Y150.41 E13.20976
G1 X122.362 Y150.447 E13.21593
G1 X121.727 Y150.592 E13.24281
G1 X121.578 Y150.622 E13.24908
G1 X120.939 Y150.734 E13.27585
G1 X120.792 Y150.756 E13.28198
G1 X120.155 Y150.835 E13.30847
G1 X120.015 Y150.849 E13.31427
G1 X119.375 Y150.898 E13.34076
G1 X119.222 Y150.906 E13.34708
G1 X118.5 Y150.923 E13.37688
G1 X78.673 Y150.923 E15.02028
G1 X78.187 Y150.883 E15.0404
G1 X77.714 Y150.764 E15.06052
G1 X77.267 Y150.57 E15.08063
G1 X76.857 Y150.305 E15.10078
G1 X76.451 Y149.935 E15.12344
G1 X76.136 Y149.563 E15.14356
G1 X75.885 Y149.144 E15.16371
G1 X75.706 Y148.691 E15.18381
G1 X75.604 Y148.214 E15.20394
G1 X75.579 Y147.829 E15.21986
G1 X75.579 Y122.171 E16.27859
G1 X75.619 Y121.685 E16.29871
G1 X75.738 Y121.212 E16.31884
G1 X75.932 Y120.765 E16.33895
G1 X76.197 Y120.355 E16.35909
G1 X76.516 Y120 E16.37878
G1 X76.136 Y119.563 E16.40268
G1 X75.885 Y119.144 E16.42283
G1 X75.706 Y118.691 E16.44293
G1 X75.604 Y118.214 E16.46306
G1 X75.579 Y117.829 E16.47898
G1 X75.579 Y92.171 E17.53771
G1 X75.619 Y91.685 E17.55784
G1 X75.738 Y91.212 E17.57796
G1 X75.932 Y90.765 E17.59807
G1 X76.197 Y90.355 E17.61821
G1 X76.516 Y90 E17.63791
G1 X76.136 Y89.563 E17.6618
G1 X75.885 Y89.144 E17.68196
G1 X75.706 Y88.691 E17.70206
G1 X75.604 Y88.214 E17.72218
G1 X75.579 Y87.829 E17.7381
G1 X75.579 Y62.171 E18.79684
G1 X75.619 Y61.685 E18.81696
G1 X75.738 Y61.212 E18.83709
G1 X75.932 Y60.765 E18.85719
G1 X76.197 Y60.355 E18.87734
M204 S3000
G0 F4200 X76.328 Y60.87
M204 S400
G1 F1800 X76.732 Y60.346 E18.90464
G1 X77.196 Y59.938 E18.93013
G1 X77.59 Y59.712 E18.94888
G1 X78.017 Y59.559 E18.96759
G1 X78.673 Y59.474 E18.99489
G1 X118.5 Y59.474 E20.63828
G1 X119.216 Y59.491 E20.66784
G1 X119.352 Y59.498 E20.67346
G1 X119.987 Y59.547 E20.69974
G1 X120.106 Y59.559 E20.70467
G1 X120.751 Y59.639 E20.73149
G1 X120.881 Y59.658 E20.73691
