;FLAVOR:Marlin
;TIME:4943
;Filament used: 3.70299m
;Layer height: 0.2
;MINX:74.077
;MINY:54.577
;MINZ:0.25
;MAXX:135.923
;MAXY:155.423
;MAXZ:12.85
;Generated with Cura_SteamEngine 4.9.0
M140 S60
M105
M190 S60
M104 S200
M105
M109 S200
M82 ;absolute extrusion mode
G21 ;metric values
G90 ;absolute positioning
M82 ;set extruder to absolute mode
M107 ;start with the fan off
G28 X0 Y0 ;move X/Y to min endstops
G28 Z0 ;move Z to min endstops
G1 Z15.0 F120 ;move the platform down 15mm
G92 E0 ;zero the extruded length
G1 F200 E3 ;extrude 3mm of feed stock
G92 E0 ;zero the extruded length again
G1 F120
G0 Y20 F120
M117 Printing...
G5
G92 E0
G92 E0
G1 F3000 E-5
;LAYER_COUNT:64
;LAYER:0
M106 S51
M204 S3000
M205 X10 Y10
G1 F600 Z0.325
G0 F4200 X74.944 Y56.059 Z0.325
M204 S400
;TYPE:SKIRT
G1 F600 Z0.25
G1 F3000 E0.06236
G1 F1800 X75.313 Y55.643 E0.08531
G1 X75.344 Y55.614 E0.08706
G1 X75.824 Y55.249 E0.11194
G1 X76.097 Y55.082 E0.12515
G1 X76.605 Y54.834 E0.14847
G1 X77.32 Y54.643 E0.17901
G1 X77.951 Y54.578 E0.20519
G1 X132.04 Y54.577 E2.43708
G1 X132.791 Y54.669 E2.4683
G1 X133.11 Y54.749 E2.48187
G1 X133.661 Y54.947 E2.50603
G1 X133.699 Y54.965 E2.50777
G1 X134.192 Y55.259 E2.53145
G1 X134.455 Y55.453 E2.54494
G1 X134.943 Y55.906 E2.57241
G1 X135.254 Y56.328 E2.59404
G1 X135.42 Y56.6 E2.60719
G1 X135.666 Y57.105 E2.63037
G1 X135.853 Y57.796 E2.65991
G1 X135.922 Y58.445 E2.68684
G1 X135.923 Y85.54 E3.80487
G1 X135.831 Y86.289 E3.83601
G1 X135.751 Y86.609 E3.84962
G1 X135.54 Y87.19 E3.87513
G1 X135.522 Y87.227 E3.87682
G1 X135.244 Y87.687 E3.899
G1 X135.053 Y87.947 E3.91231
G1 X134.597 Y88.44 E3.94002
G1 X134.18 Y88.748 E3.96142
G1 X133.901 Y88.919 E3.97492
G1 X133.423 Y89.144 E3.99672
G1 X133.788 Y89.236 E4.01225
G1 X134.235 Y89.43 E4.03236
G1 X134.645 Y89.695 E4.0525
G1 X135.051 Y90.065 E4.07517
G1 X135.366 Y90.437 E4.09528
G1 X135.617 Y90.856 E4.11544
G1 X135.796 Y91.309 E4.13553
G1 X135.898 Y91.786 E4.15566
G1 X135.923 Y92.171 E4.17158
G1 X135.923 Y117.829 E5.23032
G1 X135.883 Y118.315 E5.25044
G1 X135.764 Y118.788 E5.27056
G1 X135.57 Y119.235 E5.29067
G1 X135.305 Y119.645 E5.31082
G1 X134.935 Y120.051 E5.33348
G1 X134.563 Y120.366 E5.3536
G1 X134.144 Y120.617 E5.37375
G1 X133.691 Y120.796 E5.39385
G1 X133.404 Y120.857 E5.40596
G1 X133.748 Y120.988 E5.42115
G1 X134.178 Y121.251 E5.44194
G1 X134.445 Y121.447 E5.45561
G1 X134.856 Y121.811 E5.47827
G1 X134.886 Y121.843 E5.48008
G1 X135.267 Y122.349 E5.50621
G1 X135.433 Y122.626 E5.51954
G1 X135.656 Y123.082 E5.54048
G1 X135.853 Y123.795 E5.57101
G1 X135.922 Y124.445 E5.59798
G1 X135.922 Y151.542 E6.71609
G1 X135.831 Y152.289 E6.74714
G1 X135.752 Y152.606 E6.76062
G1 X135.54 Y153.189 E6.78622
G1 X135.522 Y153.226 E6.78792
G1 X135.245 Y153.685 E6.81004
G1 X135.052 Y153.948 E6.8235
G1 X134.595 Y154.442 E6.85127
G1 X134.172 Y154.754 E6.87296
G1 X133.898 Y154.921 E6.8862
G1 X133.423 Y155.155 E6.90805
G1 X132.928 Y155.305 E6.92939
G1 X132.365 Y155.405 E6.95299
G1 X132.049 Y155.422 E6.96604
G1 X77.96 Y155.423 E9.19794
G1 X77.215 Y155.332 E9.22891
G1 X76.897 Y155.253 E9.24243
G1 X76.34 Y155.054 E9.26683
G1 X76.302 Y155.036 E9.26857
G1 X75.805 Y154.738 E9.29248
G1 X75.539 Y154.541 E9.30614
G1 X75.055 Y154.092 E9.33338
G1 X75.03 Y154.063 E9.33496
G1 X74.724 Y153.637 E9.3566
G1 X74.554 Y153.35 E9.37037
G1 X74.334 Y152.896 E9.39119
G1 X74.321 Y152.862 E9.39269
G1 X74.177 Y152.353 E9.41451
G1 X74.13 Y152.105 E9.42493
G1 X74.078 Y151.55 E9.44793
G1 X74.078 Y124.454 E10.566
G1 X74.166 Y123.722 E10.59643
G1 X74.241 Y123.414 E10.60951
G1 X74.457 Y122.815 E10.63578
G1 X74.476 Y122.776 E10.63757
G1 X74.756 Y122.313 E10.6599
G1 X74.952 Y122.047 E10.67353
G1 X75.405 Y121.558 E10.70104
G1 X75.827 Y121.247 E10.72267
G1 X76.104 Y121.078 E10.73606
G1 X76.577 Y120.856 E10.75762
G1 X76.212 Y120.764 E10.77315
G1 X75.765 Y120.57 E10.79326
G1 X75.355 Y120.305 E10.8134
G1 X74.949 Y119.935 E10.83607
G1 X74.634 Y119.563 E10.85618
G1 X74.383 Y119.144 E10.87634
G1 X74.204 Y118.691 E10.89643
G1 X74.102 Y118.214 E10.91656
G1 X74.077 Y117.829 E10.93248
G1 X74.077 Y92.171 E11.99122
G1 X74.117 Y91.685 E12.01134
G1 X74.236 Y91.212 E12.03146
G1 X74.43 Y90.765 E12.05157
G1 X74.695 Y90.355 E12.07172
G1 X75.065 Y89.949 E12.09438
G1 X75.437 Y89.634 E12.1145
G1 X75.856 Y89.383 E12.13465
G1 X76.309 Y89.204 E12.15475
G1 X76.58 Y89.146 E12.16618
G1 X76.403 Y89.083 E12.17394
G1 X75.788 Y88.727 E12.20326
G1 X75.527 Y88.531 E12.21673
G1 X75.14 Y88.184 E12.23818
G1 X75.111 Y88.153 E12.23993
G1 X74.732 Y87.651 E12.26588
G1 X74.356 Y86.95 E12.29871
G1 X74.342 Y86.915 E12.30026
G1 X74.19 Y86.407 E12.32214
G1 X74.098 Y85.899 E12.34344
G1 X74.078 Y85.552 E12.35779
G1 X74.078 Y58.453 E13.47598
G1 X74.167 Y57.715 E13.50665
G1 X74.242 Y57.41 E13.51961
G1 X74.47 Y56.789 E13.54691
G1 X74.489 Y56.751 E13.54866
G1 X74.75 Y56.324 E13.56931
G1 X74.944 Y56.059 E13.58287
M204 S3000
G0 F4200 X75.264 Y56.293
M204 S400
G1 F1800 X75.615 Y55.904 E13.60449
G1 X76.031 Y55.587 E13.62607
G1 X76.745 Y55.205 E13.65948
G1 X77.401 Y55.032 E13.68748
G1 X77.951 Y54.975 E13.71029
G1 X132.04 Y54.974 E15.94219
G1 X132.695 Y55.055 E15.96942
G1 X133.014 Y55.135 E15.98299
G1 X133.491 Y55.305 E16.00389
G1 X133.956 Y55.579 E16.02616
G1 X134.219 Y55.773 E16.03964
G1 X134.642 Y56.165 E16.06344
G1 X135.081 Y56.806 E16.0955
G1 X135.307 Y57.277 E16.11705
G1 X135.465 Y57.88 E16.14277
G1 X135.525 Y58.445 E16.16622
G1 X135.526 Y85.54 E17.28425
G1 X135.446 Y86.193 E17.3114
G1 X135.366 Y86.513 E17.32501
G1 X135.183 Y87.016 E17.34709
G1 X134.924 Y87.452 E17.36802
G1 X134.733 Y87.712 E17.38133
G1 X134.338 Y88.139 E17.40533
G1 X133.694 Y88.581 E17.43756
G1 X133.18 Y88.822 E17.46099
G1 X132.444 Y88.988 E17.49212
G1 X132.009 Y89.025 E17.51014
G1 X77.955 Y89.025 E19.74059
G1 X77.296 Y88.944 E19.76798
G1 X76.594 Y88.733 E19.79823
G1 X76.559 Y88.718 E19.7998
G1 X76.026 Y88.41 E19.8252
G1 X75.43 Y87.913 E19.85722
G1 X75.401 Y87.882 E19.85898
G1 X75.073 Y87.447 E19.88146
G1 X74.725 Y86.803 E19.91166
G1 X74.53 Y86.088 E19.94224
G1 X74.475 Y85.552 E19.96448
G1 X74.475 Y58.453 E21.08267
G1 X74.553 Y57.81 E21.1094
G1 X74.628 Y57.505 E21.12236
G1 X74.825 Y56.967 E21.146
G1 X75.264 Y56.293 E21.17919
M204 S3000
G0 F4200 X75.585 Y56.528
M204 S400
G1 F1800 X75.886 Y56.194 E21.19774
G1 X76.511 Y55.759 E21.22916
G1 X76.916 Y55.565 E21.24769
G1 X77.483 Y55.42 E21.27184
G1 X77.951 Y55.372 E21.29126
G1 X132.04 Y55.371 E23.52315
G1 X132.598 Y55.44 E23.54635
G1 X133.321 Y55.664 E23.57758
G1 X133.983 Y56.092 E23.61011
G1 X134.366 Y56.453 E23.63183
G1 X134.742 Y57.013 E23.65966
G1 X134.935 Y57.416 E23.6781
G1 X135.077 Y57.963 E23.70142
G1 X135.128 Y58.445 E23.72142
G1 X135.129 Y85.54 E24.83945
G1 X135.061 Y86.097 E24.8626
G1 X134.826 Y86.842 E24.89484
G1 X134.413 Y87.477 E24.92609
G1 X134.05 Y87.863 E24.94796
G1 X133.486 Y88.242 E24.976
G1 X133.014 Y88.459 E24.99743
G1 X132.377 Y88.597 E25.02433
G1 X132.009 Y88.628 E25.03957
G1 X77.955 Y88.628 E27.27002
G1 X77.394 Y88.559 E27.29334
G1 X76.751 Y88.368 E27.32102
G1 X76.716 Y88.353 E27.32259
G1 X76.265 Y88.092 E27.34409
G1 X75.72 Y87.642 E27.37325
G1 X75.413 Y87.243 E27.39403
G1 X75.093 Y86.655 E27.42165
G1 X74.919 Y86.009 E27.44926
G1 X74.872 Y85.552 E27.46821
G1 X74.872 Y58.453 E28.58641
G1 X74.938 Y57.904 E28.60923
G1 X75.181 Y57.144 E28.64215
G1 X75.585 Y56.528 E28.67255
M204 S3000
G0 F4200 X75.905 Y56.762
M204 S400
G1 F1800 X76.157 Y56.484 E28.68803
G1 X76.718 Y56.098 E28.71613
G1 X77.056 Y55.937 E28.73158
G1 X77.564 Y55.809 E28.75319
G1 X77.951 Y55.769 E28.76925
G1 X132.04 Y55.768 E31.00114
G1 X132.502 Y55.825 E31.02035
G1 X133.151 Y56.023 E31.04835
G1 X133.748 Y56.412 E31.07775
G1 X134.065 Y56.712 E31.09576
G1 X134.403 Y57.22 E31.12094
G1 X134.563 Y57.556 E31.13629
G1 X134.689 Y58.047 E31.15721
G1 X134.731 Y58.445 E31.17372
G1 X134.732 Y85.54 E32.29176
G1 X134.676 Y86 E32.31088
G1 X134.469 Y86.669 E32.33977
G1 X134.093 Y87.242 E32.36805
G1 X133.791 Y87.562 E32.38621
G1 X133.279 Y87.904 E32.41162
G1 X132.885 Y88.084 E32.42949
G1 X132.31 Y88.205 E32.45374
G1 X132.009 Y88.231 E32.4662
G1 X77.955 Y88.231 E34.69665
G1 X77.491 Y88.174 E34.71594
G1 X76.907 Y88.004 E34.74104
G1 X76.503 Y87.775 E34.7602
G1 X76.01 Y87.371 E34.7865
G1 X75.589 Y86.763 E34.81702
G1 X75.448 Y86.473 E34.83032
G1 X75.307 Y85.929 E34.85351
G1 X75.269 Y85.552 E34.86915
G1 X75.269 Y58.453 E35.98734
G1 X75.324 Y57.999 E36.00621
G1 X75.536 Y57.322 E36.03549
G1 X75.905 Y56.762 E36.06316
M204 S3000
G0 F4200 X76.225 Y56.997
M204 S400
G1 F1800 X76.428 Y56.774 E36.0756
G1 X76.926 Y56.436 E36.10044
G1 X77.398 Y56.25 E36.12137
G1 X77.951 Y56.166 E36.14445
G1 X132.04 Y56.165 E38.37635
G1 X132.405 Y56.21 E38.39152
G1 X132.981 Y56.382 E38.41633
G1 X133.512 Y56.731 E38.44255
G1 X133.765 Y56.971 E38.45694
G1 X134.064 Y57.427 E38.47944
G1 X134.249 Y57.89 E38.50001
G1 X134.334 Y58.445 E38.52318
G1 X134.335 Y85.54 E39.64121
G1 X134.29 Y85.904 E39.65634
G1 X134.112 Y86.495 E39.68181
G1 X133.773 Y87.007 E39.70715
G1 X133.532 Y87.262 E39.72163
G1 X133.071 Y87.565 E39.74439
G1 X132.757 Y87.708 E39.75863
G1 X132.243 Y87.814 E39.78028
G1 X132.009 Y87.834 E39.78997
G1 X77.955 Y87.834 E42.02042
G1 X77.588 Y87.789 E42.03568
G1 X77.063 Y87.639 E42.05821
G1 X76.48 Y87.261 E42.08688
G1 X76.271 Y87.069 E42.09859
G1 X75.929 Y86.559 E42.12393
G1 X75.745 Y86.088 E42.1448
G1 X75.666 Y85.552 E42.16715
G1 X75.666 Y58.453 E43.28535
G1 X75.709 Y58.094 E43.30027
G1 X75.891 Y57.499 E43.32594
G1 X76.225 Y56.997 E43.35082
M204 S3000
G0 F4200 X76.669 Y57.093
M204 S400
G1 F1800 X77.133 Y56.775 E43.37403
G1 X77.479 Y56.638 E43.38939
G1 X77.951 Y56.563 E43.40911
G1 X132.04 Y56.562 E45.641
G1 X132.628 Y56.675 E45.66571
G1 X133.013 Y56.857 E45.68328
G1 X133.439 Y57.202 E45.7059
G1 X133.726 Y57.634 E45.7273
G1 X133.861 Y57.974 E45.7424
G1 X133.937 Y58.445 E45.76208
G1 X133.938 Y85.54 E46.88011
G1 X133.825 Y86.128 E46.90482
G1 X133.644 Y86.512 E46.92234
G1 X133.301 Y86.936 E46.94484
G1 X132.864 Y87.227 E46.96651
G1 X132.475 Y87.372 E46.98364
G1 X132.009 Y87.437 E47.00305
G1 X77.955 Y87.437 E49.2335
G1 X77.368 Y87.324 E49.25817
G1 X76.98 Y87.14 E49.27589
G1 X76.561 Y86.797 E49.29823
G1 X76.27 Y86.355 E49.32007
G1 X76.134 Y86.008 E49.33544
G1 X76.063 Y85.552 E49.35449
G1 X76.063 Y58.453 E50.47268
G1 X76.17 Y57.884 E50.49657
G1 X76.352 Y57.496 E50.51426
G1 X76.669 Y57.093 E50.53541
M204 S3000
G0 F4200 X76.672 Y57.731
M204 S400
G1 F1800 X76.971 Y57.354 E50.55527
G1 X77.442 Y57.064 E50.57809
G1 X77.951 Y56.96 E50.59953
G1 X132.04 Y56.959 E52.83142
G1 X132.531 Y57.06 E52.85211
G1 X132.778 Y57.176 E52.86337
G1 X133.163 Y57.49 E52.88387
G1 X133.436 Y57.942 E52.90566
G1 X133.54 Y58.445 E52.92685
G1 X133.541 Y85.54 E54.04488
G1 X133.44 Y86.032 E54.06561
G1 X133.324 Y86.277 E54.07679
G1 X133.013 Y86.66 E54.09715
G1 X132.538 Y86.944 E54.11999
G1 X132.009 Y87.04 E54.14217
G1 X77.955 Y87.04 E56.37262
G1 X77.465 Y86.939 E56.39327
G1 X77.218 Y86.823 E56.40453
G1 X76.851 Y86.526 E56.42401
G1 X76.568 Y86.065 E56.44633
G1 X76.46 Y85.552 E56.46796
G1 X76.46 Y58.453 E57.58616
G1 X76.555 Y57.979 E57.6061
G1 X76.672 Y57.731 E57.61742
M204 S3000
G0 F4200 X76.992 Y57.965
M204 S400
G1 F1800 X77.274 Y57.619 E57.63584
G1 X77.642 Y57.415 E57.6532
G1 X77.951 Y57.357 E57.66617
G1 X132.04 Y57.356 E59.89807
G1 X132.509 Y57.476 E59.91804
G1 X132.882 Y57.775 E59.93777
G1 X133.085 Y58.141 E59.95504
G1 X133.143 Y58.445 E59.96781
G1 X133.143 Y85.562 E61.08675
G1 X133.004 Y86.042 E61.10737
G1 X132.728 Y86.379 E61.12534
G1 X132.341 Y86.589 E61.14351
G1 X132.009 Y86.643 E61.15739
G1 X77.933 Y86.642 E63.38874
G1 X77.457 Y86.505 E63.40918
G1 X77.115 Y86.221 E63.42753
G1 X76.912 Y85.849 E63.44501
G1 X76.857 Y85.552 E63.45748
G1 X76.858 Y58.431 E64.57658
G1 X76.992 Y57.965 E64.59659
M204 S3000
G1 F3000 E59.59659
G0 F4200 X77.171 Y89.474
M204 S400
G1 F3000 E64.65895
G1 F1800 X132.829 Y89.474 E66.95559
G1 X133.281 Y89.514 E66.97431
G1 X133.719 Y89.632 E66.99303
G1 X134.13 Y89.826 E67.01178
G1 X134.654 Y90.23 E67.03908
G1 X135.062 Y90.694 E67.06458
G1 X135.288 Y91.088 E67.08332
G1 X135.441 Y91.515 E67.10204
G1 X135.526 Y92.171 E67.12933
G1 X135.526 Y117.829 E68.18807
G1 X135.486 Y118.281 E68.20679
G1 X135.368 Y118.719 E68.22551
G1 X135.174 Y119.13 E68.24426
G1 X134.77 Y119.654 E68.27157
G1 X134.306 Y120.062 E68.29706
G1 X133.912 Y120.288 E68.3158
G1 X133.485 Y120.441 E68.33452
G1 X132.829 Y120.526 E68.36182
G1 X77.171 Y120.526 E70.65845
G1 X76.719 Y120.486 E70.67718
G1 X76.281 Y120.368 E70.69589
G1 X75.87 Y120.174 E70.71465
G1 X75.346 Y119.77 E70.74195
G1 X74.938 Y119.306 E70.76744
G1 X74.712 Y118.912 E70.78619
G1 X74.559 Y118.485 E70.8049
G1 X74.474 Y117.829 E70.8322
G1 X74.474 Y92.171 E71.89093
G1 X74.514 Y91.719 E71.90966
G1 X74.632 Y91.281 E71.92838
G1 X74.826 Y90.87 E71.94713
G1 X75.23 Y90.346 E71.97443
G1 X75.694 Y89.938 E71.99993
G1 X76.088 Y89.712 E72.01867
G1 X76.515 Y89.559 E72.03739
G1 X77.171 Y89.474 E72.06468
M204 S3000
G0 F4200 X77.171 Y89.871
M204 S400
G1 F1800 X132.829 Y89.871 E74.36132
G1 X133.245 Y89.911 E74.37856
G1 X133.645 Y90.029 E74.39577
G1 X134.016 Y90.221 E74.41301
G1 X134.489 Y90.627 E74.43873
G1 X134.755 Y90.949 E74.45596
G1 X134.954 Y91.316 E74.47319
G1 X135.081 Y91.714 E74.49043
G1 X135.129 Y92.171 E74.50939
G1 X135.129 Y117.829 E75.56812
G1 X135.089 Y118.245 E75.58537
G1 X134.971 Y118.645 E75.60258
G1 X134.779 Y119.016 E75.61981
G1 X134.373 Y119.489 E75.64554
G1 X134.051 Y119.755 E75.66277
G1 X133.684 Y119.954 E75.68
G1 X133.286 Y120.081 E75.69724
G1 X132.829 Y120.129 E75.7162
G1 X77.171 Y120.129 E78.01283
G1 X76.755 Y120.089 E78.03008
G1 X76.355 Y119.971 E78.04729
G1 X75.984 Y119.779 E78.06452
G1 X75.511 Y119.373 E78.09024
G1 X75.245 Y119.051 E78.10748
G1 X75.046 Y118.684 E78.1247
G1 X74.919 Y118.286 E78.14194
G1 X74.871 Y117.829 E78.1609
G1 X74.871 Y92.171 E79.21964
G1 X74.911 Y91.755 E79.23688
G1 X75.029 Y91.355 E79.25409
G1 X75.221 Y90.984 E79.27133
G1 X75.627 Y90.511 E79.29705
G1 X75.949 Y90.245 E79.31429
G1 X76.316 Y90.046 E79.33151
G1 X76.714 Y89.919 E79.34875
G1 X77.171 Y89.871 E79.36771
M204 S3000
G0 F4200 X77.171 Y90.268
M204 S400
G1 F1800 X132.829 Y90.268 E81.66435
G1 X133.204 Y90.308 E81.67991
G1 X133.563 Y90.426 E81.6955
G1 X133.889 Y90.616 E81.71107
G1 X134.209 Y90.907 E81.72892
G1 X134.446 Y91.201 E81.7445
G1 X134.616 Y91.538 E81.76008
G1 X134.712 Y91.903 E81.77565
G1 X134.732 Y92.171 E81.78674
G1 X134.732 Y117.829 E82.84548
G1 X134.692 Y118.204 E82.86104
G1 X134.574 Y118.563 E82.87663
G1 X134.384 Y118.889 E82.8922
G1 X134.093 Y119.209 E82.91005
G1 X133.799 Y119.446 E82.92563
G1 X133.462 Y119.616 E82.9412
G1 X133.097 Y119.712 E82.95678
G1 X132.829 Y119.732 E82.96787
G1 X77.171 Y119.732 E85.2645
G1 X76.796 Y119.692 E85.28006
G1 X76.437 Y119.574 E85.29566
G1 X76.111 Y119.384 E85.31123
G1 X75.791 Y119.093 E85.32908
G1 X75.554 Y118.799 E85.34466
G1 X75.384 Y118.462 E85.36023
G1 X75.288 Y118.097 E85.37581
G1 X75.268 Y117.829 E85.3869
G1 X75.268 Y92.171 E86.44563
G1 X75.308 Y91.796 E86.46119
G1 X75.426 Y91.437 E86.47678
G1 X75.616 Y91.111 E86.49235
G1 X75.907 Y90.791 E86.5102
G1 X76.201 Y90.554 E86.52578
G1 X76.538 Y90.384 E86.54136
G1 X76.903 Y90.288 E86.55693
G1 X77.171 Y90.268 E86.56802
M204 S3000
G0 F4200 X77.171 Y90.665
M204 S400
G1 F1800 X132.829 Y90.665 E88.86466
G1 X133.159 Y90.705 E88.87837
G1 X133.471 Y90.822 E88.89212
G1 X133.928 Y91.188 E88.91628
G1 X134.133 Y91.45 E88.93001
G1 X134.271 Y91.753 E88.94375
G1 X134.335 Y92.171 E88.9612
G1 X134.335 Y117.829 E90.01993
G1 X134.295 Y118.159 E90.03365
G1 X134.178 Y118.471 E90.0474
G1 X133.812 Y118.928 E90.07156
G1 X133.55 Y119.133 E90.08529
G1 X133.247 Y119.271 E90.09902
G1 X132.829 Y119.335 E90.11647
G1 X77.171 Y119.335 E92.41311
G1 X76.841 Y119.295 E92.42683
G1 X76.529 Y119.178 E92.44058
G1 X76.072 Y118.812 E92.46474
G1 X75.867 Y118.55 E92.47846
G1 X75.729 Y118.247 E92.4922
G1 X75.665 Y117.829 E92.50965
G1 X75.665 Y92.171 E93.56839
G1 X75.705 Y91.841 E93.5821
G1 X75.822 Y91.529 E93.59585
G1 X76.188 Y91.072 E93.62001
G1 X76.45 Y90.867 E93.63374
G1 X76.753 Y90.729 E93.64748
G1 X77.171 Y90.665 E93.66493
M204 S3000
G0 F4200 X77.171 Y91.062
M204 S400
