;FLAVOR:Marlin
;TIME:4284
;Filament used: 3.00663m
;Layer height: 0.2
;MINX:74.077
;MINY:70.459
;MINZ:0.25
;MAXX:135.923
;MAXY:128.923
;MAXZ:28.85
;Generated with Cura_SteamEngine 4.9.0
M140 S60
M105
M190 S60
M104 S200
M105
M109 S200
M82 ;absolute extrusion mode
G21 ;metric values
G90 ;absolute positioning
M82 ;set extruder to absolute mode
M107 ;start with the fan off
G28 X0 Y0 ;move X/Y to min endstops
G28 Z0 ;move Z to min endstops
G1 Z15.0 F120 ;move the platform down 15mm
G92 E0 ;zero the extruded length
G1 F200 E3 ;extrude 3mm of feed stock
G92 E0 ;zero the extruded length again
G1 F120
G0 Y20 F120
M117 Printing...
G5
G92 E0
G92 E0
G1 F3000 E-5
;LAYER_COUNT:144
;LAYER:0
M106 S51
M204 S3000
M205 X10 Y10
G1 F600 Z0.325
G0 F4200 X75.065 Y71.331 Z0.325
M204 S400
;TYPE:SKIRT
G1 F600 Z0.25
G1 F3000 E0.06236
G1 F1800 X75.437 Y71.016 E0.08288
G1 X75.856 Y70.765 E0.10344
G1 X76.309 Y70.586 E0.12394
G1 X76.786 Y70.484 E0.14447
G1 X77.171 Y70.459 E0.16071
G1 X132.829 Y70.459 E2.50327
G1 X133.315 Y70.499 E2.5238
G1 X133.788 Y70.618 E2.54433
G1 X134.235 Y70.812 E2.56484
G1 X134.645 Y71.077 E2.58538
G1 X135.051 Y71.447 E2.6085
G1 X135.366 Y71.819 E2.62902
G1 X135.617 Y72.238 E2.64958
G1 X135.796 Y72.691 E2.67008
G1 X135.898 Y73.168 E2.69061
G1 X135.923 Y73.553 E2.70684
G1 X135.923 Y102.211 E3.91302
G1 X135.883 Y102.697 E3.93354
G1 X135.764 Y103.17 E3.95407
G1 X135.57 Y103.617 E3.97458
G1 X135.305 Y104.027 E3.99513
G1 X134.935 Y104.433 E4.01825
G1 X134.563 Y104.748 E4.03876
G1 X134.144 Y104.999 E4.05932
G1 X133.691 Y105.178 E4.07982
G1 X133.214 Y105.28 E4.10035
G1 X132.829 Y105.305 E4.11659
G1 X77.171 Y105.305 E6.45916
G1 X76.685 Y105.265 E6.47968
G1 X76.212 Y105.146 E6.50021
G1 X75.765 Y104.952 E6.52072
G1 X75.355 Y104.687 E6.54127
G1 X74.949 Y104.317 E6.56439
G1 X74.634 Y103.945 E6.5849
G1 X74.383 Y103.526 E6.60546
G1 X74.204 Y103.073 E6.62596
G1 X74.102 Y102.596 E6.64649
G1 X74.077 Y102.211 E6.66273
G1 X74.077 Y73.553 E7.86891
G1 X74.117 Y73.067 E7.88943
G1 X74.236 Y72.594 E7.90996
G1 X74.43 Y72.147 E7.93047
G1 X74.695 Y71.737 E7.95101
G1 X75.065 Y71.331 E7.97413
M204 S3000
G0 F4200 X75.23 Y71.728
M204 S400
G1 F1800 X75.694 Y71.32 E8.00014
G1 X76.088 Y71.094 E8.01926
G1 X76.515 Y70.941 E8.03835
G1 X77.171 Y70.856 E8.06619
G1 X132.829 Y70.856 E10.40876
G1 X133.281 Y70.896 E10.42785
G1 X133.719 Y71.014 E10.44695
G1 X134.13 Y71.208 E10.46608
G1 X134.654 Y71.612 E10.49392
G1 X135.062 Y72.076 E10.51993
G1 X135.288 Y72.47 E10.53905
G1 X135.441 Y72.897 E10.55814
G1 X135.526 Y73.553 E10.58598
G1 X135.526 Y102.211 E11.79215
G1 X135.486 Y102.663 E11.81125
G1 X135.368 Y103.101 E11.83034
G1 X135.174 Y103.512 E11.84947
G1 X134.77 Y104.036 E11.87732
G1 X134.306 Y104.444 E11.90333
G1 X133.912 Y104.67 E11.92244
G1 X133.485 Y104.823 E11.94153
G1 X132.829 Y104.908 E11.96938
G1 X77.171 Y104.908 E14.31194
G1 X76.719 Y104.868 E14.33104
G1 X76.281 Y104.75 E14.35013
G1 X75.87 Y104.556 E14.36926
G1 X75.346 Y104.152 E14.39711
G1 X74.938 Y103.688 E14.42312
G1 X74.712 Y103.294 E14.44223
G1 X74.559 Y102.867 E14.46132
G1 X74.474 Y102.211 E14.48917
G1 X74.474 Y73.553 E15.69534
G1 X74.514 Y73.101 E15.71444
G1 X74.632 Y72.663 E15.73353
G1 X74.826 Y72.252 E15.75266
G1 X75.23 Y71.728 E15.78051
M204 S3000
G0 F4200 X75.627 Y71.893
M204 S400
G1 F1800 X75.949 Y71.627 E15.79809
G1 X76.316 Y71.428 E15.81566
G1 X76.714 Y71.301 E15.83324
G1 X77.171 Y71.253 E15.85258
G1 X132.829 Y71.253 E18.19515
G1 X133.245 Y71.293 E18.21274
G1 X133.645 Y71.411 E18.23029
G1 X134.016 Y71.603 E18.24788
G1 X134.489 Y72.009 E18.27411
G1 X134.755 Y72.331 E18.29169
G1 X134.954 Y72.698 E18.30926
G1 X135.081 Y73.096 E18.32684
G1 X135.129 Y73.553 E18.34618
G1 X135.129 Y102.211 E19.55236
G1 X135.089 Y102.627 E19.56995
G1 X134.971 Y103.027 E19.5875
G1 X134.779 Y103.398 E19.60509
G1 X134.373 Y103.871 E19.63132
G1 X134.051 Y104.137 E19.6489
G1 X133.684 Y104.336 E19.66647
G1 X133.286 Y104.463 E19.68405
G1 X132.829 Y104.511 E19.70339
G1 X77.171 Y104.511 E22.04596
G1 X76.755 Y104.471 E22.06355
G1 X76.355 Y104.353 E22.08111
G1 X75.984 Y104.161 E22.09869
G1 X75.511 Y103.755 E22.12492
G1 X75.245 Y103.433 E22.1425
G1 X75.046 Y103.066 E22.16007
G1 X74.919 Y102.668 E22.17766
G1 X74.871 Y102.211 E22.197
G1 X74.871 Y73.553 E23.40317
G1 X74.911 Y73.137 E23.42076
G1 X75.029 Y72.737 E23.43832
G1 X75.221 Y72.366 E23.4559
G1 X75.627 Y71.893 E23.48213
M204 S3000
G0 F4200 X75.907 Y72.173
M204 S400
G1 F1800 X76.201 Y71.936 E23.49803
G1 X76.538 Y71.766 E23.51391
G1 X76.903 Y71.67 E23.5298
G1 X77.171 Y71.65 E23.54111
G1 X132.829 Y71.65 E25.88368
G1 X133.204 Y71.69 E25.89955
G1 X133.563 Y71.808 E25.91546
G1 X133.889 Y71.998 E25.93134
G1 X134.209 Y72.289 E25.94954
G1 X134.446 Y72.583 E25.96544
G1 X134.616 Y72.92 E25.98132
G1 X134.712 Y73.285 E25.99721
G1 X134.732 Y73.553 E26.00852
G1 X134.732 Y102.211 E27.21469
G1 X134.692 Y102.586 E27.23057
G1 X134.574 Y102.945 E27.24647
G1 X134.384 Y103.271 E27.26235
G1 X134.093 Y103.591 E27.28056
G1 X133.799 Y103.828 E27.29645
G1 X133.462 Y103.998 E27.31234
G1 X133.097 Y104.094 E27.32822
G1 X132.829 Y104.114 E27.33953
G1 X77.171 Y104.114 E29.6821
G1 X76.796 Y104.074 E29.69797
G1 X76.437 Y103.956 E29.71388
G1 X76.111 Y103.766 E29.72976
G1 X75.791 Y103.475 E29.74797
G1 X75.554 Y103.181 E29.76386
G1 X75.384 Y102.844 E29.77975
G1 X75.288 Y102.479 E29.79563
G1 X75.268 Y102.211 E29.80694
G1 X75.268 Y73.553 E31.01312
G1 X75.308 Y73.178 E31.02899
G1 X75.426 Y72.819 E31.0449
G1 X75.616 Y72.493 E31.06078
G1 X75.907 Y72.173 E31.07898
M204 S3000
G0 F4200 X76.188 Y72.454
M204 S400
G1 F1800 X76.45 Y72.249 E31.09298
G1 X76.753 Y72.111 E31.107
G1 X77.171 Y72.047 E31.12479
G1 X132.829 Y72.047 E33.46736
G1 X133.159 Y72.087 E33.48135
G1 X133.471 Y72.204 E33.49538
G1 X133.928 Y72.57 E33.52002
G1 X134.133 Y72.832 E33.53402
G1 X134.271 Y73.135 E33.54804
G1 X134.335 Y73.553 E33.56583
G1 X134.335 Y102.211 E34.77201
G1 X134.295 Y102.541 E34.786
G1 X134.178 Y102.853 E34.80002
G1 X133.812 Y103.31 E34.82467
G1 X133.55 Y103.515 E34.83867
G1 X133.247 Y103.653 E34.85268
G1 X132.829 Y103.717 E34.87048
G1 X77.171 Y103.717 E37.21305
G1 X76.841 Y103.677 E37.22704
G1 X76.529 Y103.56 E37.24106
G1 X76.072 Y103.194 E37.26571
G1 X75.867 Y102.932 E37.27971
G1 X75.729 Y102.629 E37.29372
G1 X75.665 Y102.211 E37.31152
G1 X75.665 Y73.553 E38.5177
G1 X75.705 Y73.223 E38.53169
G1 X75.822 Y72.911 E38.54571
G1 X76.188 Y72.454 E38.57035
M204 S3000
G0 F4200 X76.469 Y72.735
M204 S400
G1 F1800 X76.694 Y72.566 E38.5822
G1 X76.957 Y72.467 E38.59403
G1 X77.171 Y72.444 E38.60308
G1 X132.829 Y72.444 E40.94565
G1 X133.107 Y72.484 E40.95747
G1 X133.363 Y72.6 E40.9693
G1 X133.647 Y72.851 E40.98526
G1 X133.816 Y73.076 E40.9971
G1 X133.915 Y73.339 E41.00893
G1 X133.938 Y73.553 E41.01799
G1 X133.938 Y102.211 E42.22416
G1 X133.898 Y102.489 E42.23598
G1 X133.782 Y102.745 E42.24781
G1 X133.531 Y103.029 E42.26376
G1 X133.306 Y103.198 E42.27561
G1 X133.043 Y103.297 E42.28744
G1 X132.829 Y103.32 E42.29649
G1 X77.171 Y103.32 E44.63906
G1 X76.893 Y103.28 E44.65088
G1 X76.637 Y103.164 E44.66271
G1 X76.353 Y102.913 E44.67867
G1 X76.184 Y102.688 E44.69051
G1 X76.085 Y102.425 E44.70234
G1 X76.062 Y102.211 E44.7114
G1 X76.062 Y73.553 E45.91757
G1 X76.102 Y73.275 E45.92939
G1 X76.218 Y73.019 E45.94122
G1 X76.469 Y72.735 E45.95717
M204 S3000
G0 F4200 X76.75 Y73.016
M204 S400
G1 F1800 X76.929 Y72.892 E45.96634
G1 X77.171 Y72.841 E45.97675
G1 X132.829 Y72.841 E48.31932
G1 X133.043 Y72.881 E48.32848
G1 X133.366 Y73.132 E48.3457
G1 X133.49 Y73.311 E48.35486
G1 X133.541 Y73.553 E48.36527
G1 X133.541 Y102.211 E49.57145
G1 X133.501 Y102.425 E49.58061
G1 X133.25 Y102.748 E49.59783
G1 X133.071 Y102.872 E49.60699
G1 X132.829 Y102.923 E49.6174
G1 X77.171 Y102.923 E51.95997
G1 X76.957 Y102.883 E51.96913
G1 X76.634 Y102.632 E51.98635
G1 X76.51 Y102.453 E51.99551
G1 X76.459 Y102.211 E52.00592
G1 X76.459 Y73.553 E53.2121
G1 X76.499 Y73.339 E53.22126
G1 X76.75 Y73.016 E53.23848
M204 S3000
G0 F4200 X77.03 Y73.296
M204 S400
G1 F1800 X77.171 Y73.238 E53.2449
G1 X132.829 Y73.238 E55.58746
G1 X132.97 Y73.296 E55.59388
G1 X133.086 Y73.412 E55.60079
G1 X133.144 Y73.553 E55.6072
G1 X133.144 Y102.211 E56.81338
G1 X133.086 Y102.352 E56.8198
G1 X132.97 Y102.468 E56.8267
G1 X132.829 Y102.526 E56.83312
G1 X77.171 Y102.526 E59.17569
G1 X77.03 Y102.468 E59.1821
G1 X76.914 Y102.352 E59.18901
G1 X76.856 Y102.211 E59.19542
G1 X76.856 Y73.553 E60.4016
G1 X76.914 Y73.412 E60.40802
G1 X77.03 Y73.296 E60.41492
M204 S3000
G1 F3000 E55.41492
G0 F4200 X77.171 Y110.077
M204 S400
G1 F3000 E60.47728
G1 F1800 X84.329 Y110.077 E60.77855
G1 X84.815 Y110.117 E60.79908
G1 X85.288 Y110.236 E60.81961
G1 X85.735 Y110.43 E60.84012
G1 X86.145 Y110.695 E60.86066
G1 X86.551 Y111.065 E60.88378
G1 X86.866 Y111.437 E60.9043
G1 X87.117 Y111.856 E60.92486
G1 X87.296 Y112.309 E60.94536
G1 X87.398 Y112.786 E60.96589
G1 X87.423 Y113.171 E60.98212
G1 X87.423 Y120.077 E61.27279
G1 X122.577 Y120.077 E62.75237
G1 X122.577 Y113.171 E63.04304
G1 X122.617 Y112.685 E63.06356
G1 X122.736 Y112.212 E63.08409
G1 X122.93 Y111.765 E63.1046
G1 X123.195 Y111.355 E63.12515
G1 X123.565 Y110.949 E63.14826
G1 X123.937 Y110.634 E63.16878
G1 X124.356 Y110.383 E63.18934
G1 X124.809 Y110.204 E63.20984
G1 X125.286 Y110.102 E63.23037
G1 X125.671 Y110.077 E63.24661
G1 X132.829 Y110.077 E63.54788
G1 X133.315 Y110.117 E63.5684
G1 X133.788 Y110.236 E63.58893
G1 X134.235 Y110.43 E63.60944
G1 X134.645 Y110.695 E63.62999
G1 X135.051 Y111.065 E63.65311
G1 X135.366 Y111.437 E63.67362
G1 X135.617 Y111.856 E63.69418
G1 X135.796 Y112.309 E63.71468
G1 X135.898 Y112.786 E63.73521
G1 X135.923 Y113.171 E63.75145
G1 X135.923 Y125.829 E64.28421
G1 X135.883 Y126.315 E64.30473
G1 X135.764 Y126.788 E64.32526
G1 X135.57 Y127.235 E64.34577
G1 X135.305 Y127.645 E64.36631
G1 X134.935 Y128.051 E64.38943
G1 X134.563 Y128.366 E64.40995
G1 X134.144 Y128.617 E64.43051
G1 X133.691 Y128.796 E64.45101
G1 X133.214 Y128.898 E64.47154
G1 X132.829 Y128.923 E64.48778
G1 X77.171 Y128.923 E66.83034
G1 X76.685 Y128.883 E66.85087
G1 X76.212 Y128.764 E66.8714
G1 X75.765 Y128.57 E66.89191
G1 X75.355 Y128.305 E66.91245
G1 X74.949 Y127.935 E66.93557
G1 X74.634 Y127.563 E66.95609
G1 X74.383 Y127.144 E66.97665
G1 X74.204 Y126.691 E66.99715
G1 X74.102 Y126.214 E67.01768
G1 X74.077 Y125.829 E67.03392
G1 X74.077 Y113.171 E67.56667
G1 X74.117 Y112.685 E67.5872
G1 X74.236 Y112.212 E67.60773
G1 X74.43 Y111.765 E67.62823
G1 X74.695 Y111.355 E67.64878
G1 X75.065 Y110.949 E67.6719
G1 X75.437 Y110.634 E67.69242
G1 X75.856 Y110.383 E67.71297
G1 X76.309 Y110.204 E67.73348
G1 X76.786 Y110.102 E67.75401
G1 X77.171 Y110.077 E67.77024
M204 S3000
G0 F4200 X77.171 Y110.474
M204 S400
G1 F1800 X84.329 Y110.474 E68.07151
G1 X84.781 Y110.514 E68.09061
G1 X85.219 Y110.632 E68.1097
G1 X85.63 Y110.826 E68.12883
G1 X86.154 Y111.23 E68.15668
G1 X86.562 Y111.694 E68.18269
G1 X86.788 Y112.088 E68.2018
G1 X86.941 Y112.515 E68.2209
G1 X87.026 Y113.171 E68.24874
G1 X87.026 Y120.474 E68.55611
G1 X122.974 Y120.474 E70.06911
G1 X122.974 Y113.171 E70.37648
G1 X123.014 Y112.719 E70.39558
G1 X123.132 Y112.281 E70.41467
G1 X123.326 Y111.87 E70.4338
G1 X123.73 Y111.346 E70.46165
G1 X124.194 Y110.938 E70.48766
G1 X124.588 Y110.712 E70.50677
G1 X125.015 Y110.559 E70.52586
G1 X125.671 Y110.474 E70.55371
G1 X132.829 Y110.474 E70.85498
G1 X133.281 Y110.514 E70.87407
G1 X133.719 Y110.632 E70.89317
G1 X134.13 Y110.826 E70.9123
G1 X134.654 Y111.23 E70.94014
G1 X135.062 Y111.694 E70.96615
G1 X135.288 Y112.088 E70.98527
G1 X135.441 Y112.515 E71.00436
G1 X135.526 Y113.171 E71.0322
G1 X135.526 Y125.829 E71.56496
G1 X135.486 Y126.281 E71.58405
G1 X135.368 Y126.719 E71.60315
G1 X135.174 Y127.13 E71.62227
G1 X134.77 Y127.654 E71.65012
G1 X134.306 Y128.062 E71.67613
G1 X133.912 Y128.288 E71.69525
G1 X133.485 Y128.441 E71.71434
G1 X132.829 Y128.526 E71.74218
G1 X77.171 Y128.526 E74.08475
G1 X76.719 Y128.486 E74.10384
G1 X76.281 Y128.368 E74.12294
G1 X75.87 Y128.174 E74.14206
G1 X75.346 Y127.77 E74.16991
G1 X74.938 Y127.306 E74.19592
G1 X74.712 Y126.912 E74.21504
G1 X74.559 Y126.485 E74.23413
G1 X74.474 Y125.829 E74.26197
G1 X74.474 Y113.171 E74.79473
G1 X74.514 Y112.719 E74.81382
G1 X74.632 Y112.281 E74.83292
G1 X74.826 Y111.87 E74.85204
G1 X75.23 Y111.346 E74.87989
G1 X75.694 Y110.938 E74.9059
G1 X76.088 Y110.712 E74.92502
G1 X76.515 Y110.559 E74.94411
G1 X77.171 Y110.474 E74.97195
M204 S3000
G0 F4200 X77.171 Y110.871
M204 S400
G1 F1800 X84.329 Y110.871 E75.27322
G1 X84.745 Y110.911 E75.29081
G1 X85.145 Y111.029 E75.30836
G1 X85.516 Y111.221 E75.32594
G1 X85.989 Y111.627 E75.35218
G1 X86.255 Y111.949 E75.36976
G1 X86.454 Y112.316 E75.38733
G1 X86.581 Y112.714 E75.40491
G1 X86.629 Y113.171 E75.42425
G1 X86.629 Y120.871 E75.74833
G1 X123.371 Y120.871 E77.29475
G1 X123.371 Y113.171 E77.61884
G1 X123.411 Y112.755 E77.63643
G1 X123.529 Y112.355 E77.65398
G1 X123.721 Y111.984 E77.67156
G1 X124.127 Y111.511 E77.6978
G1 X124.449 Y111.245 E77.71537
G1 X124.816 Y111.046 E77.73295
G1 X125.214 Y110.919 E77.75053
G1 X125.671 Y110.871 E77.76987
G1 X132.829 Y110.871 E78.07114
G1 X133.245 Y110.911 E78.08873
G1 X133.645 Y111.029 E78.10628
G1 X134.016 Y111.221 E78.12386
G1 X134.489 Y111.627 E78.1501
G1 X134.755 Y111.949 E78.16768
G1 X134.954 Y112.316 E78.18525
G1 X135.081 Y112.714 E78.20283
G1 X135.129 Y113.171 E78.22217
G1 X135.129 Y125.829 E78.75493
G1 X135.089 Y126.245 E78.77252
G1 X134.971 Y126.645 E78.79007
G1 X134.779 Y127.016 E78.80766
G1 X134.373 Y127.489 E78.83389
G1 X134.051 Y127.755 E78.85147
G1 X133.684 Y127.954 E78.86904
G1 X133.286 Y128.081 E78.88663
G1 X132.829 Y128.129 E78.90597
G1 X77.171 Y128.129 E81.24853
G1 X76.755 Y128.089 E81.26612
G1 X76.355 Y127.971 E81.28368
G1 X75.984 Y127.779 E81.30126
G1 X75.511 Y127.373 E81.32749
G1 X75.245 Y127.051 E81.34507
G1 X75.046 Y126.684 E81.36264
G1 X74.919 Y126.286 E81.38023
G1 X74.871 Y125.829 E81.39957
G1 X74.871 Y113.171 E81.93233
G1 X74.911 Y112.755 E81.94992
G1 X75.029 Y112.355 E81.96747
G1 X75.221 Y111.984 E81.98505
G1 X75.627 Y111.511 E82.01129
G1 X75.949 Y111.245 E82.02887
G1 X76.316 Y111.046 E82.04644
G1 X76.714 Y110.919 E82.06402
G1 X77.171 Y110.871 E82.08336
M204 S3000
G0 F4200 X77.171 Y111.268
M204 S400
G1 F1800 X84.329 Y111.268 E82.38463
G1 X84.704 Y111.308 E82.4005
G1 X85.063 Y111.426 E82.41641
G1 X85.389 Y111.616 E82.43229
G1 X85.709 Y111.907 E82.45049
G1 X85.946 Y112.201 E82.46639
G1 X86.116 Y112.538 E82.48227
G1 X86.212 Y112.903 E82.49816
G1 X86.232 Y113.171 E82.50947
G1 X86.232 Y121.268 E82.85026
G1 X123.768 Y121.268 E84.4301
G1 X123.768 Y113.171 E84.77089
G1 X123.808 Y112.796 E84.78676
G1 X123.926 Y112.437 E84.80267
G1 X124.116 Y112.111 E84.81855
G1 X124.407 Y111.791 E84.83676
G1 X124.701 Y111.554 E84.85265
G1 X125.038 Y111.384 E84.86854
G1 X125.403 Y111.288 E84.88442
G1 X125.671 Y111.268 E84.89573
G1 X132.829 Y111.268 E85.197
G1 X133.204 Y111.308 E85.21288
G1 X133.563 Y111.426 E85.22878
G1 X133.889 Y111.616 E85.24466
G1 X134.209 Y111.907 E85.26287
G1 X134.446 Y112.201 E85.27876
G1 X134.616 Y112.538 E85.29465
G1 X134.712 Y112.903 E85.31053
G1 X134.732 Y113.171 E85.32184
G1 X134.732 Y125.829 E85.8546
G1 X134.692 Y126.204 E85.87047
G1 X134.574 Y126.563 E85.88638
G1 X134.384 Y126.889 E85.90226
G1 X134.093 Y127.209 E85.92046
G1 X133.799 Y127.446 E85.93636
G1 X133.462 Y127.616 E85.95224
G1 X133.097 Y127.712 E85.96813
G1 X132.829 Y127.732 E85.97944
G1 X77.171 Y127.732 E88.32201
G1 X76.796 Y127.692 E88.33788
G1 X76.437 Y127.574 E88.35379
G1 X76.111 Y127.384 E88.36967
G1 X75.791 Y127.093 E88.38787
G1 X75.554 Y126.799 E88.40377
G1 X75.384 Y126.462 E88.41965
G1 X75.288 Y126.097 E88.43554
G1 X75.268 Y125.829 E88.44685
G1 X75.268 Y113.171 E88.97961
G1 X75.308 Y112.796 E88.99548
G1 X75.426 Y112.437 E89.01138
G1 X75.616 Y112.111 E89.02726
G1 X75.907 Y111.791 E89.04547
G1 X76.201 Y111.554 E89.06136
G1 X76.538 Y111.384 E89.07725
G1 X76.903 Y111.288 E89.09313
G1 X77.171 Y111.268 E89.10445
M204 S3000
G0 F4200 X77.171 Y111.665
M204 S400
G1 F1800 X84.329 Y111.665 E89.40572
G1 X84.659 Y111.705 E89.41971
G1 X84.971 Y111.822 E89.43373
G1 X85.428 Y112.188 E89.45837
