;FLAVOR:Marlin
;TIME:7711
;Filament used: 6.63962m
;Layer height: 0.2
;MINX:44.077
;MINY:44.077
;MINZ:0.25
;MAXX:164.618
;MAXY:165.923
;MAXZ:7.85
;Generated with Cura_SteamEngine 4.9.0
M140 S60
M105
M190 S60
M104 S200
M105
M109 S200
M82 ;absolute extrusion mode
G21 ;metric values
G90 ;absolute positioning
M82 ;set extruder to absolute mode
M107 ;start with the fan off
G28 X0 Y0 ;move X/Y to min endstops
G28 Z0 ;move Z to min endstops
G1 Z15.0 F120 ;move the platform down 15mm
G92 E0 ;zero the extruded length
G1 F200 E3 ;extrude 3mm of feed stock
G92 E0 ;zero the extruded length again
G1 F120
G0 Y20 F120
M117 Printing...
G5
G92 E0
G92 E0
G1 F3000 E-5
;LAYER_COUNT:39
;LAYER:0
M106 S51
M204 S3000
M205 X10 Y10
G1 F600 Z0.325
G0 F4200 X46.789 Y53.719 Z0.325
M204 S400
;TYPE:SKIRT
G1 F600 Z0.25
G1 F3000 E0.06236
G1 F1800 X47.193 Y53.445 E0.08251
G1 X47.636 Y53.241 E0.10263
G1 X48.332 Y53.078 E0.13213
G1 X130.191 Y44.095 E3.53018
G1 X130.516 Y44.077 E3.54361
G1 X148.5 Y44.077 E4.28569
G1 X149.226 Y44.094 E4.31566
G1 X149.382 Y44.102 E4.3221
G1 X150.017 Y44.151 E4.34838
G1 X150.155 Y44.165 E4.35411
G1 X150.8 Y44.245 E4.38093
G1 X150.949 Y44.267 E4.38714
G1 X151.585 Y44.379 E4.41379
G1 X151.736 Y44.41 E4.42015
G1 X152.371 Y44.556 E4.44703
G1 X152.511 Y44.591 E4.45299
G1 X153.122 Y44.763 E4.47918
G1 X153.26 Y44.806 E4.48515
G1 X153.87 Y45.01 E4.51169
G1 X154.012 Y45.062 E4.51793
G1 X154.624 Y45.302 E4.54505
G1 X154.761 Y45.359 E4.55117
G1 X155.369 Y45.633 E4.57869
G1 X155.514 Y45.703 E4.58534
G1 X156.082 Y45.997 E4.61173
G1 X156.202 Y46.063 E4.61738
G1 X156.746 Y46.377 E4.6433
G1 X156.879 Y46.458 E4.64972
G1 X157.415 Y46.806 E4.67609
G1 X157.532 Y46.887 E4.68196
G1 X158.056 Y47.264 E4.7086
G1 X158.168 Y47.349 E4.7144
G1 X158.682 Y47.757 E4.74148
G1 X158.805 Y47.86 E4.7481
G1 X159.277 Y48.278 E4.77412
G1 X159.386 Y48.378 E4.78022
G1 X159.848 Y48.83 E4.80689
G1 X159.949 Y48.934 E4.81287
G1 X160.407 Y49.428 E4.84067
G1 X160.504 Y49.538 E4.84672
G1 X160.902 Y50.012 E4.87226
G1 X160.996 Y50.13 E4.87849
G1 X161.391 Y50.652 E4.9055
G1 X161.476 Y50.771 E4.91153
G1 X161.834 Y51.296 E4.93775
G1 X161.914 Y51.42 E4.94384
G1 X162.256 Y51.979 E4.97088
G1 X162.332 Y52.11 E4.97713
G1 X162.635 Y52.667 E5.0033
G1 X162.701 Y52.795 E5.00924
G1 X162.98 Y53.373 E5.03572
G1 X163.05 Y53.526 E5.04266
G1 X163.298 Y54.12 E5.06923
G1 X163.346 Y54.243 E5.07467
G1 X163.568 Y54.849 E5.1013
G1 X163.62 Y55.002 E5.10797
G1 X163.809 Y55.62 E5.13464
G1 X163.845 Y55.751 E5.14024
G1 X164.008 Y56.386 E5.1673
G1 X164.045 Y56.545 E5.17403
G1 X164.175 Y57.198 E5.20151
G1 X164.198 Y57.331 E5.20708
G1 X164.288 Y57.923 E5.23178
G1 X164.307 Y58.069 E5.23786
G1 X164.374 Y58.726 E5.26511
G1 X164.385 Y58.881 E5.27152
G1 X164.417 Y59.527 E5.29821
G1 X164.421 Y59.678 E5.30444
G1 X164.42 Y60.35 E5.33217
G1 X164.416 Y60.495 E5.33816
G1 X164.385 Y61.113 E5.36369
G1 X164.374 Y61.261 E5.36981
G1 X164.308 Y61.919 E5.3971
G1 X164.29 Y62.064 E5.40313
G1 X164.197 Y62.684 E5.429
G1 X164.17 Y62.836 E5.43537
G1 X164.04 Y63.475 E5.46228
G1 X164.006 Y63.625 E5.46863
G1 X163.837 Y64.28 E5.49654
G1 X163.8 Y64.409 E5.50208
G1 X163.621 Y64.993 E5.52728
G1 X163.572 Y65.139 E5.53363
G1 X163.352 Y65.743 E5.56016
G1 X163.299 Y65.88 E5.56622
G1 X163.048 Y66.476 E5.59291
G1 X162.985 Y66.614 E5.59917
G1 X162.7 Y67.205 E5.62624
G1 X162.634 Y67.334 E5.63222
G1 X162.33 Y67.893 E5.65848
G1 X162.254 Y68.025 E5.66476
G1 X161.916 Y68.577 E5.69147
G1 X161.839 Y68.696 E5.69732
G1 X161.478 Y69.227 E5.72381
G1 X161.388 Y69.353 E5.7302
G1 X160.992 Y69.875 E5.75724
G1 X160.899 Y69.99 E5.76334
G1 X160.49 Y70.477 E5.78958
G1 X160.393 Y70.587 E5.79563
G1 X159.931 Y71.085 E5.82366
G1 X159.819 Y71.2 E5.83029
G1 X159.353 Y71.651 E5.85705
G1 X159.257 Y71.74 E5.86245
G1 X158.802 Y72.143 E5.88753
G1 X158.681 Y72.244 E5.89403
G1 X158.177 Y72.645 E5.92061
G1 X158.062 Y72.732 E5.92656
G1 X157.527 Y73.117 E5.95376
G1 X157.412 Y73.196 E5.95951
G1 X156.888 Y73.537 E5.98531
G1 X156.184 Y73.946 E6.01891
G1 X156.054 Y74.018 E6.02504
G1 X155.482 Y74.311 E6.05156
G1 X155.346 Y74.376 E6.05778
G1 X154.755 Y74.642 E6.08452
G1 X154.627 Y74.696 E6.09025
G1 X154.014 Y74.938 E6.11745
G1 X153.863 Y74.993 E6.12408
G1 X153.255 Y75.196 E6.15053
G1 X153.117 Y75.238 E6.15648
G1 X152.497 Y75.412 E6.18305
G1 X152.349 Y75.45 E6.18936
G1 X151.699 Y75.597 E6.21686
G1 X151.56 Y75.625 E6.22271
G1 X150.943 Y75.734 E6.24856
G1 X150.792 Y75.756 E6.25486
G1 X150.155 Y75.835 E6.28134
G1 X150.015 Y75.849 E6.28715
G1 X149.375 Y75.898 E6.31363
G1 X149.222 Y75.906 E6.31996
G1 X148.5 Y75.923 E6.34976
G1 X130.504 Y75.922 E7.09233
G1 X130.179 Y75.904 E7.10576
G1 X48.332 Y66.922 E10.50332
G1 X47.853 Y66.83 E10.52345
G1 X47.396 Y66.66 E10.54357
G1 X46.973 Y66.418 E10.56368
G1 X46.436 Y65.945 E10.5932
G1 X46.042 Y65.444 E10.6195
G1 X45.815 Y65.012 E10.63964
G1 X45.662 Y64.549 E10.65976
G1 X45.579 Y63.85 E10.68881
G1 X45.579 Y56.15 E11.00654
G1 X45.619 Y55.664 E11.02666
G1 X45.738 Y55.191 E11.04678
G1 X45.932 Y54.744 E11.06689
G1 X46.336 Y54.167 E11.09596
G1 X46.789 Y53.719 E11.12225
M204 S3000
G0 F4200 X47.063 Y54.008
M204 S400
G1 F1800 X47.443 Y53.76 E11.14097
G1 X47.861 Y53.583 E11.1597
G1 X48.375 Y53.472 E11.1814
G1 X130.234 Y44.489 E14.57945
G1 X130.516 Y44.474 E14.59111
G1 X148.5 Y44.474 E15.33319
G1 X149.216 Y44.491 E15.36274
G1 X149.352 Y44.498 E15.36836
G1 X149.987 Y44.547 E15.39464
G1 X150.106 Y44.559 E15.39957
G1 X150.751 Y44.639 E15.42639
G1 X150.881 Y44.658 E15.43181
G1 X151.517 Y44.77 E15.45846
G1 X151.647 Y44.797 E15.46394
G1 X152.282 Y44.943 E15.49082
G1 X152.403 Y44.974 E15.49598
G1 X153.014 Y45.146 E15.52217
G1 X153.134 Y45.182 E15.52734
G1 X153.744 Y45.386 E15.55388
G1 X153.867 Y45.431 E15.55929
G1 X154.479 Y45.671 E15.58641
G1 X154.597 Y45.721 E15.5917
G1 X155.205 Y45.995 E15.61922
G1 X155.331 Y46.056 E15.62499
G1 X155.899 Y46.35 E15.65138
G1 X156.003 Y46.407 E15.65628
G1 X156.547 Y46.721 E15.6822
G1 X156.662 Y46.791 E15.68775
G1 X157.198 Y47.139 E15.71412
G1 X157.3 Y47.209 E15.71923
G1 X157.824 Y47.586 E15.74586
G1 X157.922 Y47.659 E15.75091
G1 X158.436 Y48.067 E15.77798
G1 X158.542 Y48.157 E15.78372
G1 X159.014 Y48.575 E15.80974
G1 X159.108 Y48.662 E15.81502
G1 X159.57 Y49.114 E15.84169
G1 X159.658 Y49.204 E15.84689
G1 X160.116 Y49.698 E15.87468
G1 X160.2 Y49.793 E15.87992
G1 X160.598 Y50.267 E15.90546
G1 X160.679 Y50.37 E15.91086
G1 X161.074 Y50.892 E15.93787
G1 X161.148 Y50.995 E15.94311
G1 X161.506 Y51.52 E15.96933
G1 X161.576 Y51.627 E15.9746
G1 X161.918 Y52.186 E16.00164
G1 X161.983 Y52.3 E16.00706
G1 X162.286 Y52.857 E16.03322
G1 X162.343 Y52.968 E16.03837
G1 X162.684 Y53.679 E16.07091
G1 X162.932 Y54.273 E16.09747
G1 X162.973 Y54.379 E16.10216
G1 X163.195 Y54.985 E16.12879
G1 X163.24 Y55.118 E16.13459
G1 X163.429 Y55.736 E16.16125
G1 X163.461 Y55.849 E16.1661
G1 X163.624 Y56.484 E16.19315
G1 X163.655 Y56.622 E16.19899
G1 X163.785 Y57.275 E16.22646
G1 X163.806 Y57.391 E16.23132
G1 X163.896 Y57.983 E16.25603
G1 X163.912 Y58.109 E16.26127
G1 X163.979 Y58.766 E16.28852
G1 X163.989 Y58.9 E16.29407
G1 X164.021 Y59.546 E16.32076
G1 X164.024 Y59.678 E16.32621
G1 X164.023 Y60.35 E16.35394
G1 X164.02 Y60.475 E16.35909
G1 X163.989 Y61.093 E16.38463
G1 X163.979 Y61.222 E16.38997
G1 X163.913 Y61.88 E16.41725
G1 X163.897 Y62.005 E16.42245
G1 X163.804 Y62.625 E16.44832
G1 X163.781 Y62.757 E16.45385
G1 X163.651 Y63.396 E16.48076
G1 X163.621 Y63.526 E16.48626
G1 X163.452 Y64.181 E16.51418
G1 X163.421 Y64.292 E16.51893
G1 X163.242 Y64.876 E16.54414
G1 X163.199 Y65.003 E16.54967
G1 X162.979 Y65.607 E16.57619
G1 X162.933 Y65.726 E16.58146
G1 X162.682 Y66.322 E16.60814
G1 X162.628 Y66.441 E16.61354
G1 X162.343 Y67.032 E16.64061
G1 X162.285 Y67.144 E16.64582
G1 X161.981 Y67.703 E16.67207
G1 X161.915 Y67.818 E16.67754
G1 X161.577 Y68.37 E16.70425
G1 X161.51 Y68.473 E16.70932
G1 X161.149 Y69.004 E16.73582
G1 X161.071 Y69.113 E16.74135
G1 X160.675 Y69.635 E16.76838
G1 X160.595 Y69.735 E16.77367
G1 X160.186 Y70.222 E16.79991
G1 X160.102 Y70.317 E16.80514
G1 X159.64 Y70.815 E16.83317
G1 X159.543 Y70.915 E16.83892
G1 X159.077 Y71.366 E16.86568
G1 X158.993 Y71.443 E16.87038
G1 X158.538 Y71.846 E16.89546
G1 X158.434 Y71.934 E16.90108
G1 X157.93 Y72.335 E16.92766
G1 X157.831 Y72.41 E16.93279
G1 X157.296 Y72.795 E16.95998
G1 X157.196 Y72.863 E16.96497
G1 X156.672 Y73.204 E16.99077
G1 X155.986 Y73.602 E17.0235
G1 X155.873 Y73.664 E17.02881
G1 X155.301 Y73.957 E17.05533
G1 X155.183 Y74.014 E17.06074
G1 X154.592 Y74.28 E17.08748
G1 X154.481 Y74.327 E17.09246
G1 X153.868 Y74.569 E17.11965
G1 X153.737 Y74.616 E17.12539
G1 X153.129 Y74.819 E17.15184
G1 X153.009 Y74.856 E17.15703
G1 X152.389 Y75.03 E17.1836
G1 X152.261 Y75.062 E17.18904
G1 X151.611 Y75.209 E17.21654
G1 X151.491 Y75.234 E17.2216
G1 X150.874 Y75.343 E17.24745
G1 X150.743 Y75.362 E17.25291
G1 X150.106 Y75.441 E17.2794
G1 X149.985 Y75.453 E17.28442
G1 X149.345 Y75.502 E17.3109
G1 X149.212 Y75.509 E17.3164
G1 X148.5 Y75.526 E17.34579
G1 X130.504 Y75.525 E18.08836
G1 X130.222 Y75.51 E18.10001
G1 X48.375 Y66.528 E21.49757
G1 X47.93 Y66.439 E21.5163
G1 X47.508 Y66.273 E21.53501
G1 X47.121 Y66.036 E21.55374
G1 X46.732 Y65.681 E21.57547
G1 X46.36 Y65.205 E21.60039
G1 X46.157 Y64.799 E21.61912
G1 X46.028 Y64.364 E21.63785
G1 X45.976 Y63.85 E21.65916
G1 X45.976 Y56.15 E21.97689
G1 X46.016 Y55.698 E21.99562
G1 X46.134 Y55.26 E22.01433
G1 X46.328 Y54.849 E22.03309
G1 X46.632 Y54.431 E22.05441
G1 X47.063 Y54.008 E22.07933
M204 S3000
G0 F4200 X47.334 Y54.3
M204 S400
G1 F1800 X47.689 Y54.08 E22.09657
G1 X48.08 Y53.932 E22.11382
G1 X48.419 Y53.867 E22.12806
G1 X130.278 Y44.884 E25.52612
G1 X130.516 Y44.871 E25.53595
G1 X148.5 Y44.871 E26.27803
G1 X149.206 Y44.888 E26.30717
G1 X149.321 Y44.893 E26.31192
G1 X149.956 Y44.942 E26.3382
G1 X150.702 Y45.033 E26.36921
G1 X150.812 Y45.049 E26.3738
G1 X151.448 Y45.161 E26.40045
G1 X151.558 Y45.184 E26.40508
G1 X152.193 Y45.33 E26.43197
G1 X152.296 Y45.356 E26.43635
G1 X152.907 Y45.528 E26.46254
G1 X153.008 Y45.559 E26.4669
G1 X153.618 Y45.763 E26.49344
G1 X153.722 Y45.801 E26.49801
G1 X154.334 Y46.041 E26.52514
G1 X154.434 Y46.083 E26.52961
G1 X155.042 Y46.357 E26.55713
G1 X155.149 Y46.408 E26.56202
G1 X155.717 Y46.702 E26.58841
G1 X155.805 Y46.75 E26.59255
G1 X156.349 Y47.064 E26.61847
G1 X156.446 Y47.124 E26.62318
G1 X156.982 Y47.472 E26.64955
G1 X157.068 Y47.531 E26.65385
G1 X157.592 Y47.908 E26.68049
G1 X157.675 Y47.97 E26.68476
G1 X158.189 Y48.378 E26.71184
G1 X158.279 Y48.454 E26.7167
G1 X158.751 Y48.872 E26.74272
G1 X158.83 Y48.946 E26.74718
G1 X159.292 Y49.398 E26.77385
G1 X159.367 Y49.474 E26.77826
G1 X159.825 Y49.968 E26.80606
G1 X159.896 Y50.049 E26.8105
G1 X160.294 Y50.523 E26.83604
G1 X160.363 Y50.609 E26.84059
G1 X160.758 Y51.131 E26.8676
G1 X161.178 Y51.744 E26.89826
G1 X161.237 Y51.834 E26.9027
G1 X161.579 Y52.393 E26.92974
G1 X161.635 Y52.489 E26.93433
G1 X161.938 Y53.046 E26.96049
G1 X161.986 Y53.141 E26.96489
G1 X162.265 Y53.719 E26.99137
G1 X162.317 Y53.832 E26.9965
G1 X162.601 Y54.516 E27.02706
G1 X162.823 Y55.122 E27.05369
G1 X162.861 Y55.234 E27.05857
G1 X163.05 Y55.852 E27.08524
G1 X163.239 Y56.583 E27.11639
G1 X163.266 Y56.7 E27.12135
G1 X163.396 Y57.353 E27.14882
G1 X163.413 Y57.451 E27.15293
G1 X163.503 Y58.043 E27.17764
G1 X163.517 Y58.149 E27.18205
G1 X163.584 Y58.806 E27.2093
G1 X163.592 Y58.92 E27.21401
G1 X163.624 Y59.566 E27.2407
G1 X163.627 Y59.677 E27.24528
G1 X163.626 Y60.349 E27.27301
G1 X163.623 Y60.455 E27.27739
G1 X163.592 Y61.073 E27.30292
G1 X163.584 Y61.182 E27.30743
G1 X163.518 Y61.84 E27.33472
G1 X163.505 Y61.946 E27.33913
G1 X163.412 Y62.566 E27.365
G1 X163.392 Y62.677 E27.36965
G1 X163.262 Y63.316 E27.39656
G1 X163.237 Y63.427 E27.40125
G1 X163.068 Y64.082 E27.42916
G1 X163.041 Y64.176 E27.4332
G1 X162.862 Y64.76 E27.4584
G1 X162.826 Y64.867 E27.46306
G1 X162.606 Y65.471 E27.48959
G1 X162.567 Y65.572 E27.49406
G1 X162.316 Y66.168 E27.52074
G1 X162.27 Y66.269 E27.52532
G1 X161.985 Y66.86 E27.55239
G1 X161.937 Y66.954 E27.55675
G1 X161.633 Y67.513 E27.58301
G1 X161.577 Y67.61 E27.58763
G1 X161.239 Y68.162 E27.61434
G1 X161.182 Y68.25 E27.61866
G1 X160.821 Y68.781 E27.64516
G1 X160.755 Y68.873 E27.64983
G1 X160.359 Y69.395 E27.67687
G1 X160.291 Y69.48 E27.68136
G1 X159.882 Y69.967 E27.7076
G1 X159.811 Y70.047 E27.71201
G1 X159.349 Y70.545 E27.74004
G1 X159.267 Y70.629 E27.74489
G1 X158.801 Y71.08 E27.77165
G1 X158.73 Y71.146 E27.77565
G1 X158.275 Y71.549 E27.80073
G1 X158.187 Y71.623 E27.80547
G1 X157.683 Y72.024 E27.83205
G1 X157.599 Y72.088 E27.8364
G1 X157.064 Y72.473 E27.8636
G1 X156.979 Y72.531 E27.86785
G1 X156.455 Y72.872 E27.89365
G1 X155.788 Y73.259 E27.92547
G1 X155.692 Y73.311 E27.92997
G1 X155.12 Y73.604 E27.95649
G1 X155.02 Y73.652 E27.96107
G1 X154.429 Y73.918 E27.98781
G1 X154.335 Y73.957 E27.99201
G1 X153.722 Y74.199 E28.0192
G1 X153.612 Y74.24 E28.02405
G1 X153.004 Y74.443 E28.0505
G1 X152.902 Y74.474 E28.0549
G1 X152.282 Y74.648 E28.08147
G1 X152.174 Y74.675 E28.08606
G1 X151.524 Y74.822 E28.11356
G1 X151.422 Y74.843 E28.11786
G1 X150.805 Y74.952 E28.14371
G1 X150.694 Y74.968 E28.14834
G1 X149.955 Y75.058 E28.17906
G1 X149.315 Y75.107 E28.20554
G1 X149.202 Y75.112 E28.21021
G1 X148.5 Y75.129 E28.23919
G1 X130.504 Y75.128 E28.98176
G1 X130.266 Y75.115 E28.9916
G1 X48.419 Y66.133 E32.38915
G1 X48.01 Y66.048 E32.40639
G1 X47.625 Y65.887 E32.42361
G1 X47.277 Y65.655 E32.44087
G1 X46.928 Y65.305 E32.46126
G1 X46.681 Y64.968 E32.4785
G1 X46.502 Y64.591 E32.49573
G1 X46.399 Y64.186 E32.51297
G1 X46.373 Y63.85 E32.52687
G1 X46.373 Y56.15 E32.8446
G1 X46.413 Y55.734 E32.86185
G1 X46.531 Y55.334 E32.87906
G1 X46.723 Y54.963 E32.89629
G1 X47.028 Y54.583 E32.9164
G1 X47.334 Y54.3 E32.9336
M204 S3000
G0 F4200 X47.604 Y54.594
M204 S400
G1 F1800 X47.931 Y54.405 E32.94918
G1 X48.462 Y54.262 E32.97187
G1 X130.321 Y45.279 E36.36993
G1 X130.516 Y45.268 E36.37799
G1 X148.5 Y45.268 E37.12007
G1 X149.197 Y45.285 E37.14884
G1 X149.29 Y45.289 E37.15268
G1 X149.925 Y45.338 E37.17896
G1 X150.653 Y45.427 E37.20922
G1 X150.743 Y45.44 E37.21297
G1 X151.379 Y45.552 E37.23962
G1 X151.469 Y45.57 E37.24341
G1 X152.104 Y45.716 E37.27029
G1 X152.799 Y45.91 E37.30007
G1 X152.882 Y45.935 E37.30365
G1 X153.492 Y46.139 E37.33019
G1 X153.577 Y46.17 E37.33392
G1 X154.189 Y46.41 E37.36104
G1 X154.271 Y46.445 E37.36472
G1 X154.879 Y46.719 E37.39224
G1 X154.966 Y46.761 E37.39623
G1 X155.606 Y47.094 E37.426
G1 X156.15 Y47.408 E37.45192
G1 X156.23 Y47.457 E37.45579
G1 X156.837 Y47.853 E37.48569
G1 X157.361 Y48.23 E37.51233
G1 X157.428 Y48.281 E37.5158
G1 X157.942 Y48.689 E37.54288
G1 X158.016 Y48.751 E37.54687
G1 X158.488 Y49.169 E37.57288
G1 X158.553 Y49.23 E37.57656
G1 X159.015 Y49.682 E37.60323
G1 X159.075 Y49.744 E37.60679
G1 X159.533 Y50.238 E37.63459
G1 X159.592 Y50.304 E37.63824
G1 X159.99 Y50.778 E37.66378
G1 X160.046 Y50.849 E37.66751
G1 X160.441 Y51.371 E37.69452
G1 X160.492 Y51.442 E37.69813
G1 X160.85 Y51.967 E37.72435
G1 X160.898 Y52.041 E37.72799
G1 X161.24 Y52.6 E37.75503
G1 X161.286 Y52.679 E37.7588
G1 X161.589 Y53.236 E37.78497
G1 X161.628 Y53.313 E37.78853
G1 X161.907 Y53.891 E37.81501
G1 X161.951 Y53.985 E37.81929
G1 X162.228 Y54.652 E37.8491
G1 X162.45 Y55.258 E37.87573
G1 X162.481 Y55.35 E37.87973
G1 X162.67 Y55.968 E37.9064
G1 X162.692 Y56.047 E37.90978
G1 X162.855 Y56.682 E37.93683
G1 X162.877 Y56.777 E37.94086
G1 X163.007 Y57.43 E37.96833
G1 X163.021 Y57.51 E37.97168
G1 X163.111 Y58.102 E37.99639
G1 X163.122 Y58.19 E38.00005
G1 X163.189 Y58.847 E38.0273
G1 X163.196 Y58.94 E38.03115
G1 X163.228 Y59.586 E38.05784
G1 X163.23 Y59.677 E38.0616
G1 X163.229 Y60.349 E38.08932
G1 X163.227 Y60.436 E38.09292
G1 X163.196 Y61.054 E38.11845
G1 X163.189 Y61.142 E38.12209
G1 X163.123 Y61.8 E38.14938
G1 X163.112 Y61.887 E38.153
G1 X163.019 Y62.507 E38.17887
G1 X163.003 Y62.598 E38.18268
G1 X162.873 Y63.237 E38.20959
G1 X162.852 Y63.327 E38.2134
G1 X162.662 Y64.06 E38.24465
G1 X162.483 Y64.644 E38.26985
G1 X162.453 Y64.732 E38.27369
G1 X162.233 Y65.336 E38.30021
G1 X162.201 Y65.418 E38.30384
G1 X161.95 Y66.014 E38.33053
