;FLAVOR:Marlin
;TIME:8934
;Filament used: 6.82609m
;Layer height: 0.2
;MINX:45.077
;MINY:56.077
;MINZ:0.25
;MAXX:164.923
;MAXY:157.423
;MAXZ:12.85
;Generated with Cura_SteamEngine 4.9.0
M140 S60
M105
M190 S60
M104 S200
M105
M109 S200
M82 ;absolute extrusion mode
G21 ;metric values
G90 ;absolute positioning
M82 ;set extruder to absolute mode
M107 ;start with the fan off
G28 X0 Y0 ;move X/Y to min endstops
G28 Z0 ;move Z to min endstops
G1 Z15.0 F120 ;move the platform down 15mm
G92 E0 ;zero the extruded length
G1 F200 E3 ;extrude 3mm of feed stock
G92 E0 ;zero the extruded length again
G1 F120
G0 Y20 F120
M117 Printing...
G5
G92 E0
G92 E0
G1 F3000 E-5
;LAYER_COUNT:64
;LAYER:0
M106 S51
M204 S3000
M205 X10 Y10
G1 F600 Z0.325
G0 F4200 X46.437 Y56.634 Z0.325
M204 S400
;TYPE:SKIRT
G1 F600 Z0.25
G1 F3000 E0.06236
G1 F1800 X46.856 Y56.383 E0.08252
G1 X47.309 Y56.204 E0.10262
G1 X47.786 Y56.102 E0.12274
G1 X48.171 Y56.077 E0.13866
G1 X161.829 Y56.077 E4.82857
G1 X162.315 Y56.117 E4.8487
G1 X162.788 Y56.236 E4.86882
G1 X163.235 Y56.43 E4.88893
G1 X163.645 Y56.695 E4.90907
G1 X164.051 Y57.065 E4.93174
G1 X164.366 Y57.437 E4.95185
G1 X164.617 Y57.856 E4.97201
G1 X164.796 Y58.309 E4.99211
G1 X164.898 Y58.786 E5.01223
G1 X164.923 Y59.171 E5.02815
G1 X164.923 Y68.829 E5.42667
G1 X164.883 Y69.315 E5.4468
G1 X164.764 Y69.788 E5.46692
G1 X164.57 Y70.235 E5.48703
G1 X164.305 Y70.645 E5.50717
G1 X163.935 Y71.051 E5.52984
G1 X163.563 Y71.366 E5.54995
G1 X163.144 Y71.617 E5.57011
G1 X162.691 Y71.796 E5.59021
G1 X162.214 Y71.898 E5.61033
G1 X161.829 Y71.923 E5.62625
G1 X146.635 Y71.923 E6.25321
G1 X145.886 Y71.827 E6.28437
G1 X145.375 Y71.653 E6.30664
G1 X145.045 Y71.481 E6.322
G1 X144.021 Y70.863 E6.37135
G1 X142.791 Y71.541 E6.4293
G1 X142.12 Y71.81 E6.45913
G1 X141.595 Y71.909 E6.48118
G1 X141.308 Y71.923 E6.49304
G1 X134.71 Y71.923 E6.76529
G1 X134.224 Y71.883 E6.78541
G1 X133.751 Y71.764 E6.80554
G1 X133.304 Y71.57 E6.82565
G1 X132.894 Y71.305 E6.84579
G1 X132.533 Y70.977 E6.86592
G1 X132.131 Y70.448 E6.89333
G1 X131.89 Y70.024 E6.91346
G1 X131.722 Y69.566 E6.93359
G1 X131.632 Y69.087 E6.9537
G1 X131.62 Y68.599 E6.97384
G1 X131.688 Y68.116 E6.99397
G1 X131.812 Y67.707 E7.0116
G1 X132.062 Y67.055 E7.04042
G1 X132.135 Y66.887 E7.04797
G1 X132.353 Y66.405 E7.0698
G1 X132.456 Y66.198 E7.07934
G1 X132.913 Y65.366 E7.11851
G1 X133.193 Y64.931 E7.13986
G1 X116.923 Y64.924 E7.81121
G1 X116.923 Y68.829 E7.97235
G1 X116.883 Y69.315 E7.99247
G1 X116.764 Y69.788 E8.01259
G1 X116.57 Y70.235 E8.0327
G1 X116.305 Y70.645 E8.05285
G1 X115.935 Y71.051 E8.07551
G1 X115.563 Y71.366 E8.09563
G1 X115.144 Y71.617 E8.11578
G1 X114.691 Y71.796 E8.13588
G1 X114.214 Y71.898 E8.15601
G1 X113.829 Y71.923 E8.17193
G1 X96.171 Y71.923 E8.90055
G1 X95.685 Y71.883 E8.92068
G1 X95.212 Y71.764 E8.9408
G1 X94.765 Y71.57 E8.96091
G1 X94.355 Y71.305 E8.98105
G1 X93.949 Y70.935 E9.00372
G1 X93.634 Y70.563 E9.02383
G1 X93.383 Y70.144 E9.04399
G1 X93.204 Y69.691 E9.06409
G1 X93.102 Y69.214 E9.08421
G1 X93.077 Y68.829 E9.10013
G1 X93.077 Y64.924 E9.26127
G1 X76.807 Y64.931 E9.93262
G1 X77.109 Y65.403 E9.95574
G1 X77.575 Y66.26 E9.996
G1 X77.699 Y66.516 E10.00773
G1 X78.066 Y67.378 E10.04639
G1 X78.227 Y67.826 E10.06604
G1 X78.344 Y68.3 E10.08618
G1 X78.383 Y68.786 E10.1063
G1 X78.342 Y69.272 E10.12642
G1 X78.222 Y69.745 E10.14656
G1 X78.027 Y70.191 E10.16665
G1 X77.714 Y70.67 E10.19026
G1 X77.4 Y71.043 E10.21038
G1 X77.029 Y71.36 E10.23051
G1 X76.612 Y71.612 E10.25062
G1 X76.159 Y71.793 E10.27075
G1 X75.682 Y71.897 E10.29089
G1 X75.287 Y71.923 E10.30723
G1 X68.429 Y71.923 E10.59021
G1 X67.68 Y71.827 E10.62137
G1 X67.169 Y71.653 E10.64364
G1 X66.867 Y71.498 E10.65765
G1 X65.952 Y70.959 E10.70147
G1 X64.955 Y71.524 E10.74876
G1 X64.224 Y71.818 E10.78127
G1 X63.696 Y71.912 E10.8034
G1 X63.44 Y71.923 E10.81397
G1 X48.171 Y71.923 E11.44402
G1 X47.685 Y71.883 E11.46414
G1 X47.212 Y71.764 E11.48427
G1 X46.765 Y71.57 E11.50438
G1 X46.355 Y71.305 E11.52452
G1 X45.949 Y70.935 E11.54719
G1 X45.634 Y70.563 E11.5673
G1 X45.383 Y70.144 E11.58745
G1 X45.204 Y69.691 E11.60755
G1 X45.102 Y69.214 E11.62768
G1 X45.077 Y68.829 E11.6436
G1 X45.077 Y59.171 E12.04212
G1 X45.117 Y58.685 E12.06224
G1 X45.236 Y58.212 E12.08237
G1 X45.43 Y57.765 E12.10248
G1 X45.695 Y57.355 E12.12262
G1 X46.065 Y56.949 E12.14529
G1 X46.437 Y56.634 E12.1654
M204 S3000
G0 F4200 X46.694 Y56.938
M204 S400
G1 F1800 X47.088 Y56.712 E12.18414
G1 X47.515 Y56.559 E12.20286
G1 X48.171 Y56.474 E12.23015
G1 X161.829 Y56.474 E16.92006
G1 X162.281 Y56.514 E16.93879
G1 X162.719 Y56.632 E16.95751
G1 X163.13 Y56.826 E16.97626
G1 X163.654 Y57.23 E17.00356
G1 X164.062 Y57.694 E17.02906
G1 X164.288 Y58.088 E17.0478
G1 X164.441 Y58.515 E17.06652
G1 X164.526 Y59.171 E17.09381
G1 X164.526 Y68.829 E17.49233
G1 X164.486 Y69.281 E17.51106
G1 X164.368 Y69.719 E17.52977
G1 X164.174 Y70.13 E17.54853
G1 X163.77 Y70.654 E17.57583
G1 X163.306 Y71.062 E17.60133
G1 X162.912 Y71.288 E17.62007
G1 X162.485 Y71.441 E17.63878
G1 X161.829 Y71.526 E17.66608
G1 X146.635 Y71.526 E18.29303
G1 X145.986 Y71.443 E18.32003
G1 X145.508 Y71.278 E18.3409
G1 X145.251 Y71.141 E18.35292
G1 X144.031 Y70.404 E18.41173
G1 X142.599 Y71.193 E18.47919
G1 X142.018 Y71.427 E18.50504
G1 X141.973 Y71.439 E18.50696
G1 X141.308 Y71.526 E18.53464
G1 X134.71 Y71.526 E18.80689
G1 X134.258 Y71.486 E18.82561
G1 X133.82 Y71.368 E18.84433
G1 X133.409 Y71.174 E18.86309
G1 X133.039 Y70.912 E18.88179
G1 X132.576 Y70.397 E18.91037
G1 X132.238 Y69.828 E18.93768
G1 X132.089 Y69.399 E18.95642
G1 X132.018 Y68.951 E18.97513
G1 X132.027 Y68.497 E18.99387
G1 X132.183 Y67.849 E19.02137
G1 X132.433 Y67.197 E19.05019
G1 X132.496 Y67.05 E19.05679
G1 X132.714 Y66.568 E19.07862
G1 X132.804 Y66.389 E19.08688
G1 X133.261 Y65.557 E19.12605
G1 X133.391 Y65.345 E19.13631
G1 X133.946 Y64.534 E19.17686
G1 X116.526 Y64.527 E19.89567
G1 X116.526 Y68.829 E20.07319
G1 X116.486 Y69.281 E20.09191
G1 X116.368 Y69.719 E20.11063
G1 X116.174 Y70.13 E20.12938
G1 X115.77 Y70.654 E20.15668
G1 X115.306 Y71.062 E20.18218
G1 X114.912 Y71.288 E20.20092
G1 X114.485 Y71.441 E20.21964
G1 X113.829 Y71.526 E20.24693
G1 X96.171 Y71.526 E20.97556
G1 X95.719 Y71.486 E20.99429
G1 X95.281 Y71.368 E21.013
G1 X94.87 Y71.174 E21.03176
G1 X94.346 Y70.77 E21.05906
G1 X93.938 Y70.306 E21.08455
G1 X93.712 Y69.912 E21.1033
G1 X93.559 Y69.485 E21.12201
G1 X93.474 Y68.829 E21.14931
G1 X93.474 Y64.527 E21.32682
G1 X76.054 Y64.534 E22.04563
G1 X76.083 Y64.572 E22.0476
G1 X76.629 Y65.377 E22.08774
G1 X76.76 Y65.593 E22.09816
G1 X77.226 Y66.45 E22.13842
G1 X77.334 Y66.672 E22.1486
G1 X77.701 Y67.534 E22.18726
G1 X77.85 Y67.953 E22.20561
G1 X77.957 Y68.395 E22.22438
G1 X77.985 Y68.848 E22.24311
G1 X77.933 Y69.299 E22.26184
G1 X77.803 Y69.734 E22.28057
G1 X77.509 Y70.274 E22.30594
G1 X77.096 Y70.786 E22.33309
G1 X76.746 Y71.074 E22.35179
G1 X76.35 Y71.297 E22.37054
G1 X75.921 Y71.447 E22.3893
G1 X75.287 Y71.526 E22.41566
G1 X68.429 Y71.526 E22.69864
G1 X67.78 Y71.443 E22.72564
G1 X67.302 Y71.278 E22.74651
G1 X67.069 Y71.156 E22.75736
G1 X65.957 Y70.501 E22.81061
G1 X64.759 Y71.179 E22.86741
G1 X64.125 Y71.434 E22.89561
G1 X64.078 Y71.446 E22.89761
G1 X63.44 Y71.526 E22.92415
G1 X48.171 Y71.526 E23.5542
G1 X47.719 Y71.486 E23.57292
G1 X47.281 Y71.368 E23.59164
G1 X46.87 Y71.174 E23.61039
G1 X46.346 Y70.77 E23.63769
G1 X45.938 Y70.306 E23.66319
G1 X45.712 Y69.912 E23.68193
G1 X45.559 Y69.485 E23.70065
G1 X45.474 Y68.829 E23.72794
G1 X45.474 Y59.171 E24.12646
G1 X45.514 Y58.719 E24.14519
G1 X45.632 Y58.281 E24.16391
G1 X45.826 Y57.87 E24.18266
G1 X46.23 Y57.346 E24.20996
G1 X46.694 Y56.938 E24.23546
M204 S3000
G0 F4200 X46.949 Y57.245
M204 S400
G1 F1800 X47.316 Y57.046 E24.25268
G1 X47.714 Y56.919 E24.26992
G1 X48.171 Y56.871 E24.28888
G1 X161.829 Y56.871 E28.97879
G1 X162.245 Y56.911 E28.99604
G1 X162.645 Y57.029 E29.01325
G1 X163.016 Y57.221 E29.03048
G1 X163.489 Y57.627 E29.05621
G1 X163.755 Y57.949 E29.07344
G1 X163.954 Y58.316 E29.09067
G1 X164.081 Y58.714 E29.1079
G1 X164.129 Y59.171 E29.12687
G1 X164.129 Y68.829 E29.52539
G1 X164.089 Y69.245 E29.54263
G1 X163.971 Y69.645 E29.55984
G1 X163.779 Y70.016 E29.57708
G1 X163.373 Y70.489 E29.6028
G1 X163.051 Y70.755 E29.62003
G1 X162.684 Y70.954 E29.63726
G1 X162.286 Y71.081 E29.6545
G1 X161.829 Y71.129 E29.67346
G1 X146.635 Y71.129 E30.30042
G1 X146.085 Y71.059 E30.32329
G1 X145.643 Y70.903 E30.34263
G1 X145.456 Y70.801 E30.35142
G1 X144.04 Y69.946 E30.41968
G1 X142.407 Y70.846 E30.49662
G1 X141.916 Y71.043 E30.51845
G1 X141.871 Y71.055 E30.52037
G1 X141.308 Y71.129 E30.5438
G1 X134.71 Y71.129 E30.81606
G1 X134.294 Y71.089 E30.8333
G1 X133.894 Y70.971 E30.85051
G1 X133.523 Y70.779 E30.86775
G1 X133.196 Y70.519 E30.88498
G1 X132.787 Y70.001 E30.91222
G1 X132.586 Y69.635 E30.92945
G1 X132.459 Y69.238 E30.94665
G1 X132.41 Y68.823 E30.96389
G1 X132.44 Y68.407 E30.9811
G1 X132.554 Y67.991 E30.9989
G1 X132.804 Y67.339 E31.02771
G1 X133.076 Y66.732 E31.05516
G1 X133.152 Y66.581 E31.06214
G1 X133.609 Y65.749 E31.1013
G1 X133.719 Y65.569 E31.11001
G1 X134.26 Y64.776 E31.14962
G1 X134.385 Y64.61 E31.15819
G1 X134.778 Y64.137 E31.18357
G1 X116.129 Y64.13 E31.95309
G1 X116.129 Y68.829 E32.14699
G1 X116.089 Y69.245 E32.16423
G1 X115.971 Y69.645 E32.18144
G1 X115.779 Y70.016 E32.19868
G1 X115.373 Y70.489 E32.2244
G1 X115.051 Y70.755 E32.24163
G1 X114.684 Y70.954 E32.25886
G1 X114.286 Y71.081 E32.2761
G1 X113.829 Y71.129 E32.29506
G1 X96.171 Y71.129 E33.02369
G1 X95.755 Y71.089 E33.04093
G1 X95.355 Y70.971 E33.05814
G1 X94.984 Y70.779 E33.07538
G1 X94.511 Y70.373 E33.1011
G1 X94.245 Y70.051 E33.11833
G1 X94.046 Y69.684 E33.13556
G1 X93.919 Y69.286 E33.1528
G1 X93.871 Y68.829 E33.17176
G1 X93.871 Y64.13 E33.36566
G1 X75.222 Y64.137 E34.13518
G1 X75.627 Y64.625 E34.16135
G1 X75.754 Y64.795 E34.1701
G1 X76.3 Y65.6 E34.21024
G1 X76.412 Y65.783 E34.21909
G1 X76.878 Y66.64 E34.25934
G1 X76.968 Y66.827 E34.26791
G1 X77.335 Y67.689 E34.30657
G1 X77.474 Y68.08 E34.32369
G1 X77.569 Y68.487 E34.34093
G1 X77.585 Y68.904 E34.35815
G1 X77.522 Y69.317 E34.37539
G1 X77.381 Y69.71 E34.39262
G1 X77.067 Y70.21 E34.41698
G1 X76.794 Y70.526 E34.43422
G1 X76.465 Y70.784 E34.45147
G1 X76.094 Y70.974 E34.46867
G1 X75.693 Y71.091 E34.4859
G1 X75.287 Y71.129 E34.50273
G1 X68.429 Y71.129 E34.78571
G1 X67.879 Y71.059 E34.80859
G1 X67.829 Y71.046 E34.81072
G1 X67.27 Y70.814 E34.8357
G1 X65.96 Y70.042 E34.89844
G1 X64.563 Y70.833 E34.96468
G1 X64.027 Y71.049 E34.98853
G1 X63.98 Y71.061 E34.99053
G1 X63.44 Y71.129 E35.01299
G1 X48.171 Y71.129 E35.64304
G1 X47.755 Y71.089 E35.66028
G1 X47.355 Y70.971 E35.67749
G1 X46.984 Y70.779 E35.69473
G1 X46.511 Y70.373 E35.72045
G1 X46.245 Y70.051 E35.73769
G1 X46.046 Y69.684 E35.75491
G1 X45.919 Y69.286 E35.77215
G1 X45.871 Y68.829 E35.79111
G1 X45.871 Y59.171 E36.18963
G1 X45.911 Y58.755 E36.20688
G1 X46.029 Y58.355 E36.22409
G1 X46.221 Y57.984 E36.24132
G1 X46.627 Y57.511 E36.26705
G1 X46.949 Y57.245 E36.28428
M204 S3000
G0 F4200 X47.201 Y57.554
M204 S400
G1 F1800 X47.538 Y57.384 E36.29985
G1 X47.903 Y57.288 E36.31543
G1 X48.171 Y57.268 E36.32652
G1 X161.829 Y57.268 E41.01643
G1 X162.204 Y57.308 E41.03199
G1 X162.563 Y57.426 E41.04758
G1 X162.889 Y57.616 E41.06315
G1 X163.209 Y57.907 E41.081
G1 X163.446 Y58.201 E41.09658
G1 X163.616 Y58.538 E41.11216
G1 X163.712 Y58.903 E41.12773
G1 X163.732 Y59.171 E41.13882
G1 X163.732 Y68.829 E41.53734
G1 X163.692 Y69.204 E41.5529
G1 X163.574 Y69.563 E41.5685
G1 X163.384 Y69.889 E41.58407
G1 X163.093 Y70.209 E41.60191
G1 X162.799 Y70.446 E41.6175
G1 X162.462 Y70.616 E41.63307
G1 X162.097 Y70.712 E41.64864
G1 X161.829 Y70.732 E41.65973
G1 X146.635 Y70.732 E42.28669
G1 X146.135 Y70.661 E42.30753
G1 X145.661 Y70.462 E42.32874
G1 X144.048 Y69.488 E42.40649
G1 X142.216 Y70.498 E42.49281
G1 X141.768 Y70.672 E42.51264
G1 X141.308 Y70.732 E42.53179
G1 X134.71 Y70.732 E42.80404
G1 X134.335 Y70.692 E42.8196
G1 X133.976 Y70.574 E42.8352
G1 X133.65 Y70.384 E42.85077
G1 X133.232 Y69.95 E42.87563
G1 X132.937 Y69.445 E42.89976
G1 X132.833 Y69.082 E42.91534
G1 X132.807 Y68.706 E42.9309
G1 X132.924 Y68.133 E42.95503
G1 X133.174 Y67.481 E42.98384
G1 X133.438 Y66.896 E43.01032
G1 X133.5 Y66.772 E43.01605
G1 X133.957 Y65.94 E43.05521
G1 X134.047 Y65.793 E43.06233
G1 X134.588 Y65 E43.10194
G1 X134.69 Y64.864 E43.10895
G1 X135.308 Y64.121 E43.14883
G1 X135.682 Y63.741 E43.17083
G1 X115.732 Y63.733 E43.99404
G1 X115.732 Y68.829 E44.20431
G1 X115.692 Y69.204 E44.21988
G1 X115.574 Y69.563 E44.23547
G1 X115.384 Y69.889 E44.25104
G1 X115.093 Y70.209 E44.26889
G1 X114.799 Y70.446 E44.28447
G1 X114.462 Y70.616 E44.30004
G1 X114.097 Y70.712 E44.31562
G1 X113.829 Y70.732 E44.32671
G1 X96.171 Y70.732 E45.05533
G1 X95.796 Y70.692 E45.0709
G1 X95.437 Y70.574 E45.08649
G1 X95.111 Y70.384 E45.10206
G1 X94.791 Y70.093 E45.11991
G1 X94.554 Y69.799 E45.13549
G1 X94.384 Y69.462 E45.15106
G1 X94.288 Y69.097 E45.16664
G1 X94.268 Y68.829 E45.17773
G1 X94.268 Y63.733 E45.388
G1 X74.319 Y63.741 E46.21117
G1 X74.702 Y64.134 E46.23381
G1 X75.321 Y64.879 E46.27378
G1 X75.426 Y65.018 E46.28097
G1 X75.972 Y65.823 E46.3211
G1 X76.063 Y65.972 E46.32831
G1 X76.529 Y66.829 E46.36856
G1 X76.603 Y66.983 E46.37561
G1 X76.97 Y67.845 E46.41427
G1 X77.18 Y68.576 E46.44565
G1 X77.183 Y68.953 E46.46121
G1 X77.107 Y69.323 E46.47679
G1 X76.862 Y69.814 E46.49944
G1 X76.493 Y70.263 E46.52342
G1 X76.19 Y70.487 E46.53897
G1 X75.845 Y70.643 E46.55459
G1 X75.287 Y70.732 E46.57791
G1 X68.429 Y70.732 E46.86089
G1 X67.929 Y70.661 E46.88173
G1 X67.472 Y70.472 E46.90214
G1 X65.964 Y69.584 E46.97435
G1 X64.368 Y70.488 E47.05003
G1 X63.882 Y70.676 E47.07154
G1 X63.44 Y70.732 E47.08992
G1 X48.171 Y70.732 E47.71997
G1 X47.796 Y70.692 E47.73553
G1 X47.437 Y70.574 E47.75113
G1 X47.111 Y70.384 E47.7667
G1 X46.791 Y70.093 E47.78454
G1 X46.554 Y69.799 E47.80013
G1 X46.384 Y69.462 E47.8157
G1 X46.288 Y69.097 E47.83127
G1 X46.268 Y68.829 E47.84236
G1 X46.268 Y59.171 E48.24088
G1 X46.308 Y58.796 E48.25645
G1 X46.426 Y58.437 E48.27204
G1 X46.616 Y58.111 E48.28761
G1 X46.907 Y57.791 E48.30546
G1 X47.201 Y57.554 E48.32104
M204 S3000
G0 F4200 X47.45 Y57.867
M204 S400
G1 F1800 X47.753 Y57.729 E48.33478
G1 X48.171 Y57.665 E48.35223
G1 X161.829 Y57.665 E53.04214
G1 X162.159 Y57.705 E53.05585
G1 X162.471 Y57.822 E53.0696
G1 X162.928 Y58.188 E53.09376
G1 X163.133 Y58.45 E53.10749
G1 X163.271 Y58.753 E53.12123
G1 X163.335 Y59.171 E53.13868
G1 X163.335 Y68.829 E53.5372
G1 X163.295 Y69.159 E53.55092
G1 X163.178 Y69.471 E53.56466
G1 X162.812 Y69.928 E53.58882
G1 X162.55 Y70.133 E53.60255
G1 X162.247 Y70.271 E53.61629
G1 X161.829 Y70.335 E53.63374
G1 X146.635 Y70.335 E54.26069
G1 X146.235 Y70.277 E54.27737
G1 X145.866 Y70.122 E54.29389
G1 X144.057 Y69.029 E54.3811
G1 X142.024 Y70.15 E54.4769
G1 X141.666 Y70.288 E54.49273
G1 X141.308 Y70.335 E54.50763
G1 X134.71 Y70.335 E54.77988
G1 X134.38 Y70.295 E54.7936
G1 X134.068 Y70.178 E54.80735
G1 X133.793 Y69.99 E54.82109
G1 X133.444 Y69.555 E54.84411
G1 X133.291 Y69.259 E54.85786
G1 X133.213 Y68.936 E54.87157
G1 X133.213 Y68.603 E54.88531
G1 X133.295 Y68.275 E54.89926
G1 X133.545 Y67.623 E54.92807
G1 X133.8 Y67.059 E54.95361
G1 X133.848 Y66.963 E54.95804
G1 X134.305 Y66.131 E54.99721
G1 X134.375 Y66.017 E55.00273
G1 X134.916 Y65.224 E55.04234
G1 X134.995 Y65.118 E55.0478
G1 X135.613 Y64.375 E55.08768
G1 X135.708 Y64.273 E55.09343
G1 X136.406 Y63.587 E55.13381
G1 X136.695 Y63.344 E55.14939
G1 X115.335 Y63.336 E56.03078
G1 X115.335 Y68.829 E56.25744
G1 X115.295 Y69.159 E56.27115
G1 X115.178 Y69.471 E56.2849
G1 X114.812 Y69.928 E56.30906
G1 X114.55 Y70.133 E56.32279
G1 X114.247 Y70.271 E56.33653
G1 X113.829 Y70.335 E56.35398
G1 X96.171 Y70.335 E57.0826
G1 X95.841 Y70.295 E57.09632
G1 X95.529 Y70.178 E57.11007
G1 X95.072 Y69.812 E57.13423
G1 X94.867 Y69.55 E57.14796
G1 X94.729 Y69.247 E57.1617
G1 X94.665 Y68.829 E57.17914
G1 X94.665 Y63.336 E57.4058
G1 X73.315 Y63.344 E58.28678
G1 X73.654 Y63.639 E58.30532
G1 X74.309 Y64.291 E58.34346
G1 X74.397 Y64.388 E58.34886
G1 X75.016 Y65.133 E58.38883
