;FLAVOR:Marlin
;TIME:1384
;Filament used: 0.993215m
;Layer height: 0.2
;MINX:69.819
;MINY:89.25
;MINZ:0.25
;MAXX:140.181
;MAXY:120.75
;MAXZ:7.85
;Generated with Cura_SteamEngine 4.9.0
M140 S60
M105
M190 S60
M104 S200
M105
M109 S200
M82 ;absolute extrusion mode
G21 ;metric values
G90 ;absolute positioning
M82 ;set extruder to absolute mode
M107 ;start with the fan off
G28 X0 Y0 ;move X/Y to min endstops
G28 Z0 ;move Z to min endstops
G1 Z15.0 F120 ;move the platform down 15mm
G92 E0 ;zero the extruded length
G1 F200 E3 ;extrude 3mm of feed stock
G92 E0 ;zero the extruded length again
G1 F120
G0 Y20 F120
M117 Printing...
G5
G92 E0
G92 E0
G1 F3000 E-5
;LAYER_COUNT:39
;LAYER:0
M106 S51
M204 S3000
M205 X10 Y10
G1 F600 Z0.325
G0 F4200 X71.415 Y90.545 Z0.325
M204 S400
;TYPE:SKIRT
G1 F600 Z0.25
G1 F3000 E0.06236
G1 F1800 X72.073 Y90.047 E0.09641
G1 X72.465 Y89.808 E0.11536
G1 X72.835 Y89.646 E0.13202
G1 X73.346 Y89.463 E0.15442
G1 X74.091 Y89.298 E0.18591
G1 X74.742 Y89.25 E0.21284
G1 X135.351 Y89.251 E2.71377
G1 X135.949 Y89.31 E2.73857
G1 X136.474 Y89.414 E2.76065
G1 X136.929 Y89.542 E2.78016
G1 X137.674 Y89.894 E2.81416
G1 X137.982 Y90.073 E2.82886
G1 X138.369 Y90.373 E2.84906
G1 X138.77 Y90.741 E2.87152
G1 X138.98 Y90.954 E2.88386
G1 X139.336 Y91.435 E2.90855
G1 X139.61 Y91.896 E2.93068
G1 X139.766 Y92.196 E2.94464
G1 X139.952 Y92.724 E2.96774
G1 X140.08 Y93.238 E2.98959
G1 X140.162 Y93.77 E3.0118
G1 X140.181 Y94.164 E3.02808
G1 X140.18 Y115.925 E3.92601
G1 X140.123 Y116.514 E3.95043
G1 X140.026 Y117.011 E3.97132
G1 X139.908 Y117.441 E3.98972
G1 X139.547 Y118.222 E4.02523
G1 X139.372 Y118.528 E4.03977
G1 X139.06 Y118.934 E4.0609
G1 X138.68 Y119.349 E4.08412
G1 X138.183 Y119.784 E4.11137
G1 X137.75 Y120.072 E4.13283
G1 X137.378 Y120.258 E4.14999
G1 X136.885 Y120.462 E4.17201
G1 X136.475 Y120.598 E4.18983
G1 X135.631 Y120.727 E4.22506
G1 X135.271 Y120.749 E4.23995
G1 X74.736 Y120.75 E6.73782
G1 X74.312 Y120.72 E6.75536
G1 X73.763 Y120.641 E6.77825
G1 X73.245 Y120.518 E6.80022
G1 X72.872 Y120.369 E6.81679
G1 X72.375 Y120.13 E6.83955
G1 X71.993 Y119.91 E6.85774
G1 X71.634 Y119.629 E6.87655
G1 X71.233 Y119.262 E6.89898
G1 X71.008 Y119.032 E6.91226
G1 X70.704 Y118.628 E6.93312
G1 X70.274 Y117.892 E6.96829
G1 X70.13 Y117.519 E6.98479
G1 X69.982 Y117.041 E7.00544
G1 X69.855 Y116.387 E7.03293
G1 X69.819 Y115.84 E7.05555
G1 X69.82 Y94.153 E7.95043
G1 X69.851 Y93.725 E7.96813
G1 X69.928 Y93.195 E7.99023
G1 X70.05 Y92.681 E8.01203
G1 X70.191 Y92.325 E8.02783
G1 X70.423 Y91.835 E8.0502
G1 X70.541 Y91.61 E8.06069
G1 X70.853 Y91.165 E8.08311
G1 X71.415 Y90.545 E8.11764
M204 S3000
G0 F4200 X71.68 Y90.841
M204 S400
G1 F1800 X72.305 Y90.369 E8.14996
G1 X72.648 Y90.16 E8.16653
G1 X72.969 Y90.02 E8.18098
G1 X73.48 Y89.837 E8.20338
G1 X74.129 Y89.693 E8.23081
G1 X74.742 Y89.647 E8.25618
G1 X135.351 Y89.648 E10.75711
G1 X135.872 Y89.699 E10.77871
G1 X136.397 Y89.803 E10.80079
G1 X137.083 Y90.04 E10.83074
G1 X137.742 Y90.39 E10.86153
G1 X138.1 Y90.665 E10.88016
G1 X138.501 Y91.033 E10.90262
G1 X138.686 Y91.221 E10.9135
G1 X138.995 Y91.638 E10.93492
G1 X139.269 Y92.099 E10.95705
G1 X139.405 Y92.362 E10.96926
G1 X139.567 Y92.82 E10.98931
G1 X139.695 Y93.334 E11.01117
G1 X139.779 Y94.001 E11.03891
G1 X139.784 Y94.164 E11.04564
G1 X139.783 Y115.925 E11.94357
G1 X139.733 Y116.438 E11.96484
G1 X139.636 Y116.935 E11.98573
G1 X139.406 Y117.615 E12.01535
G1 X139.054 Y118.289 E12.04673
G1 X138.768 Y118.666 E12.06625
G1 X138.388 Y119.081 E12.08947
G1 X137.957 Y119.458 E12.1131
G1 X137.532 Y119.74 E12.13415
G1 X137.226 Y119.891 E12.14823
G1 X136.733 Y120.095 E12.17024
G1 X136.035 Y120.278 E12.20002
G1 X135.271 Y120.352 E12.23169
G1 X74.736 Y120.353 E14.72957
G1 X74.368 Y120.327 E14.74479
G1 X73.819 Y120.248 E14.76768
G1 X73.347 Y120.134 E14.78771
G1 X73.044 Y120.011 E14.80121
G1 X72.547 Y119.772 E14.82396
G1 X72.213 Y119.58 E14.83986
G1 X71.902 Y119.336 E14.85617
G1 X71.501 Y118.969 E14.8786
G1 X71.04 Y118.417 E14.90828
G1 X70.635 Y117.728 E14.94126
G1 X70.509 Y117.401 E14.95572
G1 X70.361 Y116.923 E14.97636
G1 X70.25 Y116.353 E15.00033
G1 X70.216 Y115.84 E15.02154
G1 X70.217 Y94.153 E15.91642
G1 X70.244 Y93.782 E15.93177
G1 X70.321 Y93.252 E15.95387
G1 X70.434 Y92.783 E15.97377
G1 X70.55 Y92.495 E15.98658
G1 X70.782 Y92.005 E16.00896
G1 X71.156 Y91.421 E16.03757
G1 X71.68 Y90.841 E16.06982
M204 S3000
G0 F4200 X71.945 Y91.136
M204 S400
G1 F1800 X72.537 Y90.691 E16.10038
G1 X73.103 Y90.394 E16.12676
G1 X73.614 Y90.211 E16.14916
G1 X74.166 Y90.089 E16.17248
G1 X74.742 Y90.044 E16.19632
G1 X135.351 Y90.045 E18.69725
G1 X135.794 Y90.089 E18.71562
G1 X136.319 Y90.193 E18.73771
G1 X136.904 Y90.394 E18.76323
G1 X137.525 Y90.723 E18.79223
G1 X137.832 Y90.958 E18.80818
G1 X138.233 Y91.326 E18.83064
G1 X138.653 Y91.841 E18.85806
G1 X138.927 Y92.302 E18.88019
G1 X139.181 Y92.916 E18.90761
G1 X139.309 Y93.43 E18.92947
G1 X139.383 Y94.026 E18.95425
G1 X139.387 Y94.164 E18.95995
G1 X139.386 Y115.925 E19.85788
G1 X139.344 Y116.362 E19.87599
G1 X139.247 Y116.859 E19.89689
G1 X139.05 Y117.438 E19.92212
G1 X138.72 Y118.075 E19.95173
G1 X138.475 Y118.398 E19.96846
G1 X138.095 Y118.813 E19.99167
G1 X137.504 Y119.289 E20.02299
G1 X137.074 Y119.524 E20.04321
G1 X136.581 Y119.728 E20.06522
G1 X135.987 Y119.884 E20.09056
G1 X135.271 Y119.955 E20.12025
G1 X74.736 Y119.956 E22.61813
G1 X74.425 Y119.934 E22.631
G1 X73.876 Y119.855 E22.65388
G1 X73.472 Y119.757 E22.67104
G1 X73.216 Y119.653 E22.68244
G1 X72.719 Y119.414 E22.70519
G1 X72.17 Y119.043 E22.73254
G1 X71.769 Y118.676 E22.75497
G1 X71.377 Y118.206 E22.78022
G1 X70.997 Y117.564 E22.811
G1 X70.889 Y117.284 E22.82339
G1 X70.741 Y116.806 E22.84403
G1 X70.646 Y116.32 E22.86447
G1 X70.613 Y115.84 E22.88432
G1 X70.614 Y94.153 E23.7792
G1 X70.637 Y93.839 E23.79219
G1 X70.714 Y93.309 E23.81429
G1 X70.909 Y92.664 E23.84209
G1 X71.141 Y92.174 E23.86447
G1 X71.459 Y91.678 E23.88878
G1 X71.945 Y91.136 E23.91882
M204 S3000
G0 F4200 X72.209 Y91.432
M204 S400
G1 F1800 X72.769 Y91.013 E23.94768
G1 X73.237 Y90.768 E23.96947
G1 X73.748 Y90.585 E23.99187
G1 X74.203 Y90.484 E24.0111
G1 X74.742 Y90.441 E24.03341
G1 X135.351 Y90.442 E26.53434
G1 X135.717 Y90.478 E26.54952
G1 X136.242 Y90.582 E26.5716
G1 X136.725 Y90.749 E26.59269
G1 X137.308 Y91.055 E26.61986
G1 X137.563 Y91.25 E26.63311
G1 X137.964 Y91.618 E26.65556
G1 X138.312 Y92.044 E26.67826
G1 X138.586 Y92.505 E26.70039
G1 X138.796 Y93.012 E26.72304
G1 X138.924 Y93.526 E26.74489
G1 X138.986 Y94.051 E26.76671
G1 X138.99 Y94.164 E26.77137
G1 X138.989 Y115.925 E27.6693
G1 X138.954 Y116.286 E27.68427
G1 X138.857 Y116.783 E27.70516
G1 X138.695 Y117.262 E27.72603
G1 X138.385 Y117.861 E27.75386
G1 X138.182 Y118.13 E27.76777
G1 X137.802 Y118.545 E27.79098
G1 X137.278 Y118.963 E27.81864
G1 X136.922 Y119.157 E27.83537
G1 X136.429 Y119.361 E27.85739
G1 X135.939 Y119.49 E27.8783
G1 X135.271 Y119.558 E27.906
G1 X74.736 Y119.559 E30.40388
G1 X74.481 Y119.541 E30.41443
G1 X73.932 Y119.462 E30.43732
G1 X73.389 Y119.295 E30.46076
G1 X72.892 Y119.056 E30.48351
G1 X72.439 Y118.75 E30.50607
G1 X72.038 Y118.383 E30.5285
G1 X71.713 Y117.995 E30.54939
G1 X71.358 Y117.399 E30.57801
G1 X71.268 Y117.167 E30.58828
G1 X71.12 Y116.689 E30.60893
G1 X71.016 Y115.99 E30.63809
G1 X71.01 Y115.84 E30.64428
G1 X71.011 Y94.153 E31.53916
G1 X71.03 Y93.896 E31.54979
G1 X71.107 Y93.366 E31.57189
G1 X71.268 Y92.834 E31.59483
G1 X71.5 Y92.344 E31.6172
G1 X71.763 Y91.934 E31.6373
G1 X72.209 Y91.432 E31.66501
M204 S3000
G0 F4200 X72.474 Y91.728
M204 S400
G1 F1800 X73.001 Y91.335 E31.69213
G1 X73.37 Y91.141 E31.70934
G1 X73.881 Y90.958 E31.73173
G1 X74.24 Y90.879 E31.7469
G1 X74.742 Y90.838 E31.76768
G1 X135.351 Y90.839 E34.26861
G1 X135.64 Y90.867 E34.2806
G1 X136.165 Y90.971 E34.30268
G1 X136.546 Y91.103 E34.31932
G1 X137.091 Y91.388 E34.3447
G1 X137.295 Y91.543 E34.35527
G1 X137.696 Y91.911 E34.37773
G1 X137.971 Y92.247 E34.39564
G1 X138.245 Y92.708 E34.41777
G1 X138.411 Y93.108 E34.43564
G1 X138.539 Y93.622 E34.4575
G1 X138.593 Y94.164 E34.47997
G1 X138.592 Y115.925 E35.37791
G1 X138.564 Y116.21 E35.38972
G1 X138.467 Y116.707 E35.41062
G1 X138.339 Y117.085 E35.42708
G1 X138.051 Y117.647 E35.45314
G1 X137.889 Y117.862 E35.46425
G1 X137.509 Y118.277 E35.48747
G1 X137.051 Y118.637 E35.51151
G1 X136.77 Y118.79 E35.52471
G1 X136.277 Y118.994 E35.54672
G1 X135.891 Y119.096 E35.5632
G1 X135.271 Y119.161 E35.58892
G1 X74.736 Y119.162 E38.0868
G1 X74.538 Y119.148 E38.09499
G1 X73.989 Y119.069 E38.11788
G1 X73.561 Y118.938 E38.13635
G1 X73.064 Y118.699 E38.1591
G1 X72.707 Y118.457 E38.1769
G1 X72.306 Y118.09 E38.19933
G1 X72.049 Y117.784 E38.21582
G1 X71.72 Y117.235 E38.24223
G1 X71.647 Y117.049 E38.25047
G1 X71.499 Y116.571 E38.27112
G1 X71.412 Y115.957 E38.29671
G1 X71.407 Y115.84 E38.30154
G1 X71.408 Y94.153 E39.19642
G1 X71.422 Y93.953 E39.20469
G1 X71.499 Y93.423 E39.22679
G1 X71.627 Y93.004 E39.24487
G1 X71.859 Y92.514 E39.26724
G1 X72.066 Y92.19 E39.28311
G1 X72.474 Y91.728 E39.30854
M204 S3000
G0 F4200 X72.739 Y92.024
M204 S400
G1 F1800 X73.233 Y91.657 E39.33393
G1 X73.504 Y91.515 E39.34656
G1 X74.015 Y91.332 E39.36895
G1 X74.649 Y91.239 E39.3954
G1 X74.742 Y91.235 E39.39924
G1 X135.351 Y91.236 E41.90017
G1 X135.563 Y91.257 E41.90896
G1 X136.088 Y91.361 E41.93104
G1 X136.368 Y91.458 E41.94327
G1 X136.874 Y91.72 E41.96678
G1 X137.026 Y91.835 E41.97465
G1 X137.427 Y92.203 E41.9971
G1 X137.63 Y92.45 E42.0103
G1 X137.904 Y92.911 E42.03243
G1 X138.026 Y93.204 E42.04552
G1 X138.154 Y93.718 E42.06738
G1 X138.196 Y94.164 E42.08586
G1 X138.195 Y115.925 E42.9838
G1 X138.175 Y116.134 E42.99246
G1 X138.078 Y116.631 E43.01335
G1 X137.983 Y116.909 E43.02548
G1 X137.716 Y117.433 E43.04974
G1 X137.596 Y117.594 E43.05803
G1 X137.216 Y118.009 E43.08125
G1 X136.756 Y118.354 E43.10498
G1 X136.619 Y118.424 E43.11132
G1 X136.126 Y118.628 E43.13334
G1 X135.843 Y118.702 E43.14541
G1 X135.271 Y118.764 E43.16915
G1 X74.736 Y118.765 E45.66703
G1 X74.595 Y118.755 E45.67286
G1 X74.046 Y118.676 E45.69575
G1 X73.733 Y118.58 E45.70926
G1 X73.236 Y118.341 E45.73201
G1 X72.975 Y118.165 E45.745
G1 X72.574 Y117.798 E45.76743
G1 X72.386 Y117.573 E45.77953
G1 X72.081 Y117.071 E45.80377
G1 X72.026 Y116.932 E45.80994
G1 X71.878 Y116.454 E45.83058
G1 X71.808 Y115.924 E45.85264
G1 X71.804 Y115.84 E45.85611
G1 X71.805 Y94.153 E46.75099
G1 X71.815 Y94.01 E46.75691
G1 X71.892 Y93.48 E46.77901
G1 X71.986 Y93.174 E46.79222
G1 X72.218 Y92.684 E46.81459
G1 X72.369 Y92.447 E46.82618
G1 X72.739 Y92.024 E46.84937
M204 S3000
G0 F4200 X72.946 Y92.379
M204 S400
G1 F1800 X73.465 Y91.98 E46.87638
G1 X73.638 Y91.889 E46.88445
G1 X74.149 Y91.706 E46.90685
G1 X74.686 Y91.635 E46.9292
G1 X74.742 Y91.632 E46.93151
G1 X135.351 Y91.633 E49.43244
G1 X135.486 Y91.646 E49.43804
G1 X136.011 Y91.75 E49.46012
G1 X136.601 Y92.02 E49.4869
G1 X136.758 Y92.128 E49.49476
G1 X137.159 Y92.496 E49.51722
G1 X137.288 Y92.652 E49.52557
G1 X137.562 Y93.113 E49.5477
G1 X137.64 Y93.3 E49.55606
G1 X137.768 Y93.814 E49.57792
G1 X137.799 Y94.164 E49.59242
G1 X137.798 Y115.925 E50.49035
G1 X137.785 Y116.058 E50.49586
G1 X137.688 Y116.555 E50.51676
G1 X137.414 Y117.163 E50.54428
G1 X137.304 Y117.325 E50.55236
G1 X136.924 Y117.74 E50.57557
G1 X136.467 Y118.057 E50.59852
G1 X135.974 Y118.261 E50.62054
G1 X135.343 Y118.363 E50.64691
G1 X135.271 Y118.367 E50.64989
G1 X74.736 Y118.368 E53.14777
G1 X74.651 Y118.362 E53.15128
G1 X74.102 Y118.283 E53.17417
G1 X73.905 Y118.222 E53.18268
G1 X73.408 Y117.983 E53.20544
G1 X73.243 Y117.872 E53.21364
G1 X72.842 Y117.505 E53.23607
G1 X72.48 Y116.977 E53.26249
G1 X72.406 Y116.814 E53.26987
G1 X72.258 Y116.336 E53.29052
G1 X72.201 Y115.84 E53.31112
G1 X72.202 Y94.153 E54.206
G1 X72.208 Y94.067 E54.20956
G1 X72.285 Y93.537 E54.23166
G1 X72.344 Y93.344 E54.23999
G1 X72.576 Y92.854 E54.26236
G1 X72.946 Y92.379 E54.2872
M204 S3000
G0 F4200 X73.268 Y92.616
M204 S400
G1 F1800 X73.698 Y92.302 E54.30917
G1 X73.772 Y92.263 E54.31262
G1 X74.283 Y92.08 E54.33502
G1 X74.742 Y92.029 E54.35408
G1 X135.372 Y92.031 E56.85587
G1 X135.409 Y92.036 E56.85742
G1 X135.934 Y92.14 E56.8795
G1 X136.422 Y92.374 E56.90183
G1 X136.49 Y92.42 E56.90522
G1 X136.891 Y92.788 E56.92768
G1 X136.947 Y92.855 E56.93128
G1 X137.231 Y93.335 E56.95429
G1 X137.255 Y93.396 E56.957
G1 X137.383 Y93.91 E56.97886
G1 X137.402 Y94.164 E56.98937
G1 X137.4 Y115.946 E57.88816
G1 X137.395 Y115.982 E57.88966
G1 X137.298 Y116.479 E57.91056
G1 X137.058 Y116.986 E57.9337
G1 X137.011 Y117.057 E57.93722
G1 X136.631 Y117.472 E57.96044
G1 X136.315 Y117.69 E57.97628
G1 X135.822 Y117.894 E57.99829
G1 X135.295 Y117.969 E58.02026
G1 X74.736 Y117.971 E60.51913
G1 X74.708 Y117.969 E60.52028
G1 X74.159 Y117.89 E60.54317
G1 X74.077 Y117.864 E60.54672
G1 X73.556 Y117.612 E60.5706
G1 X73.511 Y117.579 E60.5729
G1 X73.096 Y117.198 E60.59615
G1 X72.816 Y116.766 E60.61739
G1 X72.785 Y116.697 E60.62051
G1 X72.632 Y116.201 E60.64193
G1 X72.598 Y115.84 E60.6569
G1 X72.599 Y94.153 E61.55177
G1 X72.601 Y94.124 E61.55297
G1 X72.678 Y93.594 E61.57507
G1 X72.703 Y93.514 E61.57853
G1 X72.942 Y93.01 E61.60155
G1 X73.268 Y92.616 E61.62265
M204 S3000
G1 F3000 E56.62265
;MESH:PCA9685-Holder-Body.stl
G0 F4200 X135.253 Y117.574
M204 S400
;TYPE:WALL-OUTER
G1 F3000 E61.68501
G1 F1080 X74.743 Y117.574 E64.18186
G1 X74.233 Y117.499 E64.20313
G1 X73.766 Y117.275 E64.2245
G1 X73.387 Y116.929 E64.24568
G1 X73.161 Y116.568 E64.26325
G1 X73.018 Y116.11 E64.28305
G1 X72.995 Y115.827 E64.29476
G1 X72.995 Y94.174 E65.18824
G1 X73.069 Y93.668 E65.20934
G1 X73.288 Y93.205 E65.23048
G1 X73.546 Y92.9 E65.24696
G1 X73.92 Y92.631 E65.26597
G1 X74.403 Y92.459 E65.28713
G1 X74.747 Y92.426 E65.30139
G1 X135.342 Y92.427 E67.80174
G1 X135.842 Y92.526 E67.82277
G1 X136.232 Y92.723 E67.8408
G1 X136.612 Y93.07 E67.86203
G1 X136.873 Y93.508 E67.88307
G1 X136.996 Y93.998 E67.90392
G1 X137.005 Y94.173 E67.91115
G1 X137.004 Y115.916 E68.80834
G1 X136.911 Y116.392 E68.82835
G1 X136.709 Y116.799 E68.8471
G1 X136.362 Y117.18 E68.86836
G1 X136.152 Y117.327 E68.87894
G1 X135.684 Y117.521 E68.89985
G1 X135.253 Y117.574 E68.91776
M204 S3000
G0 F4200 X135.053 Y117.574
G0 X135.053 Y117.138
G1 F3000 E63.91776
G0 F4200 X76.217 Y96.716
M204 S400
G1 F3000 E68.98013
G1 F1080 X76.562 Y96.617 E68.99494
G1 X76.874 Y96.415 E69.01027
G1 X77.112 Y96.13 E69.0256
G1 X77.241 Y95.853 E69.0382
G1 X77.296 Y95.411 E69.05658
G1 X77.223 Y95.048 E69.07186
G1 X77.038 Y94.713 E69.08765
G1 X76.719 Y94.419 E69.10555
G1 X76.372 Y94.266 E69.1212
G1 X76.006 Y94.222 E69.13641
G1 X75.647 Y94.285 E69.15145
G1 X75.306 Y94.462 E69.16731
G1 X75.038 Y94.729 E69.18292
G1 X74.847 Y95.098 E69.20006
G1 X74.792 Y95.539 E69.2184
G1 X74.867 Y95.908 E69.23394
G1 X75.081 Y96.278 E69.25157
G1 X75.416 Y96.56 E69.26964
G1 X75.832 Y96.711 E69.28791
G1 X76.217 Y96.716 E69.30379
M204 S3000
G0 F4200 X76.409 Y96.661
G0 X76.726 Y96.977
M204 S400
;TYPE:WALL-INNER
G1 F1080 X77.136 Y96.711 E69.32396
G1 X77.445 Y96.341 E69.34385
G1 X77.621 Y95.962 E69.36109
G1 X77.692 Y95.396 E69.38463
G1 X77.594 Y94.912 E69.40501
G1 X77.35 Y94.468 E69.42591
G1 X76.936 Y94.087 E69.44913
G1 X76.476 Y93.885 E69.46986
G1 X75.995 Y93.827 E69.48985
G1 X75.52 Y93.91 E69.50975
G1 X75.073 Y94.143 E69.53055
G1 X74.719 Y94.495 E69.55115
G1 X74.468 Y94.98 E69.57368
G1 X74.396 Y95.554 E69.59755
G1 X74.497 Y96.048 E69.61836
G1 X74.777 Y96.533 E69.64147
G1 X75.217 Y96.904 E69.66522
G1 X75.761 Y97.101 E69.68909
G1 X76.269 Y97.108 E69.71005
G1 X76.726 Y96.977 E69.72967
M204 S3000
G1 F3000 E64.72967
G0 F4200 X75.756 Y106.148
M204 S400
;TYPE:WALL-OUTER
G1 F3000 E69.79203
G1 F1080 X76.08 Y105.94 E69.80792
G1 X76.318 Y105.655 E69.82324
G1 X76.447 Y105.378 E69.83585
G1 X76.502 Y104.933 E69.85435
G1 X76.404 Y104.511 E69.87223
G1 X76.212 Y104.196 E69.88745
G1 X75.875 Y103.914 E69.90558
G1 X75.467 Y103.765 E69.92351
G1 X75.021 Y103.767 E69.94191
G1 X74.67 Y103.889 E69.95724
G1 X74.253 Y104.238 E69.97968
G1 X74.053 Y104.622 E69.99755
G1 X73.998 Y105.067 E70.01605
G1 X74.072 Y105.429 E70.03129
G1 X74.287 Y105.803 E70.0491
G1 X74.622 Y106.085 E70.06716
G1 X75.033 Y106.235 E70.08522
