;FLAVOR:Marlin
;TIME:10193
;Filament used: 8.0191m
;Layer height: 0.2
;MINX:44.077
;MINY:52.577
;MINZ:0.25
;MAXX:165.923
;MAXY:157.423
;MAXZ:12.85
;Generated with Cura_SteamEngine 4.9.0
M140 S60
M105
M190 S60
M104 S200
M105
M109 S200
M82 ;absolute extrusion mode
G21 ;metric values
G90 ;absolute positioning
M82 ;set extruder to absolute mode
M107 ;start with the fan off
G28 X0 Y0 ;move X/Y to min endstops
G28 Z0 ;move Z to min endstops
G1 Z15.0 F120 ;move the platform down 15mm
G92 E0 ;zero the extruded length
G1 F200 E3 ;extrude 3mm of feed stock
G92 E0 ;zero the extruded length again
G1 F120
G0 Y20 F120
M117 Printing...
G5
G92 E0
G92 E0
G1 F3000 E-5
;LAYER_COUNT:64
;LAYER:0
M106 S51
M204 S3000
M205 X10 Y10
G1 F600 Z0.325
G0 F4200 X46.065 Y53.449 Z0.325
M204 S400
;TYPE:SKIRT
G1 F600 Z0.25
G1 F3000 E0.06236
G1 F1800 X46.437 Y53.134 E0.08288
G1 X46.856 Y52.883 E0.10344
G1 X47.309 Y52.704 E0.12394
G1 X47.786 Y52.602 E0.14447
G1 X48.171 Y52.577 E0.16071
G1 X161.829 Y52.577 E4.94441
G1 X162.315 Y52.617 E4.96494
G1 X162.788 Y52.736 E4.98547
G1 X163.235 Y52.93 E5.00598
G1 X163.645 Y53.195 E5.02652
G1 X164.051 Y53.565 E5.04964
G1 X164.366 Y53.937 E5.07016
G1 X164.617 Y54.356 E5.09072
G1 X164.796 Y54.809 E5.11122
G1 X164.898 Y55.286 E5.13175
G1 X164.923 Y55.671 E5.14798
G1 X164.923 Y84.329 E6.35416
G1 X164.883 Y84.815 E6.37468
G1 X164.764 Y85.288 E6.39521
G1 X164.57 Y85.735 E6.41572
G1 X164.305 Y86.145 E6.43627
G1 X163.935 Y86.551 E6.45939
G1 X163.563 Y86.866 E6.4799
G1 X163.144 Y87.117 E6.50046
G1 X162.691 Y87.296 E6.52096
G1 X162.214 Y87.398 E6.54149
G1 X161.829 Y87.423 E6.55773
G1 X48.171 Y87.423 E11.34144
G1 X47.685 Y87.383 E11.36196
G1 X47.212 Y87.264 E11.38249
G1 X46.765 Y87.07 E11.403
G1 X46.355 Y86.805 E11.42355
G1 X45.949 Y86.435 E11.44667
G1 X45.634 Y86.063 E11.46718
G1 X45.383 Y85.644 E11.48774
G1 X45.204 Y85.191 E11.50824
G1 X45.102 Y84.714 E11.52877
G1 X45.077 Y84.329 E11.54501
G1 X45.077 Y55.671 E12.75119
G1 X45.117 Y55.185 E12.77171
G1 X45.236 Y54.712 E12.79224
G1 X45.43 Y54.265 E12.81275
G1 X45.695 Y53.855 E12.83329
G1 X46.065 Y53.449 E12.85641
M204 S3000
G0 F4200 X46.23 Y53.846
M204 S400
G1 F1800 X46.694 Y53.438 E12.88242
G1 X47.088 Y53.212 E12.90154
G1 X47.515 Y53.059 E12.92063
G1 X48.171 Y52.974 E12.94847
G1 X161.829 Y52.974 E17.73218
G1 X162.281 Y53.014 E17.75128
G1 X162.719 Y53.132 E17.77037
G1 X163.13 Y53.326 E17.7895
G1 X163.654 Y53.73 E17.81734
G1 X164.062 Y54.194 E17.84335
G1 X164.288 Y54.588 E17.86247
G1 X164.441 Y55.015 E17.88156
G1 X164.526 Y55.671 E17.9094
G1 X164.526 Y84.329 E19.11557
G1 X164.486 Y84.781 E19.13467
G1 X164.368 Y85.219 E19.15376
G1 X164.174 Y85.63 E19.17289
G1 X163.77 Y86.154 E19.20074
G1 X163.306 Y86.562 E19.22675
G1 X162.912 Y86.788 E19.24586
G1 X162.485 Y86.941 E19.26495
G1 X161.829 Y87.026 E19.2928
G1 X48.171 Y87.026 E24.0765
G1 X47.719 Y86.986 E24.0956
G1 X47.281 Y86.868 E24.11469
G1 X46.87 Y86.674 E24.13382
G1 X46.346 Y86.27 E24.16167
G1 X45.938 Y85.806 E24.18768
G1 X45.712 Y85.412 E24.20679
G1 X45.559 Y84.985 E24.22588
G1 X45.474 Y84.329 E24.25373
G1 X45.474 Y55.671 E25.4599
G1 X45.514 Y55.219 E25.479
G1 X45.632 Y54.781 E25.49809
G1 X45.826 Y54.37 E25.51722
G1 X46.23 Y53.846 E25.54507
M204 S3000
G0 F4200 X46.627 Y54.011
M204 S400
G1 F1800 X46.949 Y53.745 E25.56265
G1 X47.316 Y53.546 E25.58022
G1 X47.714 Y53.419 E25.5978
G1 X48.171 Y53.371 E25.61714
G1 X161.829 Y53.371 E30.40085
G1 X162.245 Y53.411 E30.41844
G1 X162.645 Y53.529 E30.43599
G1 X163.016 Y53.721 E30.45358
G1 X163.489 Y54.127 E30.47981
G1 X163.755 Y54.449 E30.49739
G1 X163.954 Y54.816 E30.51496
G1 X164.081 Y55.214 E30.53255
G1 X164.129 Y55.671 E30.55189
G1 X164.129 Y84.329 E31.75806
G1 X164.089 Y84.745 E31.77565
G1 X163.971 Y85.145 E31.7932
G1 X163.779 Y85.516 E31.81079
G1 X163.373 Y85.989 E31.83702
G1 X163.051 Y86.255 E31.8546
G1 X162.684 Y86.454 E31.87217
G1 X162.286 Y86.581 E31.88975
G1 X161.829 Y86.629 E31.9091
G1 X48.171 Y86.629 E36.6928
G1 X47.755 Y86.589 E36.71039
G1 X47.355 Y86.471 E36.72795
G1 X46.984 Y86.279 E36.74553
G1 X46.511 Y85.873 E36.77176
G1 X46.245 Y85.551 E36.78934
G1 X46.046 Y85.184 E36.80691
G1 X45.919 Y84.786 E36.8245
G1 X45.871 Y84.329 E36.84384
G1 X45.871 Y55.671 E38.05001
G1 X45.911 Y55.255 E38.0676
G1 X46.029 Y54.855 E38.08516
G1 X46.221 Y54.484 E38.10274
G1 X46.627 Y54.011 E38.12897
M204 S3000
G0 F4200 X46.907 Y54.291
M204 S400
G1 F1800 X47.201 Y54.054 E38.14487
G1 X47.538 Y53.884 E38.16075
G1 X47.903 Y53.788 E38.17664
G1 X48.171 Y53.768 E38.18795
G1 X161.829 Y53.768 E42.97166
G1 X162.204 Y53.808 E42.98753
G1 X162.563 Y53.926 E43.00344
G1 X162.889 Y54.116 E43.01932
G1 X163.209 Y54.407 E43.03752
G1 X163.446 Y54.701 E43.05342
G1 X163.616 Y55.038 E43.0693
G1 X163.712 Y55.403 E43.08519
G1 X163.732 Y55.671 E43.0965
G1 X163.732 Y84.329 E44.30267
G1 X163.692 Y84.704 E44.31855
G1 X163.574 Y85.063 E44.33445
G1 X163.384 Y85.389 E44.35033
G1 X163.093 Y85.709 E44.36854
G1 X162.799 Y85.946 E44.38443
G1 X162.462 Y86.116 E44.40032
G1 X162.097 Y86.212 E44.4162
G1 X161.829 Y86.232 E44.42751
G1 X48.171 Y86.232 E49.21122
G1 X47.796 Y86.192 E49.2271
G1 X47.437 Y86.074 E49.243
G1 X47.111 Y85.884 E49.25888
G1 X46.791 Y85.593 E49.27709
G1 X46.554 Y85.299 E49.29298
G1 X46.384 Y84.962 E49.30887
G1 X46.288 Y84.597 E49.32475
G1 X46.268 Y84.329 E49.33606
G1 X46.268 Y55.671 E50.54224
G1 X46.308 Y55.296 E50.55811
G1 X46.426 Y54.937 E50.57402
G1 X46.616 Y54.611 E50.5899
G1 X46.907 Y54.291 E50.6081
M204 S3000
G0 F4200 X47.188 Y54.572
M204 S400
G1 F1800 X47.45 Y54.367 E50.6221
G1 X47.753 Y54.229 E50.63612
G1 X48.171 Y54.165 E50.65391
G1 X161.829 Y54.165 E55.43762
G1 X162.159 Y54.205 E55.45161
G1 X162.471 Y54.322 E55.46564
G1 X162.928 Y54.688 E55.49028
G1 X163.133 Y54.95 E55.50428
G1 X163.271 Y55.253 E55.5183
G1 X163.335 Y55.671 E55.53609
G1 X163.335 Y84.329 E56.74227
G1 X163.295 Y84.659 E56.75626
G1 X163.178 Y84.971 E56.77029
G1 X162.812 Y85.428 E56.79493
G1 X162.55 Y85.633 E56.80893
G1 X162.247 Y85.771 E56.82294
G1 X161.829 Y85.835 E56.84074
G1 X48.171 Y85.835 E61.62445
G1 X47.841 Y85.795 E61.63844
G1 X47.529 Y85.678 E61.65247
G1 X47.072 Y85.312 E61.67711
G1 X46.867 Y85.05 E61.69111
G1 X46.729 Y84.747 E61.70512
G1 X46.665 Y84.329 E61.72292
G1 X46.665 Y55.671 E62.9291
G1 X46.705 Y55.341 E62.94309
G1 X46.822 Y55.029 E62.95711
G1 X47.188 Y54.572 E62.98175
M204 S3000
G0 F4200 X47.469 Y54.853
M204 S400
G1 F1800 X47.694 Y54.684 E62.9936
G1 X47.957 Y54.585 E63.00543
G1 X48.171 Y54.562 E63.01449
G1 X161.829 Y54.562 E67.79819
G1 X162.107 Y54.602 E67.81001
G1 X162.363 Y54.718 E67.82184
G1 X162.647 Y54.969 E67.8378
G1 X162.816 Y55.194 E67.84964
G1 X162.915 Y55.457 E67.86147
G1 X162.938 Y55.671 E67.87053
G1 X162.938 Y84.329 E69.0767
G1 X162.898 Y84.607 E69.08852
G1 X162.782 Y84.863 E69.10035
G1 X162.531 Y85.147 E69.11631
G1 X162.306 Y85.316 E69.12815
G1 X162.043 Y85.415 E69.13998
G1 X161.829 Y85.438 E69.14904
G1 X48.171 Y85.438 E73.93274
G1 X47.893 Y85.398 E73.94457
G1 X47.637 Y85.282 E73.95639
G1 X47.353 Y85.031 E73.97235
G1 X47.184 Y84.806 E73.98419
G1 X47.085 Y84.543 E73.99602
G1 X47.062 Y84.329 E74.00508
G1 X47.062 Y55.671 E75.21125
G1 X47.102 Y55.393 E75.22307
G1 X47.218 Y55.137 E75.2349
G1 X47.469 Y54.853 E75.25086
M204 S3000
G0 F4200 X47.75 Y55.134
M204 S400
G1 F1800 X47.929 Y55.01 E75.26002
G1 X48.171 Y54.959 E75.27043
G1 X161.829 Y54.959 E80.05414
G1 X162.043 Y54.999 E80.0633
G1 X162.366 Y55.25 E80.08052
G1 X162.49 Y55.429 E80.08968
G1 X162.541 Y55.671 E80.10009
G1 X162.541 Y84.329 E81.30627
G1 X162.501 Y84.543 E81.31543
G1 X162.25 Y84.866 E81.33265
G1 X162.071 Y84.99 E81.34181
G1 X161.829 Y85.041 E81.35222
G1 X48.171 Y85.041 E86.13593
G1 X47.957 Y85.001 E86.14509
G1 X47.634 Y84.75 E86.16231
G1 X47.51 Y84.571 E86.17148
G1 X47.459 Y84.329 E86.18188
G1 X47.459 Y55.671 E87.38806
G1 X47.499 Y55.457 E87.39722
G1 X47.75 Y55.134 E87.41444
M204 S3000
G0 F4200 X48.03 Y55.414
M204 S400
G1 F1800 X48.171 Y55.356 E87.42086
G1 X161.829 Y55.356 E92.20457
G1 X161.97 Y55.414 E92.21098
G1 X162.086 Y55.53 E92.21789
G1 X162.144 Y55.671 E92.2243
G1 X162.144 Y84.329 E93.43048
G1 X162.086 Y84.47 E93.4369
G1 X161.97 Y84.586 E93.4438
G1 X161.829 Y84.644 E93.45022
G1 X48.171 Y84.644 E98.23393
G1 X48.03 Y84.586 E98.24034
G1 X47.914 Y84.47 E98.24725
G1 X47.856 Y84.329 E98.25367
G1 X47.856 Y55.671 E99.45984
G1 X47.914 Y55.53 E99.46626
G1 X48.03 Y55.414 E99.47316
M204 S3000
G1 F3000 E94.47316
G0 F4200 X48.171 Y87.577
M204 S400
G1 F3000 E99.53553
G1 F1800 X161.829 Y87.577 E104.31923
G1 X162.315 Y87.617 E104.33976
G1 X162.788 Y87.736 E104.36029
G1 X163.235 Y87.93 E104.3808
G1 X163.645 Y88.195 E104.40134
G1 X164.051 Y88.565 E104.42446
G1 X164.366 Y88.937 E104.44498
G1 X164.617 Y89.356 E104.46554
G1 X164.796 Y89.809 E104.48604
G1 X164.898 Y90.286 E104.50657
G1 X164.923 Y90.671 E104.5228
G1 X164.923 Y119.329 E105.72898
G1 X164.883 Y119.815 E105.7495
G1 X164.764 Y120.288 E105.77003
G1 X164.57 Y120.735 E105.79054
G1 X164.305 Y121.145 E105.81109
G1 X163.935 Y121.551 E105.83421
G1 X163.563 Y121.866 E105.85472
G1 X163.144 Y122.117 E105.87528
G1 X162.691 Y122.296 E105.89578
G1 X162.214 Y122.398 E105.91631
G1 X161.829 Y122.423 E105.93255
G1 X48.171 Y122.423 E110.71626
G1 X47.685 Y122.383 E110.73678
G1 X47.212 Y122.264 E110.75731
G1 X46.765 Y122.07 E110.77782
G1 X46.355 Y121.805 E110.79837
G1 X45.949 Y121.435 E110.82149
G1 X45.634 Y121.063 E110.842
G1 X45.383 Y120.644 E110.86256
G1 X45.204 Y120.191 E110.88306
G1 X45.102 Y119.714 E110.90359
G1 X45.077 Y119.329 E110.91983
G1 X45.077 Y90.671 E112.12601
G1 X45.117 Y90.185 E112.14653
G1 X45.236 Y89.712 E112.16706
G1 X45.43 Y89.265 E112.18757
G1 X45.695 Y88.855 E112.20811
G1 X46.065 Y88.449 E112.23123
G1 X46.437 Y88.134 E112.25175
G1 X46.856 Y87.883 E112.27231
G1 X47.309 Y87.704 E112.29281
G1 X47.786 Y87.602 E112.31334
G1 X48.171 Y87.577 E112.32958
M204 S3000
G0 F4200 X48.171 Y87.974
M204 S400
G1 F1800 X161.829 Y87.974 E117.11329
G1 X162.281 Y88.014 E117.13238
G1 X162.719 Y88.132 E117.15148
G1 X163.13 Y88.326 E117.1706
G1 X163.654 Y88.73 E117.19845
G1 X164.062 Y89.194 E117.22446
G1 X164.288 Y89.588 E117.24358
G1 X164.441 Y90.015 E117.26267
G1 X164.526 Y90.671 E117.29051
G1 X164.526 Y119.329 E118.49668
G1 X164.486 Y119.781 E118.51578
G1 X164.368 Y120.219 E118.53487
G1 X164.174 Y120.63 E118.554
G1 X163.77 Y121.154 E118.58185
G1 X163.306 Y121.562 E118.60786
G1 X162.912 Y121.788 E118.62697
G1 X162.485 Y121.941 E118.64606
G1 X161.829 Y122.026 E118.6739
G1 X48.171 Y122.026 E123.45761
G1 X47.719 Y121.986 E123.47671
G1 X47.281 Y121.868 E123.4958
G1 X46.87 Y121.674 E123.51493
G1 X46.346 Y121.27 E123.54278
G1 X45.938 Y120.806 E123.56879
G1 X45.712 Y120.412 E123.5879
G1 X45.559 Y119.985 E123.60699
G1 X45.474 Y119.329 E123.63483
G1 X45.474 Y90.671 E124.84101
G1 X45.514 Y90.219 E124.86011
G1 X45.632 Y89.781 E124.8792
G1 X45.826 Y89.37 E124.89833
G1 X46.23 Y88.846 E124.92618
G1 X46.694 Y88.438 E124.95218
G1 X47.088 Y88.212 E124.9713
G1 X47.515 Y88.059 E124.99039
G1 X48.171 Y87.974 E125.01823
M204 S3000
G0 F4200 X48.171 Y88.371
M204 S400
G1 F1800 X161.829 Y88.371 E129.80194
G1 X162.245 Y88.411 E129.81953
G1 X162.645 Y88.529 E129.83708
G1 X163.016 Y88.721 E129.85466
G1 X163.489 Y89.127 E129.8809
G1 X163.755 Y89.449 E129.89848
G1 X163.954 Y89.816 E129.91605
G1 X164.081 Y90.214 E129.93363
G1 X164.129 Y90.671 E129.95297
G1 X164.129 Y119.329 E131.15915
G1 X164.089 Y119.745 E131.17674
G1 X163.971 Y120.145 E131.19429
G1 X163.779 Y120.516 E131.21187
G1 X163.373 Y120.989 E131.23811
G1 X163.051 Y121.255 E131.25569
G1 X162.684 Y121.454 E131.27326
G1 X162.286 Y121.581 E131.29084
G1 X161.829 Y121.629 E131.31018
G1 X48.171 Y121.629 E136.09389
G1 X47.755 Y121.589 E136.11148
G1 X47.355 Y121.471 E136.12903
G1 X46.984 Y121.279 E136.14662
G1 X46.511 Y120.873 E136.17285
G1 X46.245 Y120.551 E136.19043
G1 X46.046 Y120.184 E136.208
G1 X45.919 Y119.786 E136.22559
G1 X45.871 Y119.329 E136.24493
G1 X45.871 Y90.671 E137.4511
G1 X45.911 Y90.255 E137.46869
G1 X46.029 Y89.855 E137.48624
G1 X46.221 Y89.484 E137.50383
G1 X46.627 Y89.011 E137.53006
G1 X46.949 Y88.745 E137.54764
G1 X47.316 Y88.546 E137.56521
G1 X47.714 Y88.419 E137.5828
G1 X48.171 Y88.371 E137.60214
M204 S3000
G0 F4200 X48.171 Y88.768
M204 S400
G1 F1800 X161.829 Y88.768 E142.38584
G1 X162.204 Y88.808 E142.40172
G1 X162.563 Y88.926 E142.41762
G1 X162.889 Y89.116 E142.4335
G1 X163.209 Y89.407 E142.45171
G1 X163.446 Y89.701 E142.4676
G1 X163.616 Y90.038 E142.48349
G1 X163.712 Y90.403 E142.49937
G1 X163.732 Y90.671 E142.51068
G1 X163.732 Y119.329 E143.71686
G1 X163.692 Y119.704 E143.73273
G1 X163.574 Y120.063 E143.74864
G1 X163.384 Y120.389 E143.76452
G1 X163.093 Y120.709 E143.78272
G1 X162.799 Y120.946 E143.79862
G1 X162.462 Y121.116 E143.8145
G1 X162.097 Y121.212 E143.83039
G1 X161.829 Y121.232 E143.8417
G1 X48.171 Y121.232 E148.62541
G1 X47.796 Y121.192 E148.64128
G1 X47.437 Y121.074 E148.65719
G1 X47.111 Y120.884 E148.67307
G1 X46.791 Y120.593 E148.69127
G1 X46.554 Y120.299 E148.70717
G1 X46.384 Y119.962 E148.72305
G1 X46.288 Y119.597 E148.73894
G1 X46.268 Y119.329 E148.75025
G1 X46.268 Y90.671 E149.95642
G1 X46.308 Y90.296 E149.9723
G1 X46.426 Y89.937 E149.9882
G1 X46.616 Y89.611 E150.00408
G1 X46.907 Y89.291 E150.02229
G1 X47.201 Y89.054 E150.03818
G1 X47.538 Y88.884 E150.05407
G1 X47.903 Y88.788 E150.06995
G1 X48.171 Y88.768 E150.08126
M204 S3000
G0 F4200 X48.171 Y89.165
M204 S400
G1 F1800 X161.829 Y89.165 E154.86497
G1 X162.159 Y89.205 E154.87896
G1 X162.471 Y89.322 E154.89299
G1 X162.928 Y89.688 E154.91763
G1 X163.133 Y89.95 E154.93163
G1 X163.271 Y90.253 E154.94565
G1 X163.335 Y90.671 E154.96344
G1 X163.335 Y119.329 E156.16962
G1 X163.295 Y119.659 E156.18361
G1 X163.178 Y119.971 E156.19764
G1 X162.812 Y120.428 E156.22228
G1 X162.55 Y120.633 E156.23628
G1 X162.247 Y120.771 E156.25029
G1 X161.829 Y120.835 E156.26809
G1 X48.171 Y120.835 E161.0518
G1 X47.841 Y120.795 E161.06579
G1 X47.529 Y120.678 E161.07982
G1 X47.072 Y120.312 E161.10446
G1 X46.867 Y120.05 E161.11846
G1 X46.729 Y119.747 E161.13247
G1 X46.665 Y119.329 E161.15027
G1 X46.665 Y90.671 E162.35645
G1 X46.705 Y90.341 E162.37044
G1 X46.822 Y90.029 E162.38446
G1 X47.188 Y89.572 E162.4091
G1 X47.45 Y89.367 E162.42311
G1 X47.753 Y89.229 E162.43712
G1 X48.171 Y89.165 E162.45492
M204 S3000
G0 F4200 X48.171 Y89.562
M204 S400
G1 F1800 X161.829 Y89.562 E167.23863
G1 X162.107 Y89.602 E167.25045
G1 X162.363 Y89.718 E167.26228
G1 X162.647 Y89.969 E167.27823
G1 X162.816 Y90.194 E167.29007
G1 X162.915 Y90.457 E167.3019
G1 X162.938 Y90.671 E167.31096
G1 X162.938 Y119.329 E168.51713
G1 X162.898 Y119.607 E168.52896
G1 X162.782 Y119.863 E168.54079
G1 X162.531 Y120.147 E168.55674
G1 X162.306 Y120.316 E168.56858
G1 X162.043 Y120.415 E168.58041
G1 X161.829 Y120.438 E168.58947
G1 X48.171 Y120.438 E173.37318
G1 X47.893 Y120.398 E173.385
G1 X47.637 Y120.282 E173.39683
G1 X47.353 Y120.031 E173.41278
G1 X47.184 Y119.806 E173.42462
G1 X47.085 Y119.543 E173.43645
G1 X47.062 Y119.329 E173.44551
G1 X47.062 Y90.671 E174.65169
G1 X47.102 Y90.393 E174.66351
G1 X47.218 Y90.137 E174.67534
G1 X47.469 Y89.853 E174.69129
G1 X47.694 Y89.684 E174.70313
G1 X47.957 Y89.585 E174.71496
G1 X48.171 Y89.562 E174.72402
M204 S3000
G0 F4200 X48.171 Y89.959
M204 S400
G1 F1800 X161.829 Y89.959 E179.50773
G1 X162.043 Y89.999 E179.51689
G1 X162.366 Y90.25 E179.53411
G1 X162.49 Y90.429 E179.54327
G1 X162.541 Y90.671 E179.55368
G1 X162.541 Y119.329 E180.75986
G1 X162.501 Y119.543 E180.76902
G1 X162.25 Y119.866 E180.78624
G1 X162.071 Y119.99 E180.7954
G1 X161.829 Y120.041 E180.80581
G1 X48.171 Y120.041 E185.58952
G1 X47.957 Y120.001 E185.59868
G1 X47.634 Y119.75 E185.6159
G1 X47.51 Y119.571 E185.62506
G1 X47.459 Y119.329 E185.63547
G1 X47.459 Y90.671 E186.84165
G1 X47.499 Y90.457 E186.85081
G1 X47.75 Y90.134 E186.86803
G1 X47.929 Y90.01 E186.87719
G1 X48.171 Y89.959 E186.8876
M204 S3000
G0 F4200 X48.171 Y90.356
M204 S400
G1 F1800 X161.829 Y90.356 E191.67131
G1 X161.97 Y90.414 E191.67773
G1 X162.086 Y90.53 E191.68463
G1 X162.144 Y90.671 E191.69105
G1 X162.144 Y119.329 E192.89723
G1 X162.086 Y119.47 E192.90364
G1 X161.97 Y119.586 E192.91055
