;FLAVOR:Marlin
;TIME:2130
;Filament used: 1.64477m
;Layer height: 0.2
;MINX:77.085
;MINY:77.077
;MINZ:0.25
;MAXX:132.915
;MAXY:132.923
;MAXZ:14.85
;Generated with Cura_SteamEngine 4.9.0
M140 S60
M105
M190 S60
M104 S200
M105
M109 S200
M82 ;absolute extrusion mode
G21 ;metric values
G90 ;absolute positioning
M82 ;set extruder to absolute mode
M107 ;start with the fan off
G28 X0 Y0 ;move X/Y to min endstops
G28 Z0 ;move Z to min endstops
G1 Z15.0 F120 ;move the platform down 15mm
G92 E0 ;zero the extruded length
G1 F200 E3 ;extrude 3mm of feed stock
G92 E0 ;zero the extruded length again
G1 F120
G0 Y20 F120
M117 Printing...
G5
G92 E0
G92 E0
G1 F3000 E-5
;LAYER_COUNT:74
;LAYER:0
M106 S51
M204 S3000
M205 X10 Y10
G1 F600 Z0.325
G0 F4200 X89.695 Y78.355 Z0.325
M204 S400
;TYPE:SKIRT
G1 F600 Z0.25
G1 F3000 E0.06236
G1 F1800 X90.065 Y77.949 E0.08503
G1 X90.437 Y77.634 E0.10514
G1 X90.856 Y77.383 E0.1253
G1 X91.309 Y77.204 E0.1454
G1 X91.786 Y77.102 E0.16552
G1 X92.171 Y77.077 E0.18144
G1 X117.829 Y77.077 E1.24018
G1 X118.315 Y77.117 E1.2603
G1 X118.788 Y77.236 E1.28043
G1 X119.235 Y77.43 E1.30053
G1 X119.645 Y77.695 E1.32068
G1 X120.051 Y78.065 E1.34334
G1 X120.366 Y78.437 E1.36346
G1 X120.617 Y78.856 E1.38361
G1 X120.796 Y79.309 E1.40371
G1 X120.898 Y79.786 E1.42384
G1 X120.923 Y80.171 E1.43976
G1 X120.923 Y82.069 E1.51808
G1 X121.763 Y82.669 E1.56067
G1 X121.885 Y82.761 E1.56698
G1 X122.867 Y83.542 E1.61875
G1 X122.98 Y83.637 E1.62484
G1 X123.905 Y84.451 E1.67568
G1 X124.015 Y84.553 E1.68187
G1 X124.908 Y85.422 E1.73329
G1 X125.012 Y85.529 E1.73945
G1 X125.869 Y86.451 E1.79139
G1 X125.966 Y86.56 E1.79741
G1 X126.761 Y87.504 E1.84833
G1 X126.856 Y87.623 E1.85462
G1 X127.61 Y88.618 E1.90613
G1 X127.694 Y88.735 E1.91207
G1 X128.397 Y89.762 E1.96343
G1 X128.479 Y89.888 E1.96963
G1 X129.134 Y90.957 E2.02137
G1 X129.209 Y91.087 E2.02756
G1 X129.801 Y92.172 E2.07856
G1 X129.87 Y92.305 E2.08474
G1 X130.412 Y93.43 E2.13627
G1 X130.472 Y93.564 E2.14233
G1 X130.956 Y94.71 E2.19366
G1 X131.011 Y94.849 E2.19983
G1 X131.441 Y96.028 E2.25161
G1 X131.488 Y96.168 E2.25771
G1 X131.854 Y97.352 E2.30884
G1 X131.894 Y97.495 E2.31497
G1 X132.204 Y98.709 E2.36667
G1 X132.237 Y98.853 E2.37277
G1 X132.482 Y100.059 E2.42355
G1 X132.508 Y100.215 E2.43007
G1 X132.694 Y101.44 E2.4812
G1 X132.713 Y101.589 E2.4874
G1 X132.838 Y102.83 E2.53887
G1 X132.849 Y102.979 E2.54503
G1 X132.911 Y104.22 E2.5963
G1 X132.915 Y104.369 E2.60245
G1 X132.915 Y105.618 E2.65399
G1 X132.911 Y105.767 E2.66014
G1 X132.848 Y107.023 E2.71203
G1 X132.837 Y107.172 E2.7182
G1 X132.712 Y108.417 E2.76983
G1 X132.694 Y108.563 E2.7759
G1 X132.511 Y109.777 E2.82656
G1 X132.485 Y109.924 E2.83272
G1 X132.237 Y111.149 E2.88429
G1 X132.204 Y111.292 E2.89035
G1 X131.901 Y112.483 E2.94106
G1 X131.86 Y112.629 E2.94731
G1 X131.488 Y113.832 E2.99927
G1 X131.441 Y113.972 E3.00537
G1 X131.01 Y115.154 E3.05728
G1 X130.955 Y115.294 E3.06349
G1 X130.474 Y116.431 E3.11443
G1 X130.414 Y116.563 E3.12041
G1 X129.869 Y117.695 E3.17226
G1 X129.801 Y117.829 E3.17846
G1 X129.211 Y118.911 E3.22931
G1 X129.135 Y119.041 E3.23552
G1 X128.481 Y120.108 E3.28716
G1 X128.4 Y120.233 E3.29331
G1 X127.692 Y121.268 E3.34505
G1 X127.609 Y121.384 E3.35094
G1 X126.859 Y122.375 E3.40222
G1 X126.76 Y122.498 E3.40874
G1 X125.962 Y123.444 E3.45981
G1 X125.869 Y123.549 E3.46559
G1 X125.021 Y124.463 E3.51704
G1 X124.913 Y124.574 E3.52343
G1 X124.014 Y125.447 E3.57514
G1 X123.907 Y125.546 E3.58115
G1 X122.977 Y126.365 E3.63229
G1 X122.863 Y126.461 E3.63844
G1 X121.89 Y127.235 E3.68974
G1 X121.769 Y127.326 E3.69599
G1 X120.923 Y127.931 E3.7389
G1 X120.923 Y129.829 E3.81722
G1 X120.883 Y130.315 E3.83734
G1 X120.764 Y130.788 E3.85747
G1 X120.57 Y131.235 E3.87758
G1 X120.305 Y131.645 E3.89772
G1 X119.935 Y132.051 E3.92039
G1 X119.563 Y132.366 E3.9405
G1 X119.144 Y132.617 E3.96066
G1 X118.691 Y132.796 E3.98075
G1 X118.214 Y132.898 E4.00088
G1 X117.829 Y132.923 E4.0168
G1 X92.171 Y132.923 E5.07554
G1 X91.685 Y132.883 E5.09566
G1 X91.212 Y132.764 E5.11578
G1 X90.765 Y132.57 E5.13589
G1 X90.355 Y132.305 E5.15604
G1 X89.949 Y131.935 E5.1787
G1 X89.634 Y131.563 E5.19882
G1 X89.383 Y131.144 E5.21897
G1 X89.204 Y130.691 E5.23907
G1 X89.102 Y130.214 E5.2592
G1 X89.077 Y129.829 E5.27512
G1 X89.077 Y127.931 E5.35343
G1 X88.229 Y127.324 E5.39647
G1 X88.108 Y127.232 E5.40274
G1 X87.134 Y126.457 E5.4541
G1 X87.021 Y126.363 E5.46016
G1 X86.092 Y125.546 E5.51121
G1 X85.982 Y125.444 E5.5174
G1 X85.083 Y124.569 E5.56917
G1 X84.978 Y124.462 E5.57535
G1 X84.129 Y123.548 E5.62683
G1 X84.034 Y123.44 E5.63276
G1 X83.237 Y122.494 E5.68381
G1 X83.14 Y122.373 E5.69021
G1 X82.388 Y121.38 E5.7416
G1 X82.304 Y121.263 E5.74755
G1 X81.596 Y120.228 E5.79929
G1 X81.514 Y120.102 E5.80549
G1 X80.864 Y119.04 E5.85687
G1 X80.79 Y118.911 E5.86301
G1 X80.197 Y117.824 E5.9141
G1 X80.127 Y117.689 E5.92038
G1 X79.582 Y116.556 E5.97226
G1 X79.523 Y116.424 E5.97822
G1 X79.043 Y115.288 E6.02911
G1 X78.988 Y115.15 E6.03524
G1 X78.557 Y113.969 E6.08712
G1 X78.51 Y113.827 E6.09329
G1 X78.146 Y112.648 E6.1442
G1 X78.105 Y112.505 E6.15034
G1 X77.795 Y111.29 E6.20208
G1 X77.763 Y111.147 E6.20813
G1 X77.516 Y109.931 E6.25933
G1 X77.306 Y108.558 E6.31664
G1 X77.287 Y108.409 E6.32284
G1 X77.162 Y107.163 E6.37451
G1 X77.151 Y107.015 E6.38064
G1 X77.089 Y105.781 E6.43162
G1 X77.085 Y105.632 E6.43777
G1 X77.085 Y104.381 E6.48939
G1 X77.089 Y104.232 E6.49554
G1 X77.152 Y102.977 E6.54739
G1 X77.163 Y102.828 E6.55356
G1 X77.288 Y101.583 E6.60519
G1 X77.306 Y101.437 E6.61126
G1 X77.489 Y100.223 E6.66192
G1 X77.515 Y100.076 E6.66808
G1 X77.763 Y98.851 E6.71965
G1 X77.796 Y98.708 E6.72571
G1 X78.099 Y97.517 E6.77642
G1 X78.14 Y97.371 E6.78268
G1 X78.512 Y96.168 E6.83463
G1 X78.559 Y96.028 E6.84073
G1 X78.99 Y94.846 E6.89264
G1 X79.045 Y94.706 E6.89885
G1 X79.526 Y93.569 E6.94979
G1 X79.586 Y93.437 E6.95577
G1 X80.131 Y92.305 E7.00762
G1 X80.2 Y92.171 E7.01384
G1 X80.792 Y91.086 E7.06484
G1 X80.867 Y90.956 E7.07103
G1 X81.519 Y89.892 E7.12252
G1 X81.6 Y89.766 E7.1287
G1 X82.309 Y88.73 E7.1805
G1 X82.393 Y88.614 E7.18641
G1 X83.145 Y87.621 E7.23781
G1 X83.242 Y87.5 E7.24421
G1 X84.037 Y86.557 E7.2951
G1 X84.131 Y86.451 E7.30095
G1 X84.979 Y85.537 E7.3524
G1 X85.087 Y85.426 E7.35879
G1 X85.986 Y84.553 E7.4105
G1 X86.093 Y84.454 E7.41651
G1 X87.023 Y83.635 E7.46765
G1 X87.137 Y83.539 E7.4738
G1 X88.11 Y82.765 E7.5251
G1 X88.231 Y82.674 E7.53135
G1 X89.077 Y82.069 E7.57426
G1 X89.077 Y80.171 E7.65258
G1 X89.117 Y79.685 E7.6727
G1 X89.236 Y79.212 E7.69283
G1 X89.43 Y78.765 E7.71293
G1 X89.695 Y78.355 E7.73308
M204 S3000
G0 F4200 X89.826 Y78.87
M204 S400
G1 F1800 X90.23 Y78.346 E7.76038
G1 X90.694 Y77.938 E7.78588
G1 X91.088 Y77.712 E7.80462
G1 X91.515 Y77.559 E7.82334
G1 X92.171 Y77.474 E7.85063
G1 X117.829 Y77.474 E8.90937
G1 X118.281 Y77.514 E8.92809
G1 X118.719 Y77.632 E8.94681
G1 X119.13 Y77.826 E8.96556
G1 X119.654 Y78.23 E8.99286
G1 X120.062 Y78.694 E9.01836
G1 X120.288 Y79.088 E9.0371
G1 X120.441 Y79.515 E9.05582
G1 X120.526 Y80.171 E9.08311
G1 X120.526 Y82.273 E9.16985
G1 X121.532 Y82.992 E9.22087
G1 X121.638 Y83.072 E9.22635
G1 X122.62 Y83.853 E9.27812
G1 X122.718 Y83.935 E9.2834
G1 X123.643 Y84.749 E9.33424
G1 X123.738 Y84.837 E9.33958
G1 X124.631 Y85.706 E9.391
G1 X124.721 Y85.799 E9.39634
G1 X125.578 Y86.721 E9.44828
G1 X125.662 Y86.815 E9.45348
G1 X126.457 Y87.759 E9.50441
G1 X126.54 Y87.863 E9.5099
G1 X127.294 Y88.858 E9.56141
G1 X127.367 Y88.959 E9.56655
G1 X128.07 Y89.986 E9.61791
G1 X128.141 Y90.096 E9.62331
G1 X128.796 Y91.165 E9.67504
G1 X128.861 Y91.277 E9.68039
G1 X129.453 Y92.362 E9.73139
G1 X129.512 Y92.478 E9.73676
G1 X130.054 Y93.603 E9.78829
G1 X130.107 Y93.719 E9.79355
G1 X130.591 Y94.865 E9.84488
G1 X130.638 Y94.985 E9.8502
G1 X131.068 Y96.164 E9.90198
G1 X131.109 Y96.286 E9.90729
G1 X131.475 Y97.47 E9.95843
G1 X131.51 Y97.593 E9.96371
G1 X131.82 Y98.807 E10.01541
G1 X131.848 Y98.932 E10.0207
G1 X132.093 Y100.138 E10.07148
G1 X132.302 Y101.5 E10.12833
G1 X132.318 Y101.628 E10.13366
G1 X132.443 Y102.869 E10.18512
G1 X132.453 Y102.999 E10.1905
G1 X132.515 Y104.24 E10.24178
G1 X132.518 Y104.369 E10.2471
G1 X132.518 Y105.618 E10.29864
G1 X132.515 Y105.747 E10.30396
G1 X132.452 Y107.003 E10.35585
G1 X132.442 Y107.132 E10.36119
G1 X132.317 Y108.377 E10.41282
G1 X132.301 Y108.504 E10.41811
G1 X132.118 Y109.718 E10.46877
G1 X132.096 Y109.845 E10.47408
G1 X131.848 Y111.07 E10.52566
G1 X131.819 Y111.194 E10.53091
G1 X131.516 Y112.385 E10.58162
G1 X131.481 Y112.511 E10.58702
G1 X131.109 Y113.714 E10.63898
G1 X131.068 Y113.836 E10.64429
G1 X130.637 Y115.018 E10.6962
G1 X130.589 Y115.14 E10.70161
G1 X130.108 Y116.277 E10.75255
G1 X130.057 Y116.391 E10.75771
G1 X129.512 Y117.523 E10.80955
G1 X129.452 Y117.639 E10.81494
G1 X128.862 Y118.721 E10.86579
G1 X128.797 Y118.834 E10.87117
G1 X128.143 Y119.901 E10.92281
G1 X128.072 Y120.009 E10.92814
G1 X127.364 Y121.044 E10.97989
G1 X127.292 Y121.145 E10.98501
G1 X126.542 Y122.136 E11.03629
G1 X126.457 Y122.242 E11.04189
G1 X125.659 Y123.188 E11.09296
G1 X125.578 Y123.279 E11.09799
G1 X124.73 Y124.193 E11.14944
G1 X124.636 Y124.29 E11.15501
G1 X123.737 Y125.163 E11.20672
G1 X123.645 Y125.248 E11.21189
G1 X122.715 Y126.067 E11.26302
G1 X122.616 Y126.15 E11.26835
G1 X121.643 Y126.924 E11.31966
G1 X121.538 Y127.003 E11.32508
G1 X120.526 Y127.727 E11.37642
G1 X120.526 Y129.829 E11.46316
G1 X120.486 Y130.281 E11.48188
G1 X120.368 Y130.719 E11.5006
G1 X120.174 Y131.13 E11.51935
G1 X119.77 Y131.654 E11.54666
G1 X119.306 Y132.062 E11.57215
G1 X118.912 Y132.288 E11.59089
G1 X118.485 Y132.441 E11.60961
G1 X117.829 Y132.526 E11.6369
G1 X92.171 Y132.526 E12.69564
G1 X91.719 Y132.486 E12.71436
G1 X91.281 Y132.368 E12.73308
G1 X90.87 Y132.174 E12.75184
G1 X90.346 Y131.77 E12.77914
G1 X89.938 Y131.306 E12.80463
G1 X89.712 Y130.912 E12.82338
G1 X89.559 Y130.485 E12.84209
G1 X89.474 Y129.829 E12.86939
G1 X89.473 Y127.726 E12.95616
G1 X88.46 Y127.001 E13.00757
G1 X88.355 Y126.922 E13.01299
G1 X87.381 Y126.147 E13.06435
G1 X87.284 Y126.065 E13.06959
G1 X86.355 Y125.248 E13.12064
G1 X86.259 Y125.16 E13.12601
G1 X85.36 Y124.285 E13.17778
G1 X85.269 Y124.192 E13.18315
G1 X84.42 Y123.278 E13.23462
G1 X84.337 Y123.184 E13.2398
G1 X83.54 Y122.238 E13.29084
G1 X83.456 Y122.133 E13.29639
G1 X82.704 Y121.14 E13.34779
G1 X82.632 Y121.039 E13.3529
G1 X81.924 Y120.004 E13.40465
G1 X81.853 Y119.894 E13.41005
G1 X81.203 Y118.832 E13.46143
G1 X81.138 Y118.721 E13.46674
G1 X80.545 Y117.634 E13.51783
G1 X80.485 Y117.517 E13.52325
G1 X79.94 Y116.384 E13.57513
G1 X79.889 Y116.27 E13.58029
G1 X79.409 Y115.134 E13.63117
G1 X79.361 Y115.014 E13.63651
G1 X78.93 Y113.833 E13.68838
G1 X78.889 Y113.709 E13.69377
G1 X78.525 Y112.53 E13.74469
G1 X78.49 Y112.407 E13.74996
G1 X78.18 Y111.192 E13.80171
G1 X78.152 Y111.068 E13.80695
G1 X77.905 Y109.852 E13.85815
G1 X77.698 Y108.498 E13.91467
G1 X77.682 Y108.37 E13.91999
G1 X77.557 Y107.124 E13.97167
G1 X77.547 Y106.996 E13.97696
G1 X77.485 Y105.762 E14.02795
G1 X77.482 Y105.632 E14.03331
G1 X77.482 Y104.381 E14.08493
G1 X77.485 Y104.252 E14.09026
G1 X77.548 Y102.997 E14.14211
G1 X77.558 Y102.868 E14.14745
G1 X77.683 Y101.623 E14.19908
G1 X77.699 Y101.496 E14.20436
G1 X77.882 Y100.282 E14.25502
G1 X77.904 Y100.155 E14.26034
G1 X78.152 Y98.93 E14.31191
G1 X78.181 Y98.806 E14.31717
G1 X78.484 Y97.615 E14.36788
G1 X78.519 Y97.489 E14.37327
G1 X78.891 Y96.286 E14.42523
G1 X78.932 Y96.164 E14.43054
G1 X79.363 Y94.982 E14.48246
G1 X79.411 Y94.86 E14.48787
G1 X79.892 Y93.723 E14.53881
G1 X79.943 Y93.609 E14.54396
G1 X80.488 Y92.477 E14.5958
G1 X80.548 Y92.361 E14.60119
G1 X81.14 Y91.276 E14.65219
G1 X81.205 Y91.163 E14.65757
G1 X81.857 Y90.099 E14.70907
G1 X81.928 Y89.99 E14.71443
G1 X82.637 Y88.954 E14.76623
G1 X82.709 Y88.854 E14.77132
G1 X83.461 Y87.861 E14.82272
G1 X83.546 Y87.755 E14.82832
G1 X84.341 Y86.812 E14.87922
G1 X84.422 Y86.721 E14.88424
G1 X85.27 Y85.807 E14.93569
G1 X85.364 Y85.71 E14.94127
G1 X86.263 Y84.837 E14.99297
G1 X86.355 Y84.752 E14.99814
G1 X87.285 Y83.933 E15.04928
G1 X87.384 Y83.85 E15.05461
G1 X88.357 Y83.076 E15.10591
G1 X88.462 Y82.997 E15.11133
G1 X89.474 Y82.273 E15.16268
G1 X89.474 Y80.171 E15.24941
G1 X89.514 Y79.719 E15.26814
G1 X89.632 Y79.281 E15.28685
G1 X89.826 Y78.87 E15.30561
M204 S3000
G0 F4200 X90.221 Y78.984
M204 S400
G1 F1800 X90.627 Y78.511 E15.33133
G1 X90.949 Y78.245 E15.34856
G1 X91.316 Y78.046 E15.36579
G1 X91.714 Y77.919 E15.38303
G1 X92.171 Y77.871 E15.40199
G1 X117.829 Y77.871 E16.46072
G1 X118.245 Y77.911 E16.47797
G1 X118.645 Y78.029 E16.49518
G1 X119.016 Y78.221 E16.51242
G1 X119.489 Y78.627 E16.53814
G1 X119.755 Y78.949 E16.55537
G1 X119.954 Y79.316 E16.5726
G1 X120.081 Y79.714 E16.58984
G1 X120.129 Y80.171 E16.6088
G1 X120.129 Y82.486 E16.70432
G1 X120.295 Y82.596 E16.71254
G1 X121.301 Y83.315 E16.76356
G1 X121.39 Y83.383 E16.76818
G1 X122.372 Y84.164 E16.81996
G1 X122.456 Y84.233 E16.82444
G1 X123.381 Y85.047 E16.87529
G1 X123.461 Y85.122 E16.87981
G1 X124.354 Y85.991 E16.93123
G1 X124.431 Y86.069 E16.93575
G1 X125.288 Y86.991 E16.98769
G1 X125.359 Y87.071 E16.9921
G1 X126.154 Y88.015 E17.04303
G1 X126.224 Y88.103 E17.04767
G1 X126.978 Y89.098 E17.09918
G1 X127.039 Y89.183 E17.1035
G1 X127.742 Y90.21 E17.15486
G1 X127.802 Y90.303 E17.15942
G1 X128.457 Y91.372 E17.21115
G1 X128.512 Y91.467 E17.21568
G1 X129.104 Y92.552 E17.26669
G1 X129.155 Y92.65 E17.27124
G1 X129.697 Y93.775 E17.32277
G1 X129.741 Y93.873 E17.32721
G1 X130.225 Y95.019 E17.37854
G1 X130.265 Y95.121 E17.38306
G1 X130.695 Y96.3 E17.43484
G1 X130.73 Y96.403 E17.43933
G1 X131.096 Y97.587 E17.49047
G1 X131.125 Y97.692 E17.49496
G1 X131.435 Y98.906 E17.54666
G1 X131.459 Y99.011 E17.55111
G1 X131.704 Y100.217 E17.60189
G1 X131.909 Y101.559 E17.65791
G1 X131.923 Y101.668 E17.66244
G1 X132.048 Y102.909 E17.71391
G1 X132.056 Y103.019 E17.71846
G1 X132.118 Y104.26 E17.76973
G1 X132.121 Y104.369 E17.77423
G1 X132.121 Y105.618 E17.82577
G1 X132.118 Y105.727 E17.83027
G1 X132.055 Y106.983 E17.88216
G1 X132.047 Y107.092 E17.88667
G1 X131.922 Y108.337 E17.9383
G1 X131.909 Y108.445 E17.94279
G1 X131.726 Y109.659 E17.99345
G1 X131.707 Y109.766 E17.99793
G1 X131.459 Y110.991 E18.04951
G1 X131.435 Y111.096 E18.05395
G1 X131.132 Y112.287 E18.10466
G1 X131.102 Y112.394 E18.10925
G1 X130.73 Y113.597 E18.1612
G1 X130.695 Y113.7 E18.16569
G1 X130.264 Y114.882 E18.21761
G1 X130.223 Y114.985 E18.22218
G1 X129.742 Y116.122 E18.27312
G1 X129.699 Y116.218 E18.27746
G1 X129.154 Y117.35 E18.32931
G1 X129.103 Y117.449 E18.3339
G1 X128.513 Y118.531 E18.38476
G1 X128.458 Y118.626 E18.38928
G1 X127.804 Y119.693 E18.44092
G1 X127.745 Y119.785 E18.44543
G1 X127.037 Y120.82 E18.49718
G1 X126.975 Y120.905 E18.50152
G1 X126.225 Y121.896 E18.5528
G1 X126.153 Y121.986 E18.55756
G1 X125.355 Y122.932 E18.60863
G1 X125.287 Y123.009 E18.61287
G1 X124.439 Y123.923 E18.66431
G1 X124.359 Y124.005 E18.66904
G1 X123.46 Y124.878 E18.72075
G1 X123.382 Y124.95 E18.72513
G1 X122.452 Y125.769 E18.77626
G1 X122.369 Y125.839 E18.78074
G1 X121.396 Y126.613 E18.83205
G1 X121.307 Y126.68 E18.83664
G1 X120.291 Y127.407 E18.88819
G1 X120.129 Y127.515 E18.89623
G1 X120.129 Y129.829 E18.99171
G1 X120.089 Y130.245 E19.00896
G1 X119.971 Y130.645 E19.02616
G1 X119.779 Y131.016 E19.0434
G1 X119.373 Y131.489 E19.06912
G1 X119.051 Y131.755 E19.08636
G1 X118.684 Y131.954 E19.10358
G1 X118.286 Y132.081 E19.12082
G1 X117.829 Y132.129 E19.13978
G1 X92.171 Y132.129 E20.19852
G1 X91.755 Y132.089 E20.21576
G1 X91.355 Y131.971 E20.23297
G1 X90.984 Y131.779 E20.25021
G1 X90.511 Y131.373 E20.27593
G1 X90.245 Y131.051 E20.29316
G1 X90.046 Y130.684 E20.31039
G1 X89.919 Y130.286 E20.32763
G1 X89.871 Y129.829 E20.34659
G1 X89.871 Y127.514 E20.44212
G1 X89.704 Y127.403 E20.45039
G1 X88.691 Y126.678 E20.50179
G1 X88.602 Y126.611 E20.50639
G1 X87.628 Y125.836 E20.55775
G1 X87.546 Y125.767 E20.56217
G1 X86.617 Y124.95 E20.61322
G1 X86.536 Y124.875 E20.61778
G1 X85.637 Y124 E20.66954
G1 X85.56 Y123.921 E20.67409
G1 X84.711 Y123.007 E20.72557
G1 X84.641 Y122.928 E20.72992
