;FLAVOR:Marlin
;TIME:3687
;Filament used: 3.24666m
;Layer height: 0.2
;MINX:44.077
;MINY:77.077
;MINZ:0.25
;MAXX:164.618
;MAXY:132.923
;MAXZ:7.85
;Generated with Cura_SteamEngine 4.9.0
M140 S60
M105
M190 S60
M104 S200
M105
M109 S200
M82 ;absolute extrusion mode
G21 ;metric values
G90 ;absolute positioning
M82 ;set extruder to absolute mode
M107 ;start with the fan off
G28 X0 Y0 ;move X/Y to min endstops
G28 Z0 ;move Z to min endstops
G1 Z15.0 F120 ;move the platform down 15mm
G92 E0 ;zero the extruded length
G1 F200 E3 ;extrude 3mm of feed stock
G92 E0 ;zero the extruded length again
G1 F120
G0 Y20 F120
M117 Printing...
G5
G92 E0
G92 E0
G1 F3000 E-5
;LAYER_COUNT:39
;LAYER:0
M106 S51
M204 S3000
M205 X10 Y10
G1 F600 Z0.325
G0 F4200 X45.856 Y77.383 Z0.325
M204 S400
;TYPE:SKIRT
G1 F600 Z0.25
G1 F3000 E0.06236
G1 F1800 X46.309 Y77.204 E0.08246
G1 X46.786 Y77.102 E0.10259
G1 X47.171 Y77.077 E0.11851
G1 X122.965 Y77.077 E3.24602
G1 X123.549 Y77.135 E3.27024
G1 X123.594 Y77.144 E3.27213
G1 X124.204 Y77.336 E3.29852
G1 X162.767 Y94.208 E5.03539
G1 X163.196 Y94.439 E5.0555
G1 X163.582 Y94.737 E5.07562
G1 X164.058 Y95.296 E5.10592
G1 X164.359 Y95.823 E5.13096
G1 X164.52 Y96.283 E5.15107
G1 X164.617 Y97.036 E5.1824
G1 X164.618 Y112.963 E5.8396
G1 X164.578 Y113.449 E5.85972
G1 X164.459 Y113.922 E5.87985
G1 X164.125 Y114.603 E5.91115
G1 X163.758 Y115.087 E5.93621
G1 X163.399 Y115.416 E5.9563
G1 X162.768 Y115.791 E5.98659
G1 X124.204 Y132.664 E7.72352
G1 X123.594 Y132.856 E7.74991
G1 X123.549 Y132.865 E7.7518
G1 X122.965 Y132.923 E7.77602
G1 X47.171 Y132.923 E10.90353
G1 X46.685 Y132.883 E10.92365
G1 X46.212 Y132.764 E10.94378
G1 X45.765 Y132.57 E10.96389
G1 X45.355 Y132.305 E10.98403
G1 X44.949 Y131.935 E11.0067
G1 X44.634 Y131.563 E11.02681
G1 X44.383 Y131.144 E11.04696
G1 X44.204 Y130.691 E11.06706
G1 X44.102 Y130.214 E11.08719
G1 X44.077 Y129.829 E11.10311
G1 X44.077 Y127.171 E11.21279
G1 X44.117 Y126.685 E11.23291
G1 X44.236 Y126.212 E11.25304
G1 X44.43 Y125.765 E11.27314
G1 X44.695 Y125.355 E11.29329
G1 X45.065 Y124.949 E11.31595
G1 X45.437 Y124.634 E11.33607
G1 X45.856 Y124.383 E11.35622
G1 X46.309 Y124.204 E11.37632
G1 X46.786 Y124.102 E11.39645
G1 X47.171 Y124.077 E11.41237
G1 X90.015 Y124.077 E13.18025
G1 X100.613 Y105.719 E14.05493
G1 X100.613 Y104.281 E14.11427
G1 X90.015 Y85.923 E14.98895
G1 X47.171 Y85.923 E16.75684
G1 X46.685 Y85.883 E16.77696
G1 X46.212 Y85.764 E16.79709
G1 X45.765 Y85.57 E16.81719
G1 X45.355 Y85.305 E16.83734
G1 X44.949 Y84.935 E16.86
G1 X44.634 Y84.563 E16.88012
G1 X44.383 Y84.144 E16.90027
G1 X44.204 Y83.691 E16.92037
G1 X44.102 Y83.214 E16.9405
G1 X44.077 Y82.829 E16.95642
G1 X44.077 Y80.171 E17.0661
G1 X44.117 Y79.685 E17.08622
G1 X44.236 Y79.212 E17.10634
G1 X44.43 Y78.765 E17.12645
G1 X44.695 Y78.355 E17.14659
G1 X45.065 Y77.949 E17.16926
G1 X45.437 Y77.634 E17.18937
G1 X45.856 Y77.383 E17.20953
M204 S3000
G0 F4200 X46.088 Y77.712
M204 S400
G1 F1800 X46.515 Y77.559 E17.22824
G1 X47.171 Y77.474 E17.25554
G1 X122.965 Y77.474 E20.38305
G1 X123.471 Y77.524 E20.40404
G1 X123.516 Y77.533 E20.40593
G1 X124.045 Y77.699 E20.42881
G1 X162.608 Y94.571 E22.16568
G1 X163.006 Y94.789 E22.1844
G1 X163.36 Y95.073 E22.20313
G1 X163.727 Y95.514 E22.22681
G1 X164.009 Y96.014 E22.25049
G1 X164.151 Y96.445 E22.26922
G1 X164.22 Y97.036 E22.29377
G1 X164.221 Y112.963 E22.95097
G1 X164.181 Y113.415 E22.9697
G1 X164.063 Y113.853 E22.98841
G1 X163.794 Y114.385 E23.01301
G1 X163.446 Y114.84 E23.03665
G1 X163.105 Y115.141 E23.05542
G1 X162.609 Y115.428 E23.07906
G1 X124.045 Y132.301 E24.81599
G1 X123.516 Y132.467 E24.83887
G1 X123.471 Y132.476 E24.84076
G1 X122.965 Y132.526 E24.86174
G1 X47.171 Y132.526 E27.98926
G1 X46.719 Y132.486 E28.00798
G1 X46.281 Y132.368 E28.0267
G1 X45.87 Y132.174 E28.04545
G1 X45.346 Y131.77 E28.07276
G1 X44.938 Y131.306 E28.09825
G1 X44.712 Y130.912 E28.11699
G1 X44.559 Y130.485 E28.13571
G1 X44.474 Y129.829 E28.163
G1 X44.474 Y127.171 E28.27268
G1 X44.514 Y126.719 E28.29141
G1 X44.632 Y126.281 E28.31012
G1 X44.826 Y125.87 E28.32888
G1 X45.23 Y125.346 E28.35618
G1 X45.694 Y124.938 E28.38168
G1 X46.088 Y124.712 E28.40042
G1 X46.515 Y124.559 E28.41913
G1 X47.171 Y124.474 E28.44643
G1 X90.244 Y124.474 E30.22377
G1 X101.01 Y105.826 E31.11227
G1 X101.01 Y104.174 E31.18044
G1 X90.244 Y85.526 E32.06895
G1 X47.171 Y85.526 E33.84629
G1 X46.719 Y85.486 E33.86501
G1 X46.281 Y85.368 E33.88373
G1 X45.87 Y85.174 E33.90248
G1 X45.346 Y84.77 E33.92978
G1 X44.938 Y84.306 E33.95528
G1 X44.712 Y83.912 E33.97402
G1 X44.559 Y83.485 E33.99274
G1 X44.474 Y82.829 E34.02003
G1 X44.474 Y80.171 E34.12971
G1 X44.514 Y79.719 E34.14844
G1 X44.632 Y79.281 E34.16715
G1 X44.826 Y78.87 E34.18591
G1 X45.23 Y78.346 E34.21321
G1 X45.694 Y77.938 E34.2387
G1 X46.088 Y77.712 E34.25745
M204 S3000
G0 F4200 X46.316 Y78.046
M204 S400
G1 F1800 X46.714 Y77.919 E34.27469
G1 X47.171 Y77.871 E34.29365
G1 X122.965 Y77.871 E37.42116
G1 X123.438 Y77.922 E37.44079
G1 X123.885 Y78.063 E37.46013
G1 X162.448 Y94.935 E39.19701
G1 X162.813 Y95.138 E39.21424
G1 X163.133 Y95.407 E39.23149
G1 X163.462 Y95.833 E39.2537
G1 X163.657 Y96.202 E39.27092
G1 X163.779 Y96.601 E39.28814
G1 X163.823 Y97.036 E39.30618
G1 X163.824 Y112.963 E39.96338
G1 X163.784 Y113.378 E39.98058
G1 X163.666 Y113.779 E39.99783
G1 X163.397 Y114.266 E40.02079
G1 X163.135 Y114.591 E40.03801
G1 X162.815 Y114.86 E40.05526
G1 X162.449 Y115.064 E40.07255
G1 X123.885 Y131.937 E41.80948
G1 X123.393 Y132.087 E41.83071
G1 X122.965 Y132.129 E41.84845
G1 X47.171 Y132.129 E44.97597
G1 X46.755 Y132.089 E44.99321
G1 X46.355 Y131.971 E45.01042
G1 X45.984 Y131.779 E45.02766
G1 X45.511 Y131.373 E45.05338
G1 X45.245 Y131.051 E45.07061
G1 X45.046 Y130.684 E45.08784
G1 X44.919 Y130.286 E45.10508
G1 X44.871 Y129.829 E45.12404
G1 X44.871 Y127.171 E45.23372
G1 X44.911 Y126.755 E45.25096
G1 X45.029 Y126.355 E45.26817
G1 X45.221 Y125.984 E45.28541
G1 X45.627 Y125.511 E45.31113
G1 X45.949 Y125.245 E45.32836
G1 X46.316 Y125.046 E45.34559
G1 X46.714 Y124.919 E45.36283
G1 X47.171 Y124.871 E45.38179
G1 X90.473 Y124.871 E47.16858
G1 X101.407 Y105.932 E48.07095
G1 X101.407 Y104.068 E48.14786
G1 X90.473 Y85.129 E49.05024
G1 X47.171 Y85.129 E50.83702
G1 X46.755 Y85.089 E50.85427
G1 X46.355 Y84.971 E50.87148
G1 X45.984 Y84.779 E50.88871
G1 X45.511 Y84.373 E50.91444
G1 X45.245 Y84.051 E50.93167
G1 X45.046 Y83.684 E50.9489
G1 X44.919 Y83.286 E50.96614
G1 X44.871 Y82.829 E50.9851
G1 X44.871 Y80.171 E51.09477
G1 X44.911 Y79.755 E51.11202
G1 X45.029 Y79.355 E51.12923
G1 X45.221 Y78.984 E51.14647
G1 X45.627 Y78.511 E51.17219
G1 X45.949 Y78.245 E51.18942
G1 X46.316 Y78.046 E51.20665
M204 S3000
G0 F4200 X46.538 Y78.384
M204 S400
G1 F1800 X46.903 Y78.288 E51.22222
G1 X47.171 Y78.268 E51.23331
G1 X122.965 Y78.268 E54.36083
G1 X123.36 Y78.312 E54.37722
G1 X123.726 Y78.427 E54.39306
G1 X162.289 Y95.299 E56.12993
G1 X162.617 Y95.486 E56.14551
G1 X162.899 Y95.738 E56.16111
G1 X163.13 Y96.052 E56.1772
G1 X163.304 Y96.387 E56.19278
G1 X163.403 Y96.751 E56.20834
G1 X163.426 Y97.036 E56.22014
G1 X163.427 Y112.963 E56.87734
G1 X163.387 Y113.338 E56.8929
G1 X163.269 Y113.697 E56.9085
G1 X163.065 Y114.047 E56.92521
G1 X162.825 Y114.339 E56.94081
G1 X162.529 Y114.573 E56.95638
G1 X162.29 Y114.7 E56.96755
G1 X123.726 Y131.573 E58.70447
G1 X123.315 Y131.697 E58.72219
G1 X122.965 Y131.732 E58.7367
G1 X47.171 Y131.732 E61.86422
G1 X46.796 Y131.692 E61.87978
G1 X46.437 Y131.574 E61.89537
G1 X46.111 Y131.384 E61.91094
G1 X45.791 Y131.093 E61.92879
G1 X45.554 Y130.799 E61.94437
G1 X45.384 Y130.462 E61.95995
G1 X45.288 Y130.097 E61.97552
G1 X45.268 Y129.829 E61.98661
G1 X45.268 Y127.171 E62.09629
G1 X45.308 Y126.796 E62.11185
G1 X45.426 Y126.437 E62.12744
G1 X45.616 Y126.111 E62.14301
G1 X45.907 Y125.791 E62.16086
G1 X46.201 Y125.554 E62.17644
G1 X46.538 Y125.384 E62.19202
G1 X46.903 Y125.288 E62.20759
G1 X47.171 Y125.268 E62.21868
G1 X90.702 Y125.268 E64.01491
G1 X101.804 Y106.038 E64.93115
G1 X101.804 Y103.962 E65.01682
G1 X90.702 Y84.732 E65.93305
G1 X47.171 Y84.732 E67.72929
G1 X46.796 Y84.692 E67.74485
G1 X46.437 Y84.574 E67.76044
G1 X46.111 Y84.384 E67.77601
G1 X45.791 Y84.093 E67.79386
G1 X45.554 Y83.799 E67.80944
G1 X45.384 Y83.462 E67.82502
G1 X45.288 Y83.097 E67.84059
G1 X45.268 Y82.829 E67.85168
G1 X45.268 Y80.171 E67.96136
G1 X45.308 Y79.796 E67.97692
G1 X45.426 Y79.437 E67.99251
G1 X45.616 Y79.111 E68.00808
G1 X45.907 Y78.791 E68.02593
G1 X46.201 Y78.554 E68.04151
G1 X46.538 Y78.384 E68.05709
M204 S3000
G0 F4200 X46.45 Y78.867
M204 S400
G1 F1800 X46.753 Y78.729 E68.07083
G1 X47.171 Y78.665 E68.08828
G1 X122.965 Y78.665 E71.21579
G1 X123.283 Y78.701 E71.229
G1 X123.567 Y78.791 E71.24129
G1 X162.13 Y95.663 E72.97816
G1 X162.417 Y95.832 E72.99191
G1 X162.799 Y96.27 E73.01589
G1 X162.948 Y96.568 E73.02964
G1 X163.029 Y97.036 E73.04923
G1 X163.03 Y112.963 E73.70644
G1 X162.99 Y113.293 E73.72015
G1 X162.734 Y113.829 E73.74466
G1 X162.519 Y114.083 E73.75839
G1 X162.131 Y114.336 E73.77751
G1 X123.567 Y131.209 E75.51443
G1 X123.238 Y131.308 E75.52861
G1 X122.965 Y131.335 E75.53993
G1 X47.171 Y131.335 E78.66745
G1 X46.841 Y131.295 E78.68116
G1 X46.529 Y131.178 E78.69491
G1 X46.072 Y130.812 E78.71907
G1 X45.867 Y130.55 E78.7328
G1 X45.729 Y130.247 E78.74654
G1 X45.665 Y129.829 E78.76399
G1 X45.665 Y127.171 E78.87366
G1 X45.705 Y126.841 E78.88738
G1 X45.822 Y126.529 E78.90113
G1 X46.188 Y126.072 E78.92529
G1 X46.45 Y125.867 E78.93902
G1 X46.753 Y125.729 E78.95276
G1 X47.171 Y125.665 E78.9702
G1 X90.931 Y125.665 E80.77589
G1 X102.201 Y106.144 E81.70599
G1 X102.201 Y103.856 E81.8004
G1 X90.931 Y84.335 E82.73051
G1 X47.171 Y84.335 E84.53619
G1 X46.841 Y84.295 E84.54991
G1 X46.529 Y84.178 E84.56366
G1 X46.072 Y83.812 E84.58782
G1 X45.867 Y83.55 E84.60155
G1 X45.729 Y83.247 E84.61528
G1 X45.665 Y82.829 E84.63273
G1 X45.665 Y80.171 E84.74241
G1 X45.705 Y79.841 E84.75613
G1 X45.822 Y79.529 E84.76988
G1 X46.188 Y79.072 E84.79404
G1 X46.45 Y78.867 E84.80776
M204 S3000
G0 F4200 X46.694 Y79.184
M204 S400
G1 F1800 X46.957 Y79.085 E84.81936
G1 X47.171 Y79.062 E84.82824
G1 X122.965 Y79.062 E87.95575
G1 X123.408 Y79.154 E87.97442
G1 X161.971 Y96.026 E89.7113
G1 X162.21 Y96.174 E89.7229
G1 X162.468 Y96.489 E89.7397
G1 X162.588 Y96.743 E89.75129
G1 X162.632 Y97.036 E89.76352
G1 X162.633 Y112.963 E90.42072
G1 X162.593 Y113.241 E90.43231
G1 X162.403 Y113.61 E90.44943
G1 X162.216 Y113.82 E90.46104
G1 X161.972 Y113.973 E90.47292
G1 X123.408 Y130.846 E92.20985
G1 X122.965 Y130.938 E92.22852
G1 X47.171 Y130.938 E95.35603
G1 X46.893 Y130.898 E95.36762
G1 X46.637 Y130.782 E95.37922
G1 X46.353 Y130.531 E95.39486
G1 X46.184 Y130.306 E95.40647
G1 X46.085 Y130.043 E95.41807
G1 X46.062 Y129.829 E95.42695
G1 X46.062 Y127.171 E95.53662
G1 X46.102 Y126.893 E95.54821
G1 X46.218 Y126.637 E95.55981
G1 X46.469 Y126.353 E95.57545
G1 X46.694 Y126.184 E95.58706
G1 X46.957 Y126.085 E95.59866
G1 X47.171 Y126.062 E95.60754
G1 X91.161 Y126.062 E97.42271
G1 X102.598 Y106.251 E98.36663
G1 X102.598 Y103.749 E98.46987
G1 X91.161 Y83.938 E99.41378
G1 X47.171 Y83.938 E101.22896
G1 X46.893 Y83.898 E101.24055
G1 X46.637 Y83.782 E101.25214
G1 X46.353 Y83.531 E101.26778
G1 X46.184 Y83.306 E101.27939
G1 X46.085 Y83.043 E101.29099
G1 X46.062 Y82.829 E101.29987
G1 X46.062 Y80.171 E101.40955
G1 X46.102 Y79.893 E101.42114
G1 X46.218 Y79.637 E101.43274
G1 X46.469 Y79.353 E101.44838
G1 X46.694 Y79.184 E101.45999
M204 S3000
G0 F4200 X46.929 Y79.51
M204 S400
G1 F1800 X47.171 Y79.459 E101.47019
G1 X122.965 Y79.459 E104.59771
G1 X123.249 Y79.518 E104.60968
G1 X161.812 Y96.39 E106.34655
G1 X162.07 Y96.608 E106.36049
G1 X162.221 Y96.908 E106.37434
G1 X162.235 Y97.036 E106.37966
G1 X162.236 Y112.963 E107.03686
G1 X162.137 Y113.291 E107.051
G1 X161.921 Y113.548 E107.06485
G1 X161.813 Y113.609 E107.06997
G1 X123.249 Y130.482 E108.8069
G1 X122.965 Y130.541 E108.81886
G1 X47.171 Y130.541 E111.94638
G1 X46.957 Y130.501 E111.95536
G1 X46.634 Y130.25 E111.97224
G1 X46.51 Y130.071 E111.98123
G1 X46.459 Y129.829 E111.99143
G1 X46.459 Y127.171 E112.10111
G1 X46.499 Y126.957 E112.11009
G1 X46.75 Y126.634 E112.12697
G1 X46.929 Y126.51 E112.13596
G1 X47.171 Y126.459 E112.14616
G1 X91.39 Y126.459 E113.97079
G1 X102.995 Y106.357 E114.92856
G1 X102.995 Y103.643 E115.04055
G1 X91.39 Y83.541 E115.99833
G1 X47.171 Y83.541 E117.82296
G1 X46.957 Y83.501 E117.83194
G1 X46.634 Y83.25 E117.84882
G1 X46.51 Y83.071 E117.8578
G1 X46.459 Y82.829 E117.86801
G1 X46.459 Y80.171 E117.97769
G1 X46.499 Y79.957 E117.98667
G1 X46.75 Y79.634 E118.00355
G1 X46.929 Y79.51 E118.01253
M204 S3000
G0 F4200 X47.03 Y79.914
M204 S400
G1 F1800 X47.171 Y79.856 E118.01883
G1 X122.965 Y79.856 E121.14634
G1 X123.09 Y79.882 E121.15161
G1 X161.653 Y96.754 E122.88848
G1 X161.805 Y96.926 E122.89795
G1 X161.838 Y97.036 E122.90269
G1 X161.839 Y112.963 E123.55989
G1 X161.74 Y113.173 E123.56947
G1 X161.654 Y113.245 E123.5741
G1 X123.09 Y130.118 E125.31103
G1 X122.965 Y130.144 E125.3163
G1 X47.171 Y130.144 E128.44381
G1 X47.03 Y130.086 E128.4501
G1 X46.914 Y129.97 E128.45687
G1 X46.856 Y129.829 E128.46316
G1 X46.856 Y127.171 E128.57284
G1 X46.914 Y127.03 E128.57913
G1 X47.03 Y126.914 E128.5859
G1 X47.171 Y126.856 E128.59219
G1 X91.62 Y126.856 E130.42631
G1 X103.392 Y106.465 E131.39786
G1 X103.392 Y103.535 E131.51876
G1 X91.62 Y83.144 E132.49031
G1 X47.171 Y83.144 E134.32443
G1 X47.03 Y83.086 E134.33072
G1 X46.914 Y82.97 E134.33749
G1 X46.856 Y82.829 E134.34378
G1 X46.856 Y80.171 E134.45346
G1 X46.914 Y80.03 E134.45975
G1 X47.03 Y79.914 E134.46652
M204 S3000
G1 F3000 E129.46652
;MESH:TipMidpart.stl
G0 F4200 X122.947 Y129.747
M204 S400
;TYPE:WALL-OUTER
G1 F3000 E134.52888
G1 F1080 X47.253 Y129.747 E137.65227
G1 X47.253 Y127.253 E137.75518
G1 X91.755 Y127.253 E139.59148
G1 X91.892 Y127.173 E139.59803
G1 X103.768 Y106.604 E140.57808
G1 X103.789 Y106.528 E140.58134
G1 X103.789 Y103.472 E140.70744
G1 X103.768 Y103.396 E140.71069
G1 X91.892 Y82.827 E141.69075
G1 X91.755 Y82.747 E141.6973
G1 X47.253 Y82.747 E143.5336
G1 X47.253 Y80.253 E143.63651
G1 X122.947 Y80.253 E146.7599
G1 X161.441 Y97.095 E148.49366
G1 X161.442 Y112.904 E149.146
G1 X122.947 Y129.747 E150.87982
M204 S3000
G0 F4200 X122.747 Y129.747
G0 X122.747 Y129.311
G1 F3000 E145.87982
G0 F4200 X142.83 Y103.753
M204 S400
G1 F3000 E150.94218
G1 F1080 X160.084 Y103.753 E151.65414
G1 X160.253 Y103.584 E151.664
G1 X160.253 Y99.402 E151.83657
G1 X160.157 Y99.254 E151.84385
G1 X122.485 Y82.773 E153.54057
G1 X122.411 Y82.741 E153.5439
G1 X122.195 Y82.793 E153.55306
G1 X122.124 Y82.81 E153.55608
G1 X122.127 Y82.891 E153.55942
G1 X122.138 Y83.123 E153.569
G1 X122.19 Y83.175 E153.57204
G1 X142.721 Y103.706 E154.77013
G1 X142.83 Y103.753 E154.77503
M204 S3000
G0 F4200 X143.03 Y103.753
G0 X142.749 Y104.144
M204 S400
;TYPE:WALL-INNER
G1 F1080 X160.246 Y104.144 E155.49701
G1 X160.644 Y103.746 E155.52024
G1 X160.644 Y99.286 E155.70427
G1 X160.421 Y98.943 E155.72115
G1 X122.447 Y82.33 E157.43148
G1 X121.719 Y82.505 E157.46237
G1 X121.754 Y83.292 E157.49488
G1 X142.497 Y104.035 E158.70534
G1 X142.749 Y104.144 E158.71667
M204 S3000
G1 F3000 E153.71667
G0 F4200 X122.401 Y127.264
M204 S400
;TYPE:WALL-OUTER
G1 F3000 E158.77903
G1 F1080 X122.467 Y127.235 E158.78201
G1 X160.157 Y110.746 E160.47954
G1 X160.253 Y110.598 E160.48682
G1 X160.253 Y106.416 E160.65939
G1 X160.084 Y106.247 E160.66925
G1 X142.83 Y106.247 E161.38121
G1 X142.721 Y106.294 E161.3861
G1 X122.203 Y126.812 E162.58344
G1 X122.146 Y126.869 E162.58676
G1 X122.112 Y127.089 E162.59595
G1 X122.102 Y127.161 E162.59895
G1 X122.178 Y127.187 E162.60226
G1 X122.401 Y127.264 E162.612
M204 S3000
G0 F4200 X122.467 Y127.235
G0 X122.584 Y127.184
G0 X122.418 Y127.683
M204 S400
;TYPE:WALL-INNER
G1 F1080 X160.421 Y111.057 E164.32363
G1 X160.644 Y110.714 E164.34051
G1 X160.644 Y106.254 E164.52455
G1 X160.246 Y105.856 E164.54777
G1 X142.749 Y105.856 E165.26976
G1 X142.497 Y105.965 E165.28109
G1 X121.779 Y126.684 E166.49012
G1 X121.667 Y127.425 E166.52104
G1 X122.418 Y127.683 E166.55381
M204 S3000
G1 F3000 E161.55381
G0 F4200 X106.945 Y103.753
M204 S400
;TYPE:WALL-OUTER
