;FLAVOR:Marlin
;TIME:8911
;Filament used: 7.60056m
;Layer height: 0.2
;MINX:11.937
;MINY:11.937
;MINZ:0.25
;MAXX:198.063
;MAXY:198.063
;MAXZ:2.85
;Generated with Cura_SteamEngine 4.9.0
M140 S60
M105
M190 S60
M104 S200
M105
M109 S200
M82 ;absolute extrusion mode
G21 ;metric values
G90 ;absolute positioning
M82 ;set extruder to absolute mode
M107 ;start with the fan off
G28 X0 Y0 ;move X/Y to min endstops
G28 Z0 ;move Z to min endstops
G1 Z15.0 F120 ;move the platform down 15mm
G92 E0 ;zero the extruded length
G1 F200 E3 ;extrude 3mm of feed stock
G92 E0 ;zero the extruded length again
G1 F120
G0 Y20 F120
M117 Printing...
G5
G92 E0
G92 E0
G1 F3000 E-5
;LAYER_COUNT:14
;LAYER:0
M106 S51
M204 S3000
M205 X10 Y10
G1 F600 Z0.325
G0 F4200 X12.837 Y58.678 Z0.325
M204 S400
;TYPE:SKIRT
G1 F600 Z0.25
G1 F3000 E0.06236
G1 F1800 X58.678 Y12.837 E2.73742
G1 X59.05 Y12.522 E2.75754
G1 X59.469 Y12.271 E2.77769
G1 X59.99 Y12.071 E2.80072
G1 X60.466 Y11.964 E2.82085
G1 X60.953 Y11.937 E2.84098
G1 X61.426 Y11.987 E2.8606
G1 X117.866 Y22.57 E5.23009
G1 X118.336 Y22.699 E5.25021
G1 X118.761 Y22.892 E5.26947
G1 X119.172 Y23.154 E5.28958
G1 X119.476 Y23.419 E5.30622
G1 X186.581 Y90.524 E9.22214
G1 X186.896 Y90.896 E9.24226
G1 X187.136 Y91.292 E9.26137
G1 X187.328 Y91.74 E9.28148
G1 X187.43 Y92.134 E9.29827
G1 X198.013 Y148.574 E11.66776
G1 X198.063 Y149.059 E11.68788
G1 X198.034 Y149.546 E11.70801
G1 X197.9 Y150.103 E11.73165
G1 X197.717 Y150.555 E11.75177
G1 X197.463 Y150.971 E11.77189
G1 X197.163 Y151.322 E11.79094
G1 X151.322 Y197.163 E14.466
G1 X150.95 Y197.478 E14.48611
G1 X150.531 Y197.729 E14.50627
G1 X150.01 Y197.929 E14.5293
G1 X149.534 Y198.036 E14.54943
G1 X149.047 Y198.063 E14.56955
G1 X148.574 Y198.013 E14.58918
G1 X92.134 Y187.43 E16.95867
G1 X91.664 Y187.301 E16.97878
G1 X91.239 Y187.108 E16.99804
G1 X90.828 Y186.846 E17.01815
G1 X90.524 Y186.581 E17.0348
G1 X23.419 Y119.476 E20.95072
G1 X23.104 Y119.104 E20.97084
G1 X22.864 Y118.708 E20.98994
G1 X22.672 Y118.26 E21.01005
G1 X22.57 Y117.866 E21.02685
G1 X11.987 Y61.426 E23.39634
G1 X11.937 Y60.941 E23.41646
G1 X11.966 Y60.454 E23.43659
G1 X12.1 Y59.897 E23.46023
G1 X12.283 Y59.445 E23.48035
G1 X12.537 Y59.029 E23.50046
G1 X12.837 Y58.678 E23.51952
M204 S3000
G0 F4200 X13.118 Y58.959
M204 S400
G1 F1800 X58.959 Y13.118 E26.19458
G1 X59.307 Y12.826 E26.21332
G1 X59.701 Y12.6 E26.23206
G1 X60.109 Y12.45 E26.25
G1 X60.552 Y12.354 E26.2687
G1 X61.006 Y12.336 E26.28745
G1 X61.353 Y12.377 E26.30187
G1 X117.793 Y22.96 E28.67136
G1 X118.23 Y23.083 E28.6901
G1 X118.576 Y23.243 E28.70583
G1 X118.957 Y23.489 E28.72454
G1 X119.195 Y23.7 E28.73766
G1 X186.3 Y90.805 E32.65359
G1 X186.592 Y91.153 E32.67233
G1 X186.785 Y91.477 E32.6879
G1 X186.961 Y91.896 E32.70665
G1 X187.04 Y92.207 E32.71989
G1 X197.623 Y148.647 E35.08938
G1 X197.667 Y149.099 E35.10812
G1 X197.631 Y149.552 E35.12687
G1 X197.521 Y149.984 E35.14527
G1 X197.348 Y150.404 E35.16401
G1 X197.105 Y150.787 E35.18272
G1 X196.882 Y151.041 E35.19667
G1 X151.041 Y196.882 E37.87173
G1 X150.693 Y197.174 E37.89048
G1 X150.299 Y197.4 E37.90922
G1 X149.891 Y197.55 E37.92716
G1 X149.448 Y197.646 E37.94586
G1 X148.994 Y197.664 E37.96461
G1 X148.647 Y197.623 E37.97903
G1 X92.207 Y187.04 E40.34852
G1 X91.77 Y186.917 E40.36725
G1 X91.424 Y186.757 E40.38298
G1 X91.043 Y186.511 E40.40169
G1 X90.805 Y186.3 E40.41482
G1 X23.7 Y119.195 E44.33074
G1 X23.408 Y118.847 E44.34949
G1 X23.215 Y118.523 E44.36505
G1 X23.039 Y118.104 E44.3838
G1 X22.96 Y117.793 E44.39704
G1 X12.377 Y61.353 E46.76654
G1 X12.333 Y60.901 E46.78528
G1 X12.369 Y60.448 E46.80403
G1 X12.479 Y60.016 E46.82242
G1 X12.652 Y59.596 E46.84116
G1 X12.895 Y59.213 E46.85988
G1 X13.118 Y58.959 E46.87383
M204 S3000
G0 F4200 X13.399 Y59.24
M204 S400
G1 F1800 X59.24 Y13.399 E49.54889
G1 X59.562 Y13.133 E49.56612
G1 X60.134 Y12.858 E49.59231
G1 X60.635 Y12.743 E49.61352
G1 X61.28 Y12.767 E49.64016
G1 X117.72 Y23.35 E52.00965
G1 X118.337 Y23.566 E52.03662
G1 X118.739 Y23.823 E52.05631
G1 X118.914 Y23.981 E52.06604
G1 X186.019 Y91.086 E55.98196
G1 X186.406 Y91.61 E56.00884
G1 X186.593 Y92.049 E56.02853
G1 X186.65 Y92.28 E56.03835
G1 X197.233 Y148.72 E58.40784
G1 X197.27 Y149.136 E58.42508
G1 X197.171 Y149.773 E58.45168
G1 X196.98 Y150.251 E58.47292
G1 X196.601 Y150.76 E58.4991
G1 X150.76 Y196.601 E61.17416
G1 X150.438 Y196.867 E61.1914
G1 X149.866 Y197.142 E61.21759
G1 X149.365 Y197.257 E61.2388
G1 X148.72 Y197.233 E61.26543
G1 X92.28 Y186.65 E63.63492
G1 X91.663 Y186.434 E63.6619
G1 X91.261 Y186.177 E63.68158
G1 X91.086 Y186.019 E63.69131
G1 X23.981 Y118.914 E67.60724
G1 X23.594 Y118.39 E67.63412
G1 X23.407 Y117.951 E67.65381
G1 X23.35 Y117.72 E67.66362
G1 X12.767 Y61.28 E70.03312
G1 X12.73 Y60.864 E70.05035
G1 X12.829 Y60.227 E70.07695
G1 X13.02 Y59.749 E70.09819
G1 X13.399 Y59.24 E70.12438
M204 S3000
G0 F4200 X13.679 Y59.52
M204 S400
G1 F1800 X59.52 Y13.679 E72.79944
G1 X59.814 Y13.442 E72.81502
G1 X60.345 Y13.208 E72.83896
G1 X60.715 Y13.134 E72.85453
G1 X61.206 Y13.158 E72.87482
G1 X117.646 Y23.741 E75.24431
G1 X118.152 Y23.917 E75.26642
G1 X118.205 Y23.945 E75.26889
G1 X118.634 Y24.261 E75.29087
G1 X185.739 Y91.366 E79.2068
G1 X186.055 Y91.795 E79.22879
G1 X186.083 Y91.848 E79.23126
G1 X186.259 Y92.354 E79.25337
G1 X196.842 Y148.794 E81.62286
G1 X196.872 Y149.17 E81.63842
G1 X196.763 Y149.748 E81.66269
G1 X196.613 Y150.095 E81.67829
G1 X196.321 Y150.48 E81.69823
G1 X150.48 Y196.321 E84.37329
G1 X150.186 Y196.558 E84.38887
G1 X149.655 Y196.792 E84.41282
G1 X149.285 Y196.866 E84.42839
G1 X148.794 Y196.842 E84.44867
G1 X92.354 Y186.259 E86.81816
G1 X91.848 Y186.083 E86.84027
G1 X91.795 Y186.055 E86.84274
G1 X91.366 Y185.739 E86.86473
G1 X24.261 Y118.634 E90.78065
G1 X23.945 Y118.205 E90.80264
G1 X23.917 Y118.152 E90.80511
G1 X23.741 Y117.646 E90.82722
G1 X13.158 Y61.206 E93.19671
G1 X13.128 Y60.83 E93.21228
G1 X13.237 Y60.252 E93.23655
G1 X13.387 Y59.905 E93.25214
G1 X13.679 Y59.52 E93.27208
M204 S3000
G0 F4200 X13.96 Y59.801
M204 S400
G1 F1800 X59.801 Y13.96 E95.94714
G1 X60.063 Y13.755 E95.96087
G1 X60.463 Y13.587 E95.97877
G1 X60.791 Y13.527 E95.99253
G1 X61.133 Y13.548 E96.00667
G1 X117.573 Y24.131 E98.37616
G1 X118.019 Y24.296 E98.39578
G1 X118.353 Y24.542 E98.4129
G1 X185.458 Y91.647 E102.32883
G1 X185.732 Y92.034 E102.34839
G1 X185.869 Y92.427 E102.36557
G1 X196.452 Y148.867 E104.73506
G1 X196.474 Y149.199 E104.74879
G1 X196.384 Y149.63 E104.76696
G1 X196.248 Y149.933 E104.78066
G1 X196.04 Y150.199 E104.79459
G1 X150.199 Y196.04 E107.46965
G1 X149.937 Y196.245 E107.48338
G1 X149.537 Y196.413 E107.50128
G1 X149.209 Y196.473 E107.51504
G1 X148.867 Y196.452 E107.52918
G1 X92.427 Y185.869 E109.89867
G1 X91.981 Y185.704 E109.9183
G1 X91.647 Y185.458 E109.93541
G1 X24.542 Y118.353 E113.85134
G1 X24.268 Y117.966 E113.8709
G1 X24.131 Y117.573 E113.88808
G1 X13.548 Y61.133 E116.25757
G1 X13.526 Y60.801 E116.2713
G1 X13.616 Y60.37 E116.28947
G1 X13.752 Y60.067 E116.30317
G1 X13.96 Y59.801 E116.3171
M204 S3000
G0 F4200 X14.241 Y60.082
M204 S400
G1 F1800 X60.082 Y14.241 E118.99216
G1 X60.307 Y14.072 E119.00378
G1 X60.581 Y13.966 E119.0159
G1 X60.859 Y13.921 E119.02752
G1 X61.06 Y13.938 E119.03584
G1 X117.5 Y24.521 E121.40533
G1 X117.834 Y24.647 E121.42006
G1 X118.072 Y24.823 E121.43228
G1 X185.177 Y91.928 E125.3482
G1 X185.381 Y92.219 E125.36287
G1 X185.479 Y92.5 E125.37515
G1 X196.062 Y148.94 E127.74464
G1 X196.074 Y149.221 E127.75625
G1 X196.005 Y149.512 E127.76859
G1 X195.884 Y149.765 E127.78016
G1 X195.759 Y149.918 E127.78831
G1 X149.918 Y195.759 E130.46337
G1 X149.693 Y195.928 E130.47498
G1 X149.419 Y196.034 E130.48711
G1 X149.141 Y196.079 E130.49873
G1 X148.94 Y196.062 E130.50705
G1 X92.5 Y185.479 E132.87654
G1 X92.166 Y185.353 E132.89127
G1 X91.928 Y185.177 E132.90349
G1 X24.823 Y118.072 E136.81941
G1 X24.619 Y117.781 E136.83408
G1 X24.521 Y117.5 E136.84636
G1 X13.938 Y61.06 E139.21585
G1 X13.926 Y60.779 E139.22745
G1 X13.995 Y60.488 E139.23979
G1 X14.116 Y60.235 E139.25137
G1 X14.241 Y60.082 E139.25952
M204 S3000
G0 F4200 X14.522 Y60.363
M204 S400
G1 F1800 X60.363 Y14.522 E141.93458
G1 X60.7 Y14.345 E141.95029
G1 X60.987 Y14.328 E141.96215
G1 X117.427 Y24.911 E144.33164
G1 X117.648 Y24.998 E144.34144
G1 X117.791 Y25.104 E144.34879
G1 X184.896 Y92.209 E148.26471
G1 X185.03 Y92.405 E148.27451
G1 X185.089 Y92.573 E148.28186
G1 X195.672 Y149.013 E150.65135
G1 X195.626 Y149.393 E150.66714
G1 X195.478 Y149.637 E150.67892
G1 X149.637 Y195.478 E153.35398
G1 X149.3 Y195.655 E153.36969
G1 X149.013 Y195.672 E153.38155
G1 X92.573 Y185.089 E155.75104
G1 X92.352 Y185.002 E155.76084
G1 X92.209 Y184.896 E155.76819
G1 X25.104 Y117.791 E159.68411
G1 X24.97 Y117.595 E159.69391
G1 X24.911 Y117.427 E159.70126
G1 X14.328 Y60.987 E162.07075
G1 X14.374 Y60.607 E162.08654
G1 X14.522 Y60.363 E162.09832
M204 S3000
G0 F4200 X14.802 Y60.643
M204 S400
G1 F1800 X60.643 Y14.802 E164.77338
G1 X60.818 Y14.724 E164.78128
G1 X60.914 Y14.718 E164.78525
G1 X117.354 Y25.301 E167.15474
G1 X117.511 Y25.384 E167.16207
G1 X184.616 Y92.489 E171.078
G1 X184.699 Y92.646 E171.08533
G1 X195.282 Y149.086 E173.45482
G1 X195.247 Y149.275 E173.46275
G1 X195.198 Y149.357 E173.46669
G1 X149.357 Y195.198 E176.14175
G1 X149.182 Y195.276 E176.14966
G1 X149.086 Y195.282 E176.15363
G1 X92.646 Y184.699 E178.52312
G1 X92.489 Y184.616 E178.53045
G1 X25.384 Y117.511 E182.44637
G1 X25.301 Y117.354 E182.4537
G1 X14.718 Y60.914 E184.82319
G1 X14.753 Y60.725 E184.83112
G1 X14.802 Y60.643 E184.83506
M204 S3000
G1 F3000 E179.83506
;MESH:TopPlate.stl
G0 F4200 X92.75 Y184.315
M204 S400
;TYPE:WALL-OUTER
G1 F3000 E184.89743
G1 F1080 X25.685 Y117.25 E188.81102
G1 X15.118 Y60.89 E191.17714
G1 X60.89 Y15.118 E193.84818
G1 X117.25 Y25.685 E196.2143
G1 X184.315 Y92.75 E200.12789
G1 X194.882 Y149.11 E202.49402
G1 X149.11 Y194.882 E205.16505
G1 X92.75 Y184.315 E207.53118
M204 S3000
G0 F4200 X92.609 Y184.174
G0 X92.917 Y183.866
G1 F3000 E202.53118
G0 F4200 X141.902 Y189.059
M204 S400
G1 F3000 E207.59354
G1 F1080 X142.212 Y189.607 E207.61952
G1 X142.641 Y190.055 E207.64512
G1 X143.06 Y190.33 E207.6658
G1 X143.535 Y190.52 E207.68691
G1 X144.126 Y190.612 E207.71159
G1 X144.65 Y190.578 E207.73325
G1 X145.226 Y190.402 E207.75811
G1 X145.672 Y190.151 E207.77923
G1 X146.055 Y189.813 E207.8003
G1 X146.386 Y189.361 E207.82342
G1 X146.6 Y188.883 E207.84503
G1 X146.708 Y188.383 E207.86614
G1 X146.697 Y187.754 E207.8921
G1 X146.536 Y187.162 E207.91741
G1 X146.226 Y186.614 E207.94339
G1 X145.821 Y186.187 E207.96768
G1 X145.389 Y185.898 E207.98912
G1 X144.903 Y185.701 E208.01076
G1 X144.312 Y185.609 E208.03544
G1 X143.788 Y185.643 E208.05711
G1 X143.216 Y185.817 E208.08178
G1 X142.771 Y186.067 E208.10284
G1 X142.405 Y186.386 E208.12288
G1 X142.086 Y186.799 E208.14441
G1 X141.838 Y187.338 E208.16889
G1 X141.73 Y187.838 E208.19
G1 X141.741 Y188.467 E208.21596
G1 X141.902 Y189.059 E208.24127
M204 S3000
G0 F4200 X142 Y189.233
G0 X141.538 Y189.209
M204 S400
;TYPE:WALL-INNER
G1 F1080 X141.896 Y189.842 E208.27128
G1 X142.389 Y190.358 E208.30073
G1 X142.878 Y190.678 E208.32484
G1 X143.431 Y190.9 E208.34943
G1 X144.108 Y191.005 E208.3777
G1 X144.721 Y190.965 E208.40305
G1 X145.381 Y190.764 E208.43152
G1 X145.9 Y190.471 E208.45611
G1 X146.345 Y190.078 E208.48061
G1 X146.726 Y189.559 E208.50717
G1 X146.974 Y189.005 E208.53222
G1 X147.1 Y188.421 E208.55687
G1 X147.087 Y187.698 E208.58671
G1 X146.9 Y187.012 E208.61605
G1 X146.543 Y186.38 E208.646
G1 X146.075 Y185.886 E208.67408
G1 X145.573 Y185.551 E208.69898
G1 X145.008 Y185.322 E208.72414
G1 X144.33 Y185.216 E208.75246
G1 X143.718 Y185.256 E208.77776
G1 X143.062 Y185.455 E208.80605
G1 X142.544 Y185.746 E208.83057
G1 X142.119 Y186.117 E208.85384
G1 X141.749 Y186.595 E208.87879
G1 X141.465 Y187.214 E208.90689
G1 X141.338 Y187.8 E208.93163
G1 X141.351 Y188.523 E208.96147
G1 X141.538 Y189.209 E208.99081
M204 S3000
G1 F3000 E203.99081
G0 F4200 X150.124 Y185.876
M204 S400
;TYPE:WALL-OUTER
G1 F3000 E209.05317
G1 F1080 X150.206 Y185.862 E209.0566
G1 X150.393 Y185.829 E209.06444
G1 X185.831 Y150.391 E211.13243
G1 X185.861 Y150.201 E211.14037
G1 X185.873 Y150.117 E211.14387
G1 X185.624 Y150 E211.15522
G1 X185.541 Y150.014 E211.15869
G1 X155.451 Y155.32 E212.41947
G1 X155.32 Y155.451 E212.42711
G1 X150.013 Y185.545 E213.68805
G1 X149.999 Y185.627 E213.69148
G1 X150.124 Y185.876 E213.70298
M204 S3000
G0 F4200 X150.206 Y185.862
G0 X150.321 Y185.842
G0 X150.582 Y186.193
M204 S400
;TYPE:WALL-INNER
G1 F1080 X186.198 Y150.577 E215.78136
G1 X186.304 Y149.887 E215.81016
G1 X185.678 Y149.593 E215.8387
G1 X155.262 Y154.956 E217.11313
G1 X154.956 Y155.262 E217.13098
G1 X149.591 Y185.687 E218.40579
G1 X149.905 Y186.311 E218.43462
G1 X150.582 Y186.193 E218.46297
M204 S3000
G1 F3000 E213.46297
G0 F4200 X146.024 Y170.053
M204 S400
;TYPE:WALL-OUTER
G1 F3000 E218.52533
G1 F1080 X146.379 Y170.407 E218.54602
G1 X146.894 Y170.729 E218.57108
G1 X147.35 Y170.892 E218.59107
G1 X147.864 Y170.964 E218.61248
G1 X148.461 Y170.913 E218.63721
G1 X148.963 Y170.754 E218.65894
G1 X149.387 Y170.517 E218.67898
G1 X149.775 Y170.183 E218.7001
G1 X150.088 Y169.778 E218.72122
G1 X150.337 Y169.236 E218.74584
G1 X150.443 Y168.76 E218.76596
G1 X150.451 Y168.251 E218.78696
G1 X150.358 Y167.755 E218.80779
G1 X150.167 Y167.287 E218.82865
G1 X149.88 Y166.861 E218.84984
G1 X149.521 Y166.509 E218.87059
G1 X149.014 Y166.194 E218.89522
G1 X148.564 Y166.034 E218.91492
G1 X148.05 Y165.961 E218.93635
G1 X147.526 Y165.995 E218.95801
G1 X147.078 Y166.119 E218.97719
G1 X146.63 Y166.34 E218.99781
G1 X146.207 Y166.671 E219.01997
G1 X145.85 Y167.114 E219.04345
G1 X145.628 Y167.543 E219.06338
G1 X145.492 Y168.032 E219.08432
G1 X145.455 Y168.547 E219.10563
G1 X145.528 Y169.07 E219.12742
G1 X145.74 Y169.626 E219.15197
G1 X146.024 Y170.053 E219.17313
M204 S3000
G0 F4200 X146.165 Y170.194
G0 X145.72 Y170.302
M204 S400
;TYPE:WALL-INNER
G1 F1080 X146.134 Y170.715 E219.19726
G1 X146.723 Y171.083 E219.22592
G1 X147.256 Y171.274 E219.24928
G1 X147.853 Y171.357 E219.27415
G1 X148.538 Y171.299 E219.30252
G1 X149.119 Y171.115 E219.32767
G1 X149.612 Y170.839 E219.35098
G1 X150.06 Y170.453 E219.37538
G1 X150.425 Y169.982 E219.39997
G1 X150.71 Y169.362 E219.42813
G1 X150.833 Y168.806 E219.45162
G1 X150.843 Y168.218 E219.47589
G1 X150.735 Y167.644 E219.49999
G1 X150.514 Y167.102 E219.52414
G1 X150.182 Y166.61 E219.54864
G1 X149.764 Y166.2 E219.5728
G1 X149.185 Y165.84 E219.60093
G1 X148.658 Y165.652 E219.62402
G1 X148.065 Y165.568 E219.64873
G1 X147.461 Y165.607 E219.67371
G1 X146.938 Y165.752 E219.6961
G1 X146.421 Y166.007 E219.71989
G1 X145.931 Y166.391 E219.74558
G1 X145.521 Y166.899 E219.77251
G1 X145.262 Y167.399 E219.79575
G1 X145.105 Y167.965 E219.81998
G1 X145.062 Y168.56 E219.8446
G1 X145.147 Y169.168 E219.86993
G1 X145.39 Y169.806 E219.8981
G1 X145.72 Y170.302 E219.92269
M204 S3000
G1 F3000 E214.92269
G0 F4200 X186.262 Y145.907
M204 S400
;TYPE:WALL-OUTER
G1 F3000 E219.98505
G1 F1080 X186.744 Y146.318 E220.01119
G1 X187.285 Y146.582 E220.03603
G1 X187.754 Y146.697 E220.05595
G1 X188.264 Y146.718 E220.07701
G1 X188.776 Y146.633 E220.09843
G1 X189.357 Y146.39 E220.12442
G1 X189.835 Y146.033 E220.14903
G1 X190.154 Y145.667 E220.16907
G1 X190.399 Y145.231 E220.1897
G1 X190.562 Y144.728 E220.21152
G1 X190.612 Y144.135 E220.23608
G1 X190.543 Y143.628 E220.25719
G1 X190.38 Y143.162 E220.27756
G1 X190.045 Y142.629 E220.30354
G1 X189.688 Y142.275 E220.32429
G1 X189.174 Y141.953 E220.34931
G1 X188.713 Y141.789 E220.3695
G1 X188.2 Y141.718 E220.39087
G1 X187.679 Y141.752 E220.41242
G1 X187.108 Y141.926 E220.43705
G1 X186.593 Y142.231 E220.46175
G1 X186.296 Y142.494 E220.47812
G1 X185.985 Y142.896 E220.49909
G1 X185.735 Y143.433 E220.52353
G1 X185.622 Y143.95 E220.54537
G1 X185.616 Y144.437 E220.56546
G1 X185.747 Y145.044 E220.59109
G1 X185.961 Y145.502 E220.61195
G1 X186.262 Y145.907 E220.63277
M204 S3000
G0 F4200 X186.414 Y146.036
G0 X185.975 Y146.176
M204 S400
;TYPE:WALL-INNER
G1 F1080 X186.528 Y146.648 E220.66277
G1 X187.151 Y146.952 E220.69137
G1 X187.699 Y147.086 E220.71465
G1 X188.288 Y147.11 E220.73898
