;FLAVOR:Marlin
;TIME:9089
;Filament used: 7.60349m
;Layer height: 0.2
;MINX:11.937
;MINY:11.937
;MINZ:0.25
;MAXX:198.063
;MAXY:198.063
;MAXZ:2.85
;Generated with Cura_SteamEngine 4.9.0
M140 S60
M105
M190 S60
M104 S200
M105
M109 S200
M82 ;absolute extrusion mode
G21 ;metric values
G90 ;absolute positioning
M82 ;set extruder to absolute mode
M107 ;start with the fan off
G28 X0 Y0 ;move X/Y to min endstops
G28 Z0 ;move Z to min endstops
G1 Z15.0 F120 ;move the platform down 15mm
G92 E0 ;zero the extruded length
G1 F200 E3 ;extrude 3mm of feed stock
G92 E0 ;zero the extruded length again
G1 F120
G0 Y20 F120
M117 Printing...
G5
G92 E0
G92 E0
G1 F3000 E-5
;LAYER_COUNT:14
;LAYER:0
M106 S51
M204 S3000
M205 X10 Y10
G1 F600 Z0.325
G0 F4200 X12.837 Y58.678 Z0.325
M204 S400
;TYPE:SKIRT
G1 F600 Z0.25
G1 F3000 E0.06236
G1 F1800 X58.678 Y12.837 E2.73742
G1 X59.05 Y12.522 E2.75754
G1 X59.469 Y12.271 E2.77769
G1 X59.99 Y12.071 E2.80072
G1 X60.466 Y11.964 E2.82085
G1 X60.953 Y11.937 E2.84098
G1 X61.426 Y11.987 E2.8606
G1 X117.866 Y22.569 E5.23009
G1 X118.336 Y22.698 E5.2502
G1 X118.761 Y22.891 E5.26946
G1 X119.172 Y23.153 E5.28957
G1 X119.476 Y23.418 E5.30621
G1 X186.582 Y90.524 E9.2222
G1 X186.897 Y90.896 E9.24231
G1 X187.137 Y91.292 E9.26142
G1 X187.329 Y91.74 E9.28153
G1 X187.431 Y92.134 E9.29832
G1 X198.013 Y148.574 E11.66781
G1 X198.063 Y149.059 E11.68793
G1 X198.034 Y149.546 E11.70806
G1 X197.9 Y150.103 E11.7317
G1 X197.717 Y150.555 E11.75182
G1 X197.463 Y150.971 E11.77193
G1 X197.163 Y151.322 E11.79098
G1 X151.322 Y197.163 E14.46604
G1 X150.95 Y197.478 E14.48616
G1 X150.531 Y197.729 E14.50631
G1 X150.01 Y197.929 E14.52934
G1 X149.534 Y198.036 E14.54947
G1 X149.047 Y198.063 E14.5696
G1 X148.574 Y198.013 E14.58922
G1 X92.134 Y187.431 E16.95871
G1 X91.664 Y187.302 E16.97882
G1 X91.239 Y187.109 E16.99808
G1 X90.828 Y186.847 E17.01819
G1 X90.524 Y186.582 E17.03483
G1 X23.418 Y119.476 E20.95082
G1 X23.103 Y119.104 E20.97093
G1 X22.863 Y118.708 E20.99004
G1 X22.671 Y118.26 E21.01015
G1 X22.569 Y117.866 E21.02694
G1 X11.987 Y61.426 E23.39643
G1 X11.937 Y60.941 E23.41654
G1 X11.966 Y60.454 E23.43668
G1 X12.1 Y59.897 E23.46032
G1 X12.283 Y59.445 E23.48044
G1 X12.537 Y59.029 E23.50055
G1 X12.837 Y58.678 E23.5196
M204 S3000
G0 F4200 X13.118 Y58.959
M204 S400
G1 F1800 X58.959 Y13.118 E26.19466
G1 X59.307 Y12.826 E26.21341
G1 X59.701 Y12.6 E26.23215
G1 X60.109 Y12.45 E26.25009
G1 X60.552 Y12.354 E26.26879
G1 X61.006 Y12.336 E26.28754
G1 X61.353 Y12.377 E26.30196
G1 X117.793 Y22.959 E28.67144
G1 X118.23 Y23.082 E28.69017
G1 X118.576 Y23.242 E28.7059
G1 X118.957 Y23.488 E28.72462
G1 X119.195 Y23.699 E28.73774
G1 X186.301 Y90.805 E32.65373
G1 X186.593 Y91.153 E32.67247
G1 X186.786 Y91.477 E32.68803
G1 X186.962 Y91.896 E32.70678
G1 X187.041 Y92.207 E32.72003
G1 X197.623 Y148.647 E35.08951
G1 X197.667 Y149.099 E35.10825
G1 X197.631 Y149.552 E35.127
G1 X197.521 Y149.984 E35.14539
G1 X197.348 Y150.404 E35.16414
G1 X197.105 Y150.787 E35.18285
G1 X196.882 Y151.041 E35.1968
G1 X151.041 Y196.882 E37.87186
G1 X150.693 Y197.174 E37.89061
G1 X150.299 Y197.4 E37.90935
G1 X149.891 Y197.55 E37.92729
G1 X149.448 Y197.646 E37.94599
G1 X148.994 Y197.664 E37.96474
G1 X148.647 Y197.623 E37.97916
G1 X92.207 Y187.041 E40.34864
G1 X91.77 Y186.918 E40.36737
G1 X91.424 Y186.758 E40.3831
G1 X91.043 Y186.512 E40.40182
G1 X90.805 Y186.301 E40.41494
G1 X23.699 Y119.195 E44.33092
G1 X23.407 Y118.847 E44.34967
G1 X23.214 Y118.523 E44.36523
G1 X23.038 Y118.104 E44.38398
G1 X22.959 Y117.793 E44.39722
G1 X12.377 Y61.353 E46.76671
G1 X12.333 Y60.901 E46.78545
G1 X12.369 Y60.448 E46.8042
G1 X12.479 Y60.016 E46.82259
G1 X12.652 Y59.596 E46.84134
G1 X12.895 Y59.213 E46.86005
G1 X13.118 Y58.959 E46.874
M204 S3000
G0 F4200 X13.399 Y59.24
M204 S400
G1 F1800 X59.24 Y13.399 E49.54906
G1 X59.562 Y13.133 E49.5663
G1 X60.134 Y12.858 E49.59248
G1 X60.635 Y12.743 E49.61369
G1 X61.279 Y12.767 E49.64029
G1 X117.719 Y23.349 E52.00977
G1 X118.337 Y23.565 E52.03678
G1 X118.739 Y23.822 E52.05647
G1 X118.914 Y23.98 E52.0662
G1 X186.02 Y91.086 E55.98218
G1 X186.407 Y91.61 E56.00906
G1 X186.594 Y92.049 E56.02875
G1 X186.651 Y92.281 E56.03861
G1 X197.233 Y148.721 E58.4081
G1 X197.27 Y149.136 E58.42529
G1 X197.171 Y149.773 E58.45189
G1 X196.98 Y150.251 E58.47313
G1 X196.601 Y150.76 E58.49931
G1 X150.76 Y196.601 E61.17437
G1 X150.438 Y196.867 E61.19161
G1 X149.866 Y197.142 E61.2178
G1 X149.365 Y197.257 E61.23901
G1 X148.721 Y197.233 E61.2656
G1 X92.281 Y186.651 E63.63508
G1 X91.663 Y186.435 E63.6621
G1 X91.261 Y186.178 E63.68179
G1 X91.086 Y186.02 E63.69151
G1 X23.98 Y118.914 E67.6075
G1 X23.593 Y118.39 E67.63438
G1 X23.406 Y117.951 E67.65407
G1 X23.349 Y117.719 E67.66393
G1 X12.767 Y61.279 E70.03341
G1 X12.73 Y60.864 E70.0506
G1 X12.829 Y60.227 E70.0772
G1 X13.02 Y59.749 E70.09844
G1 X13.399 Y59.24 E70.12463
M204 S3000
G0 F4200 X13.679 Y59.52
M204 S400
G1 F1800 X59.52 Y13.679 E72.79969
G1 X59.814 Y13.442 E72.81527
G1 X60.345 Y13.208 E72.83922
G1 X60.715 Y13.134 E72.85478
G1 X61.206 Y13.158 E72.87507
G1 X117.646 Y23.74 E75.24455
G1 X118.152 Y23.916 E75.26666
G1 X118.205 Y23.944 E75.26913
G1 X118.634 Y24.26 E75.29112
G1 X185.74 Y91.366 E79.2071
G1 X186.056 Y91.795 E79.22909
G1 X186.084 Y91.848 E79.23156
G1 X186.26 Y92.354 E79.25367
G1 X196.842 Y148.794 E81.62315
G1 X196.872 Y149.17 E81.63872
G1 X196.763 Y149.748 E81.66299
G1 X196.613 Y150.095 E81.67859
G1 X196.321 Y150.48 E81.69853
G1 X150.48 Y196.321 E84.37359
G1 X150.186 Y196.558 E84.38917
G1 X149.655 Y196.792 E84.41311
G1 X149.285 Y196.866 E84.42868
G1 X148.794 Y196.842 E84.44897
G1 X92.354 Y186.26 E86.81845
G1 X91.848 Y186.084 E86.84056
G1 X91.795 Y186.056 E86.84303
G1 X91.366 Y185.74 E86.86502
G1 X24.26 Y118.634 E90.781
G1 X23.944 Y118.205 E90.80299
G1 X23.916 Y118.152 E90.80546
G1 X23.74 Y117.646 E90.82757
G1 X13.158 Y61.206 E93.19705
G1 X13.128 Y60.83 E93.21261
G1 X13.237 Y60.252 E93.23688
G1 X13.387 Y59.905 E93.25248
G1 X13.679 Y59.52 E93.27242
M204 S3000
G0 F4200 X13.96 Y59.801
M204 S400
G1 F1800 X59.801 Y13.96 E95.94748
G1 X60.063 Y13.755 E95.96121
G1 X60.463 Y13.587 E95.97911
G1 X60.791 Y13.527 E95.99287
G1 X61.133 Y13.548 E96.00701
G1 X117.573 Y24.13 E98.37649
G1 X118.019 Y24.295 E98.39612
G1 X118.353 Y24.541 E98.41323
G1 X185.459 Y91.647 E102.32922
G1 X185.733 Y92.034 E102.34878
G1 X185.87 Y92.427 E102.36596
G1 X196.452 Y148.867 E104.73544
G1 X196.474 Y149.199 E104.74917
G1 X196.384 Y149.63 E104.76734
G1 X196.248 Y149.933 E104.78104
G1 X196.04 Y150.199 E104.79498
G1 X150.199 Y196.04 E107.47004
G1 X149.937 Y196.245 E107.48376
G1 X149.537 Y196.413 E107.50167
G1 X149.209 Y196.473 E107.51542
G1 X148.867 Y196.452 E107.52956
G1 X92.427 Y185.87 E109.89905
G1 X91.981 Y185.705 E109.91867
G1 X91.647 Y185.459 E109.93579
G1 X24.541 Y118.353 E113.85177
G1 X24.267 Y117.966 E113.87134
G1 X24.13 Y117.573 E113.88851
G1 X13.548 Y61.133 E116.25799
G1 X13.526 Y60.801 E116.27172
G1 X13.616 Y60.37 E116.28989
G1 X13.752 Y60.067 E116.3036
G1 X13.96 Y59.801 E116.31753
M204 S3000
G0 F4200 X14.241 Y60.082
M204 S400
G1 F1800 X60.082 Y14.241 E118.99259
G1 X60.307 Y14.072 E119.0042
G1 X60.581 Y13.966 E119.01632
G1 X60.859 Y13.921 E119.02794
G1 X61.06 Y13.938 E119.03627
G1 X117.5 Y24.52 E121.40575
G1 X117.834 Y24.646 E121.42048
G1 X118.072 Y24.822 E121.4327
G1 X185.178 Y91.928 E125.34868
G1 X185.382 Y92.219 E125.36334
G1 X185.48 Y92.5 E125.37562
G1 X196.062 Y148.94 E127.74511
G1 X196.074 Y149.221 E127.75671
G1 X196.005 Y149.512 E127.76905
G1 X195.884 Y149.765 E127.78063
G1 X195.759 Y149.918 E127.78878
G1 X149.918 Y195.759 E130.46384
G1 X149.693 Y195.928 E130.47545
G1 X149.419 Y196.034 E130.48757
G1 X149.141 Y196.079 E130.49919
G1 X148.94 Y196.062 E130.50752
G1 X92.5 Y185.48 E132.877
G1 X92.166 Y185.354 E132.89173
G1 X91.928 Y185.178 E132.90395
G1 X24.822 Y118.072 E136.81993
G1 X24.618 Y117.781 E136.83459
G1 X24.52 Y117.5 E136.84687
G1 X13.938 Y61.06 E139.21636
G1 X13.926 Y60.779 E139.22796
G1 X13.995 Y60.488 E139.2403
G1 X14.116 Y60.235 E139.25188
G1 X14.241 Y60.082 E139.26003
M204 S3000
G0 F4200 X14.522 Y60.363
M204 S400
G1 F1800 X60.363 Y14.522 E141.93509
G1 X60.7 Y14.345 E141.9508
G1 X60.987 Y14.328 E141.96266
G1 X117.427 Y24.91 E144.33214
G1 X117.648 Y24.997 E144.34194
G1 X117.791 Y25.103 E144.34929
G1 X184.897 Y92.209 E148.26527
G1 X185.031 Y92.405 E148.27507
G1 X185.09 Y92.573 E148.28242
G1 X195.672 Y149.013 E150.6519
G1 X195.626 Y149.393 E150.6677
G1 X195.478 Y149.637 E150.67947
G1 X149.637 Y195.478 E153.35453
G1 X149.3 Y195.655 E153.37024
G1 X149.013 Y195.672 E153.3821
G1 X92.573 Y185.09 E155.75159
G1 X92.352 Y185.003 E155.76139
G1 X92.209 Y184.897 E155.76873
G1 X25.103 Y117.791 E159.68472
G1 X24.969 Y117.595 E159.69451
G1 X24.91 Y117.427 E159.70186
G1 X14.328 Y60.987 E162.07134
G1 X14.374 Y60.607 E162.08714
G1 X14.522 Y60.363 E162.09892
M204 S3000
G0 F4200 X14.802 Y60.643
M204 S400
G1 F1800 X60.643 Y14.802 E164.77398
G1 X60.818 Y14.724 E164.78188
G1 X60.914 Y14.718 E164.78585
G1 X117.354 Y25.3 E167.15533
G1 X117.511 Y25.383 E167.16266
G1 X184.617 Y92.489 E171.07865
G1 X184.7 Y92.646 E171.08597
G1 X195.282 Y149.086 E173.45546
G1 X195.247 Y149.275 E173.46339
G1 X195.198 Y149.357 E173.46733
G1 X149.357 Y195.198 E176.14239
G1 X149.182 Y195.276 E176.1503
G1 X149.086 Y195.282 E176.15427
G1 X92.646 Y184.7 E178.52375
G1 X92.489 Y184.617 E178.53108
G1 X25.383 Y117.511 E182.44706
G1 X25.3 Y117.354 E182.45439
G1 X14.718 Y60.914 E184.82387
G1 X14.753 Y60.725 E184.83181
G1 X14.802 Y60.643 E184.83575
M204 S3000
G1 F3000 E179.83575
;MESH:TopPlate.stl
G0 F4200 X92.75 Y184.316
M204 S400
;TYPE:WALL-OUTER
G1 F3000 E184.89811
G1 F1080 X25.684 Y117.25 E188.81176
G1 X15.118 Y60.89 E191.17788
G1 X60.89 Y15.118 E193.84891
G1 X117.25 Y25.684 E196.21503
G1 X184.316 Y92.75 E200.12868
G1 X194.882 Y149.11 E202.4948
G1 X149.11 Y194.882 E205.16583
G1 X92.75 Y184.316 E207.53195
M204 S3000
G0 F4200 X92.609 Y184.175
G0 X92.917 Y183.867
G1 F3000 E202.53195
G0 F4200 X129.302 Y54.115
M204 S400
G1 F3000 E207.59431
G1 F1080 X129.826 Y54.081 E207.61598
G1 X130.398 Y53.907 E207.64065
G1 X130.843 Y53.657 E207.66171
G1 X131.282 Y53.259 E207.68616
G1 X131.586 Y52.825 E207.70803
G1 X131.805 Y52.288 E207.73196
G1 X131.894 Y51.763 E207.75393
G1 X131.871 Y51.241 E207.77549
G1 X131.712 Y50.665 E207.80015
G1 X131.403 Y50.117 E207.82611
G1 X130.973 Y49.669 E207.85173
G1 X130.458 Y49.347 E207.87679
G1 X129.986 Y49.181 E207.89744
G1 X129.488 Y49.112 E207.91818
G1 X128.964 Y49.146 E207.93985
G1 X128.388 Y49.322 E207.9647
G1 X128.173 Y49.429 E207.97461
G1 X127.757 Y49.722 E207.99561
G1 X127.405 Y50.094 E208.01674
G1 X127.099 Y50.618 E208.04178
G1 X126.944 Y51.104 E208.06283
G1 X126.894 Y51.699 E208.08747
G1 X126.966 Y52.22 E208.10917
G1 X127.179 Y52.778 E208.13382
G1 X127.446 Y53.184 E208.15387
G1 X127.805 Y53.546 E208.1749
G1 X128.225 Y53.826 E208.19573
G1 X128.711 Y54.023 E208.21737
G1 X129.302 Y54.115 E208.24205
M204 S3000
G0 F4200 X129.501 Y54.103
G0 X129.284 Y54.508
M204 S400
;TYPE:WALL-INNER
G1 F1080 X129.896 Y54.468 E208.26736
G1 X130.552 Y54.269 E208.29565
G1 X131.073 Y53.976 E208.32031
G1 X131.577 Y53.519 E208.34838
G1 X131.931 Y53.013 E208.37387
G1 X132.183 Y52.396 E208.40137
G1 X132.286 Y51.787 E208.42685
G1 X132.26 Y51.18 E208.45192
G1 X132.076 Y50.515 E208.48039
G1 X131.719 Y49.882 E208.51038
G1 X131.221 Y49.363 E208.54006
G1 X130.629 Y48.993 E208.56887
G1 X130.079 Y48.799 E208.59293
G1 X129.502 Y48.719 E208.61697
G1 X128.893 Y48.759 E208.64215
G1 X128.243 Y48.958 E208.6702
G1 X127.972 Y49.092 E208.68268
G1 X127.5 Y49.425 E208.70651
G1 X127.09 Y49.858 E208.73112
G1 X126.74 Y50.458 E208.75978
G1 X126.558 Y51.027 E208.78443
G1 X126.501 Y51.71 E208.81271
G1 X126.585 Y52.318 E208.83804
G1 X126.829 Y52.957 E208.86626
G1 X127.141 Y53.432 E208.88971
G1 X127.555 Y53.849 E208.91396
G1 X128.041 Y54.173 E208.93806
G1 X128.606 Y54.402 E208.96322
G1 X129.284 Y54.508 E208.99153
M204 S3000
G1 F3000 E203.99153
G0 F4200 X83.906 Y76.954
M204 S400
;TYPE:WALL-OUTER
G1 F3000 E209.0539
G1 F1080 X94.24 Y66.62 E209.65694
G1 X94.283 Y66.539 E209.66072
G1 X101.008 Y28.399 E211.25879
G1 X100.874 Y28.204 E211.26855
G1 X70.232 Y22.458 E212.55498
G1 X70.155 Y22.444 E212.55821
G1 X69.958 Y22.58 E212.56809
G1 X69.945 Y22.657 E212.57131
G1 X63.876 Y57.068 E214.01314
G1 X63.921 Y57.207 E214.01916
G1 X83.668 Y76.954 E215.1715
G1 X83.906 Y76.954 E215.18133
M204 S3000
G0 F4200 X84.047 Y76.813
G0 X84.068 Y77.345
M204 S400
;TYPE:WALL-INNER
G1 F1080 X94.558 Y66.855 E215.79347
G1 X94.657 Y66.668 E215.8022
G1 X101.421 Y28.309 E217.40944
G1 X101.105 Y27.849 E217.43247
G1 X70.067 Y22.03 E218.73552
G1 X69.601 Y22.351 E218.75887
G1 X63.474 Y57.096 E220.21468
G1 X63.578 Y57.417 E220.22861
G1 X83.506 Y77.345 E221.39151
G1 X84.068 Y77.345 E221.4147
M204 S3000
G1 F3000 E216.4147
G0 F4200 X105.004 Y75.29
M204 S400
;TYPE:WALL-OUTER
G1 F3000 E221.47706
G1 F1080 X105.631 Y75.283 E221.50293
G1 X106.141 Y75.188 E221.52434
G1 X106.764 Y74.945 E221.55193
G1 X107.283 Y74.614 E221.57733
G1 X107.754 Y74.165 E221.60419
G1 X108.052 Y73.754 E221.62513
G1 X108.326 Y73.199 E221.65067
G1 X108.468 Y72.716 E221.67145
G1 X108.536 Y72.092 E221.69735
G1 X108.504 Y71.59 E221.7181
G1 X108.35 Y70.966 E221.74463
G1 X108.079 Y70.387 E221.771
G1 X107.672 Y69.839 E221.79917
G1 X107.198 Y69.419 E221.8253
G1 X106.664 Y69.103 E221.85091
G1 X106.171 Y68.919 E221.87262
G1 X105.554 Y68.807 E221.8985
G1 X104.928 Y68.816 E221.92433
G1 X104.418 Y68.912 E221.94574
G1 X103.833 Y69.137 E221.97161
G1 X103.301 Y69.47 E221.9975
G1 X102.925 Y69.808 E222.01837
G1 X102.54 Y70.302 E222.04421
G1 X102.304 Y70.743 E222.06485
G1 X102.097 Y71.388 E222.0928
G1 X102.03 Y72.011 E222.11866
G1 X102.064 Y72.524 E222.13987
G1 X102.212 Y73.124 E222.16537
G1 X102.418 Y73.589 E222.18636
G1 X102.774 Y74.119 E222.2127
G1 X103.217 Y74.563 E222.23858
G1 X103.762 Y74.924 E222.26556
G1 X104.394 Y75.178 E222.29366
G1 X105.004 Y75.29 E222.31925
M204 S3000
G0 F4200 X105.204 Y75.288
G0 X104.971 Y75.681
M204 S400
;TYPE:WALL-INNER
G1 F1080 X105.669 Y75.674 E222.34806
G1 X106.249 Y75.566 E222.3724
G1 X106.942 Y75.295 E222.40311
G1 X107.525 Y74.923 E222.43164
G1 X108.05 Y74.423 E222.46156
G1 X108.388 Y73.957 E222.48531
G1 X108.692 Y73.342 E222.51362
G1 X108.853 Y72.793 E222.53723
G1 X108.928 Y72.101 E222.56595
G1 X108.892 Y71.53 E222.58956
G1 X108.72 Y70.835 E222.6191
G1 X108.416 Y70.186 E222.64867
G1 X107.962 Y69.573 E222.68015
G1 X107.429 Y69.102 E222.7095
G1 X106.833 Y68.749 E222.73808
G1 X106.275 Y68.541 E222.76266
G1 X105.586 Y68.415 E222.79156
G1 X104.889 Y68.426 E222.82032
G1 X104.311 Y68.534 E222.84458
G1 X103.657 Y68.786 E222.8735
G1 X103.065 Y69.157 E222.90233
G1 X102.638 Y69.54 E222.926
G1 X102.211 Y70.088 E222.95467
G1 X101.943 Y70.59 E222.97815
G1 X101.713 Y71.307 E223.00922
G1 X101.638 Y72.003 E223.03811
G1 X101.676 Y72.584 E223.06213
G1 X101.841 Y73.251 E223.09048
G1 X102.074 Y73.779 E223.1143
G1 X102.471 Y74.368 E223.14361
G1 X102.968 Y74.867 E223.17267
G1 X103.579 Y75.272 E223.20292
G1 X104.285 Y75.555 E223.2343
G1 X104.971 Y75.681 E223.26308
M204 S3000
G1 F3000 E218.26308
G0 F4200 X115.16 Y68.257
M204 S400
;TYPE:WALL-OUTER
G1 F3000 E223.32544
G1 F1080 X115.684 Y68.223 E223.34711
G1 X116.256 Y68.049 E223.37178
G1 X116.701 Y67.799 E223.39284
G1 X117.139 Y67.401 E223.41726
G1 X117.424 Y67.002 E223.4375
G1 X117.634 Y66.529 E223.45885
G1 X117.742 Y66.028 E223.48
G1 X117.731 Y65.399 E223.50596
G1 X117.57 Y64.808 E223.53123
G1 X117.278 Y64.284 E223.55599
G1 X116.942 Y63.907 E223.57682
G1 X116.547 Y63.612 E223.59717
G1 X116.089 Y63.396 E223.61806
G1 X115.626 Y63.279 E223.63777
G1 X115.104 Y63.257 E223.65932
G1 X114.589 Y63.341 E223.68086
G1 X114.038 Y63.567 E223.70543
G1 X113.588 Y63.885 E223.72817
G1 X113.219 Y64.298 E223.75102
G1 X112.965 Y64.744 E223.7722
G1 X112.801 Y65.245 E223.79395
G1 X112.752 Y65.841 E223.81863
G1 X112.824 Y66.363 E223.84037
G1 X113.037 Y66.92 E223.86498
G1 X113.304 Y67.326 E223.88503
G1 X113.663 Y67.69 E223.90612
G1 X114.083 Y67.968 E223.92691
G1 X114.569 Y68.165 E223.94855
G1 X115.16 Y68.257 E223.97323
M204 S3000
G0 F4200 X115.359 Y68.245
G0 X115.142 Y68.65
