;FLAVOR:Marlin
;TIME:1759
;Filament used: 2.04439m
;Layer height: 0.3
;MINX:62.077
;MINY:77.077
;MINZ:0.25
;MAXX:147.923
;MAXY:132.923
;MAXZ:12.85
;Generated with Cura_SteamEngine 4.9.0
M140 S60
M105
M190 S60
M104 S200
M105
M109 S200
M82 ;absolute extrusion mode
G21 ;metric values
G90 ;absolute positioning
M82 ;set extruder to absolute mode
M107 ;start with the fan off
G28 X0 Y0 ;move X/Y to min endstops
G28 Z0 ;move Z to min endstops
G1 Z15.0 F120 ;move the platform down 15mm
G92 E0 ;zero the extruded length
G1 F200 E3 ;extrude 3mm of feed stock
G92 E0 ;zero the extruded length again
G1 F120
G0 Y20 F120
M117 Printing...
G5
G92 E0
G92 E0
G1 F3000 E-5
;LAYER_COUNT:43
;LAYER:0
M106 S51
M204 S3000
M205 X10 Y10
G1 F600 Z0.325
G0 F4200 X63.903 Y78.175 Z0.325
M204 S400
;TYPE:SKIRT
G1 F600 Z0.25
G1 F3000 E0.06236
G1 F1800 X64.566 Y77.73 E0.09531
G1 X65.181 Y77.435 E0.12346
G1 X65.835 Y77.219 E0.15188
G1 X66.691 Y77.095 E0.18757
G1 X67.015 Y77.077 E0.20096
G1 X144.829 Y77.077 E3.41182
G1 X145.315 Y77.117 E3.43195
G1 X145.788 Y77.236 E3.45207
G1 X146.235 Y77.43 E3.47218
G1 X146.645 Y77.695 E3.49232
G1 X147.051 Y78.065 E3.51499
G1 X147.366 Y78.437 E3.5351
G1 X147.617 Y78.856 E3.55526
G1 X147.796 Y79.309 E3.57536
G1 X147.898 Y79.786 E3.59548
G1 X147.923 Y80.171 E3.6114
G1 X147.923 Y129.829 E5.66046
G1 X147.883 Y130.315 E5.68058
G1 X147.764 Y130.788 E5.70071
G1 X147.57 Y131.235 E5.72081
G1 X147.305 Y131.645 E5.74096
G1 X146.935 Y132.051 E5.76362
G1 X146.563 Y132.366 E5.78374
G1 X146.144 Y132.617 E5.80389
G1 X145.691 Y132.796 E5.82399
G1 X145.214 Y132.898 E5.84412
G1 X144.829 Y132.923 E5.86004
G1 X114.814 Y132.922 E7.09856
G1 X114.166 Y132.873 E7.12537
G1 X113.607 Y132.763 E7.14888
G1 X113.241 Y132.654 E7.16464
G1 X112.69 Y132.428 E7.18921
G1 X112.072 Y132.077 E7.21854
G1 X111.556 Y131.669 E7.24568
G1 X111.34 Y131.474 E7.25769
G1 X95.941 Y116.075 E8.1563
G1 X95.01 Y115.28 E8.20682
G1 X94.067 Y114.702 E8.25246
G1 X93.039 Y114.277 E8.29836
G1 X91.97 Y114.02 E8.34373
G1 X90.745 Y113.923 E8.39443
G1 X67.003 Y113.922 E9.37411
G1 X66.25 Y113.857 E9.40529
G1 X65.572 Y113.702 E9.43399
G1 X64.957 Y113.476 E9.46103
G1 X64.215 Y113.05 E9.49633
G1 X63.675 Y112.62 E9.52482
G1 X63.16 Y112.078 E9.55567
G1 X62.73 Y111.434 E9.58762
G1 X62.435 Y110.819 E9.61577
G1 X62.219 Y110.165 E9.64419
G1 X62.095 Y109.313 E9.67971
G1 X62.077 Y108.987 E9.69318
G1 X62.078 Y82.003 E10.80663
G1 X62.143 Y81.25 E10.83782
G1 X62.298 Y80.572 E10.86652
G1 X62.524 Y79.957 E10.89356
G1 X62.95 Y79.215 E10.92886
G1 X63.379 Y78.676 E10.95729
G1 X63.903 Y78.175 E10.9872
M204 S3000
G0 F4200 X64.153 Y78.483
M204 S400
G1 F1800 X64.777 Y78.066 E11.01817
G1 X65.313 Y77.809 E11.0427
G1 X65.931 Y77.604 E11.06956
G1 X66.734 Y77.489 E11.10304
G1 X67.015 Y77.474 E11.11465
G1 X144.829 Y77.474 E14.32552
G1 X145.281 Y77.514 E14.34424
G1 X145.719 Y77.632 E14.36296
G1 X146.13 Y77.826 E14.38171
G1 X146.654 Y78.23 E14.40901
G1 X147.062 Y78.694 E14.43451
G1 X147.288 Y79.088 E14.45325
G1 X147.441 Y79.515 E14.47197
G1 X147.526 Y80.171 E14.49926
G1 X147.526 Y129.829 E16.54832
G1 X147.486 Y130.281 E16.56704
G1 X147.368 Y130.719 E16.58576
G1 X147.174 Y131.13 E16.60451
G1 X146.77 Y131.654 E16.63182
G1 X146.306 Y132.062 E16.65731
G1 X145.912 Y132.288 E16.67605
G1 X145.485 Y132.441 E16.69477
G1 X144.829 Y132.526 E16.72206
G1 X114.814 Y132.525 E17.96058
G1 X114.205 Y132.478 E17.98579
G1 X113.354 Y132.274 E18.0219
G1 X112.877 Y132.078 E18.04318
G1 X112.297 Y131.75 E18.07067
G1 X111.808 Y131.362 E18.09643
G1 X111.621 Y131.193 E18.10683
G1 X96.219 Y115.791 E19.00562
G1 X95.238 Y114.954 E19.05883
G1 X94.251 Y114.348 E19.10662
G1 X93.164 Y113.899 E19.15515
G1 X92.031 Y113.626 E19.20324
G1 X90.764 Y113.526 E19.25568
G1 X67.003 Y113.525 E20.23614
G1 X66.294 Y113.462 E20.26551
G1 X65.704 Y113.328 E20.29048
G1 X65.118 Y113.114 E20.31622
G1 X64.426 Y112.714 E20.3492
G1 X63.956 Y112.339 E20.37401
G1 X63.47 Y111.83 E20.40305
G1 X63.066 Y111.223 E20.43314
G1 X62.809 Y110.687 E20.45767
G1 X62.604 Y110.069 E20.48453
G1 X62.49 Y109.269 E20.51788
G1 X62.474 Y108.987 E20.52953
G1 X62.475 Y82.003 E21.64298
G1 X62.538 Y81.294 E21.67235
G1 X62.672 Y80.704 E21.69732
G1 X62.886 Y80.118 E21.72306
G1 X63.286 Y79.426 E21.75604
G1 X63.66 Y78.957 E21.78079
G1 X64.153 Y78.483 E21.80901
M204 S3000
G0 F4200 X64.404 Y78.791
M204 S400
G1 F1800 X64.988 Y78.402 E21.83797
G1 X65.444 Y78.184 E21.85882
G1 X66.027 Y77.989 E21.88419
G1 X66.777 Y77.884 E21.91544
G1 X67.015 Y77.871 E21.92528
G1 X144.829 Y77.871 E25.13614
G1 X145.245 Y77.911 E25.15339
G1 X145.645 Y78.029 E25.1706
G1 X146.016 Y78.221 E25.18783
G1 X146.489 Y78.627 E25.21355
G1 X146.755 Y78.949 E25.23079
G1 X146.954 Y79.316 E25.24802
G1 X147.081 Y79.714 E25.26525
G1 X147.129 Y80.171 E25.28421
G1 X147.129 Y129.829 E27.33327
G1 X147.089 Y130.245 E27.35052
G1 X146.971 Y130.645 E27.36772
G1 X146.779 Y131.016 E27.38496
G1 X146.373 Y131.489 E27.41068
G1 X146.051 Y131.755 E27.42792
G1 X145.684 Y131.954 E27.44514
G1 X145.286 Y132.081 E27.46238
G1 X144.829 Y132.129 E27.48134
G1 X114.814 Y132.128 E28.71986
G1 X114.244 Y132.083 E28.74346
G1 X113.468 Y131.893 E28.77642
G1 X112.732 Y131.55 E28.80993
G1 X112.357 Y131.3 E28.82853
G1 X111.902 Y130.912 E28.8532
G1 X96.491 Y115.501 E29.75251
G1 X95.476 Y114.635 E29.80757
G1 X94.426 Y113.991 E29.85839
G1 X93.288 Y113.52 E29.90921
G1 X92.092 Y113.233 E29.95997
G1 X90.783 Y113.129 E30.01415
G1 X67.003 Y113.128 E30.99539
G1 X66.337 Y113.068 E31.02298
G1 X65.835 Y112.953 E31.04424
G1 X65.279 Y112.751 E31.06865
G1 X64.637 Y112.378 E31.09928
G1 X64.237 Y112.058 E31.12042
G1 X63.78 Y111.582 E31.14765
G1 X63.402 Y111.012 E31.17587
G1 X63.184 Y110.556 E31.19673
G1 X62.989 Y109.973 E31.22209
G1 X62.884 Y109.226 E31.25322
G1 X62.871 Y108.987 E31.2631
G1 X62.872 Y82.003 E32.37655
G1 X62.932 Y81.337 E32.40414
G1 X63.047 Y80.835 E32.42539
G1 X63.249 Y80.279 E32.4498
G1 X63.622 Y79.637 E32.48044
G1 X63.941 Y79.238 E32.50152
G1 X64.404 Y78.791 E32.52807
M204 S3000
G0 F4200 X64.654 Y79.099
M204 S400
G1 F1800 X65.199 Y78.739 E32.55502
G1 X65.575 Y78.559 E32.57222
G1 X66.124 Y78.374 E32.59613
G1 X66.82 Y78.279 E32.62512
G1 X67.015 Y78.268 E32.63317
G1 X144.829 Y78.268 E35.84404
G1 X145.204 Y78.308 E35.8596
G1 X145.563 Y78.426 E35.8752
G1 X145.889 Y78.616 E35.89077
G1 X146.209 Y78.907 E35.90861
G1 X146.446 Y79.201 E35.9242
G1 X146.616 Y79.538 E35.93977
G1 X146.712 Y79.903 E35.95534
G1 X146.732 Y80.171 E35.96643
G1 X146.732 Y129.829 E38.01549
G1 X146.692 Y130.204 E38.03105
G1 X146.574 Y130.563 E38.04664
G1 X146.384 Y130.889 E38.06221
G1 X146.093 Y131.209 E38.08006
G1 X145.799 Y131.446 E38.09564
G1 X145.462 Y131.616 E38.11122
G1 X145.097 Y131.712 E38.12679
G1 X144.829 Y131.732 E38.13788
G1 X114.814 Y131.731 E39.3764
G1 X114.283 Y131.687 E39.39839
G1 X113.581 Y131.513 E39.42823
G1 X112.918 Y131.2 E39.45848
G1 X112.312 Y130.749 E39.48965
G1 X112.182 Y130.632 E39.49687
G1 X96.749 Y115.199 E40.39747
G1 X95.708 Y114.31 E40.45395
G1 X94.612 Y113.638 E40.507
G1 X93.41 Y113.141 E40.56067
G1 X92.154 Y112.839 E40.61398
G1 X90.801 Y112.732 E40.66998
G1 X67.003 Y112.731 E41.65197
G1 X66.381 Y112.673 E41.67774
G1 X65.966 Y112.578 E41.69531
G1 X65.44 Y112.388 E41.71839
G1 X64.848 Y112.041 E41.7467
G1 X64.517 Y111.778 E41.76415
G1 X64.09 Y111.334 E41.78957
G1 X63.739 Y110.801 E41.8159
G1 X63.559 Y110.425 E41.8331
G1 X63.374 Y109.876 E41.85701
G1 X63.279 Y109.183 E41.88587
G1 X63.268 Y108.987 E41.89397
G1 X63.269 Y82.003 E43.00742
G1 X63.327 Y81.381 E43.0332
G1 X63.422 Y80.966 E43.05076
G1 X63.612 Y80.44 E43.07384
G1 X63.959 Y79.848 E43.10216
G1 X64.221 Y79.518 E43.11954
G1 X64.654 Y79.099 E43.14441
M204 S3000
G0 F4200 X64.798 Y79.503
M204 S400
G1 F1800 X65.059 Y79.295 E43.15818
G1 X65.583 Y78.983 E43.18334
G1 X66.097 Y78.796 E43.20591
G1 X66.426 Y78.721 E43.21984
G1 X67.015 Y78.665 E43.24425
G1 X144.829 Y78.665 E46.45512
G1 X145.159 Y78.705 E46.46883
G1 X145.471 Y78.822 E46.48258
G1 X145.928 Y79.188 E46.50674
G1 X146.133 Y79.45 E46.52047
G1 X146.271 Y79.753 E46.53421
G1 X146.335 Y80.171 E46.55166
G1 X146.335 Y129.829 E48.60071
G1 X146.295 Y130.159 E48.61443
G1 X146.178 Y130.471 E48.62818
G1 X145.812 Y130.928 E48.65234
G1 X145.55 Y131.133 E48.66606
G1 X145.247 Y131.271 E48.6798
G1 X144.829 Y131.335 E48.69725
G1 X114.814 Y131.334 E49.93577
G1 X114.06 Y131.241 E49.96712
G1 X113.437 Y131.027 E49.9943
G1 X112.972 Y130.768 E50.01626
G1 X112.564 Y130.442 E50.03781
G1 X112.463 Y130.351 E50.04342
G1 X97.02 Y114.908 E50.9446
G1 X95.946 Y113.991 E51.00288
G1 X94.793 Y113.284 E51.05868
G1 X93.528 Y112.761 E51.11517
G1 X92.221 Y112.447 E51.17063
G1 X90.807 Y112.335 E51.22916
G1 X67.003 Y112.334 E52.2114
G1 X66.425 Y112.279 E52.23535
G1 X65.706 Y112.067 E52.26628
G1 X65.059 Y111.705 E52.29688
G1 X64.798 Y111.497 E52.31065
G1 X64.4 Y111.086 E52.33426
G1 X64.075 Y110.59 E52.35872
G1 X63.796 Y109.903 E52.38932
G1 X63.721 Y109.575 E52.40321
G1 X63.665 Y108.987 E52.42758
G1 X63.666 Y82.003 E53.54103
G1 X63.721 Y81.425 E53.56499
G1 X63.933 Y80.706 E53.59592
G1 X64.295 Y80.059 E53.62651
G1 X64.798 Y79.503 E53.65745
M204 S3000
G0 F4200 X65.079 Y79.784
M204 S400
G1 F1800 X65.621 Y79.412 E53.68457
G1 X66.229 Y79.171 E53.71156
G1 X66.907 Y79.068 E53.73986
G1 X67.015 Y79.062 E53.74432
G1 X144.829 Y79.062 E56.95519
G1 X145.107 Y79.102 E56.96678
G1 X145.363 Y79.218 E56.97837
G1 X145.647 Y79.469 E56.99401
G1 X145.816 Y79.694 E57.00563
G1 X145.915 Y79.957 E57.01722
G1 X145.938 Y80.171 E57.0261
G1 X145.938 Y129.829 E59.07516
G1 X145.898 Y130.107 E59.08675
G1 X145.782 Y130.363 E59.09834
G1 X145.531 Y130.647 E59.11398
G1 X145.306 Y130.816 E59.1256
G1 X145.043 Y130.915 E59.13719
G1 X144.829 Y130.938 E59.14607
G1 X114.814 Y130.937 E60.38459
G1 X114.174 Y130.861 E60.41119
G1 X113.624 Y130.676 E60.43513
G1 X113.18 Y130.43 E60.45608
G1 X112.744 Y130.07 E60.47941
G1 X97.298 Y114.624 E61.38076
G1 X96.174 Y113.665 E61.44173
G1 X94.977 Y112.93 E61.49969
G1 X93.652 Y112.383 E61.55884
G1 X92.282 Y112.053 E61.61699
G1 X90.826 Y111.938 E61.67725
G1 X67.003 Y111.937 E62.66027
G1 X66.468 Y111.884 E62.68245
G1 X65.838 Y111.692 E62.70963
G1 X65.27 Y111.368 E62.73661
G1 X64.783 Y110.92 E62.76392
G1 X64.412 Y110.379 E62.79099
G1 X64.171 Y109.771 E62.81797
G1 X64.068 Y109.096 E62.84615
G1 X64.062 Y108.987 E62.85065
G1 X64.063 Y82.003 E63.9641
G1 X64.116 Y81.468 E63.98629
G1 X64.308 Y80.838 E64.01346
G1 X64.632 Y80.27 E64.04045
G1 X65.079 Y79.784 E64.06769
M204 S3000
G0 F4200 X65.36 Y80.065
M204 S400
G1 F1800 X65.831 Y79.748 E64.09112
G1 X66.36 Y79.546 E64.11448
G1 X66.95 Y79.463 E64.13907
G1 X67.015 Y79.459 E64.14176
G1 X144.829 Y79.459 E67.35262
G1 X145.043 Y79.499 E67.36161
G1 X145.366 Y79.75 E67.37849
G1 X145.49 Y79.929 E67.38747
G1 X145.541 Y80.171 E67.39768
G1 X145.541 Y129.829 E69.44673
G1 X145.501 Y130.043 E69.45572
G1 X145.25 Y130.366 E69.47259
G1 X145.071 Y130.49 E69.48158
G1 X144.829 Y130.541 E69.49178
G1 X114.814 Y130.54 E70.7303
G1 X114.287 Y130.48 E70.75219
G1 X113.811 Y130.326 E70.77283
G1 X113.365 Y130.073 E70.79399
G1 X113.025 Y129.789 E70.81227
G1 X97.569 Y114.333 E71.71421
G1 X96.412 Y113.346 E71.77696
G1 X95.154 Y112.574 E71.83787
G1 X93.774 Y112.004 E71.89948
G1 X92.344 Y111.66 E71.96017
G1 X90.844 Y111.541 E72.02226
G1 X67.003 Y111.54 E73.00602
G1 X66.432 Y111.475 E73.02973
G1 X65.924 Y111.3 E73.0519
G1 X65.48 Y111.032 E73.0733
G1 X65.064 Y110.639 E73.09692
G1 X64.748 Y110.169 E73.12028
G1 X64.546 Y109.64 E73.14365
G1 X64.463 Y109.052 E73.16815
G1 X64.459 Y108.987 E73.17084
G1 X64.46 Y82.003 E74.28429
G1 X64.525 Y81.432 E74.308
G1 X64.7 Y80.924 E74.33018
G1 X64.968 Y80.48 E74.35158
G1 X65.36 Y80.065 E74.37513
M204 S3000
G0 F4200 X65.691 Y80.304
M204 S400
G1 F1800 X66.1 Y80.057 E74.39485
G1 X66.555 Y79.905 E74.41464
G1 X67.015 Y79.856 E74.43373
G1 X144.829 Y79.856 E77.6446
G1 X144.97 Y79.914 E77.65089
G1 X145.086 Y80.03 E77.65766
G1 X145.144 Y80.171 E77.66395
G1 X145.144 Y129.829 E79.713
G1 X145.086 Y129.97 E79.71929
G1 X144.97 Y130.086 E79.72606
G1 X144.829 Y130.144 E79.73236
G1 X114.795 Y130.142 E80.97166
G1 X114.4 Y130.1 E80.98805
G1 X113.997 Y129.976 E81.00545
G1 X113.617 Y129.766 E81.02336
G1 X113.305 Y129.509 E81.04004
G1 X97.829 Y114.033 E81.94315
G1 X96.648 Y113.025 E82.00722
G1 X95.333 Y112.218 E82.07088
G1 X93.9 Y111.626 E82.13486
G1 X92.404 Y111.266 E82.19835
G1 X90.863 Y111.144 E82.26214
G1 X66.981 Y111.142 E83.24759
G1 X66.491 Y111.08 E83.26797
G1 X66.042 Y110.916 E83.28769
G1 X65.64 Y110.655 E83.30747
G1 X65.304 Y110.309 E83.32737
G1 X65.057 Y109.9 E83.34709
G1 X64.905 Y109.445 E83.36688
G1 X64.856 Y108.987 E83.38589
G1 X64.858 Y81.981 E84.50025
G1 X64.92 Y81.491 E84.52063
G1 X65.084 Y81.042 E84.54035
G1 X65.344 Y80.641 E84.56007
G1 X65.691 Y80.304 E84.58003
M204 S3000
G1 F3000 E79.58003
;MESH:base-holder.stl
G0 F4200 X114.487 Y129.713
M204 S400
;TYPE:WALL-OUTER
G1 F3000 E84.64239
G1 F1080 X114.159 Y129.613 E84.65654
G1 X113.862 Y129.454 E84.67044
G1 X113.583 Y129.225 E84.68534
G1 X98.099 Y113.742 E85.58888
G1 X96.881 Y112.702 E85.65497
G1 X95.518 Y111.866 E85.72095
G1 X94.024 Y111.247 E85.78768
G1 X92.47 Y110.874 E85.85362
G1 X90.87 Y110.747 E85.91985
G1 X67.02 Y110.747 E86.90398
G1 X66.611 Y110.701 E86.92096
G1 X66.242 Y110.572 E86.93709
G1 X65.913 Y110.366 E86.95311
G1 X65.634 Y110.087 E86.96939
G1 X65.428 Y109.758 E86.98541
G1 X65.299 Y109.389 E87.00154
G1 X65.253 Y108.98 E87.01852
G1 X65.253 Y82.02 E88.13098
G1 X65.299 Y81.611 E88.14796
G1 X65.428 Y81.242 E88.16409
G1 X65.634 Y80.913 E88.18011
G1 X65.913 Y80.634 E88.19639
G1 X66.242 Y80.428 E88.21241
G1 X66.611 Y80.299 E88.22854
G1 X67.02 Y80.253 E88.24552
G1 X144.747 Y80.253 E91.4528
G1 X144.747 Y129.549 E93.48692
G1 X144.747 Y129.747 E93.49509
G1 X144.549 Y129.747 E93.50037
G1 X114.827 Y129.746 E94.7268
G1 X114.487 Y129.713 E94.74089
M204 S3000
G0 F4200 X114.296 Y129.655
G0 X114.424 Y129.237
G1 F3000 E89.74089
G0 F4200 X69.378 Y87.927
M204 S400
G1 F3000 E94.80326
G1 F1080 X69.585 Y87.814 E94.81299
G1 X69.758 Y87.657 E94.82263
G1 X69.896 Y87.452 E94.83283
G1 X69.978 Y87.222 E94.8429
G1 X70.003 Y86.982 E94.85286
G1 X69.969 Y86.742 E94.86286
G1 X69.878 Y86.515 E94.87295
G1 X69.733 Y86.318 E94.88305
G1 X69.555 Y86.165 E94.89273
G1 X69.345 Y86.058 E94.90246
G1 X69.098 Y86.002 E94.91291
G1 X68.865 Y86.005 E94.92252
G1 X68.622 Y86.073 E94.93293
G1 X68.415 Y86.186 E94.94267
G1 X68.242 Y86.343 E94.95231
G1 X68.104 Y86.548 E94.9625
G1 X68.022 Y86.778 E94.97258
G1 X67.997 Y87.018 E94.98253
G1 X68.031 Y87.258 E94.99254
G1 X68.122 Y87.485 E95.00263
G1 X68.267 Y87.682 E95.01272
G1 X68.445 Y87.835 E95.02241
G1 X68.655 Y87.942 E95.03213
G1 X68.902 Y87.998 E95.04258
G1 X69.135 Y87.995 E95.0522
G1 X69.378 Y87.927 E95.06261
M204 S3000
G0 F4200 X69.554 Y87.831
G0 X69.813 Y88.135
M204 S400
;TYPE:WALL-INNER
G1 F1080 X70.056 Y87.915 E95.07614
G1 X70.248 Y87.63 E95.09032
G1 X70.362 Y87.309 E95.10437
G1 X70.397 Y86.975 E95.11823
G1 X70.35 Y86.64 E95.13219
G1 X70.222 Y86.323 E95.14629
G1 X70.022 Y86.05 E95.16026
G1 X69.774 Y85.838 E95.17372
G1 X69.479 Y85.687 E95.1874
G1 X69.139 Y85.61 E95.20178
G1 X68.809 Y85.615 E95.2154
G1 X68.474 Y85.708 E95.22975
G1 X68.187 Y85.865 E95.24324
G1 X67.944 Y86.085 E95.25677
G1 X67.752 Y86.37 E95.27095
G1 X67.638 Y86.691 E95.28501
G1 X67.603 Y87.025 E95.29886
G1 X67.65 Y87.36 E95.31282
G1 X67.778 Y87.677 E95.32693
G1 X67.978 Y87.95 E95.34089
G1 X68.226 Y88.162 E95.35436
G1 X68.521 Y88.313 E95.36803
G1 X68.861 Y88.39 E95.38242
G1 X69.191 Y88.385 E95.39603
G1 X69.526 Y88.292 E95.41038
G1 X69.813 Y88.135 E95.42388
M204 S3000
G1 F3000 E90.42388
G0 F4200 X69.378 Y107.927
M204 S400
;TYPE:WALL-OUTER
G1 F3000 E95.48624
G1 F1080 X69.585 Y107.814 E95.49597
G1 X69.758 Y107.657 E95.50561
G1 X69.896 Y107.452 E95.51581
G1 X69.978 Y107.222 E95.52589
G1 X70.003 Y106.982 E95.53584
G1 X69.969 Y106.742 E95.54584
G1 X69.878 Y106.515 E95.55594
G1 X69.733 Y106.318 E95.56603
G1 X69.555 Y106.165 E95.57571
G1 X69.345 Y106.058 E95.58544
G1 X69.098 Y106.002 E95.59589
G1 X68.865 Y106.005 E95.60551
G1 X68.622 Y106.073 E95.61592
G1 X68.415 Y106.186 E95.62565
G1 X68.242 Y106.343 E95.63529
G1 X68.104 Y106.548 E95.64549
