;FLAVOR:Marlin
;TIME:3524
;Filament used: 4.08745m
;Layer height: 0.3
;MINX:62.077
;MINY:47.077
;MINZ:0.25
;MAXX:147.923
;MAXY:162.923
;MAXZ:12.85
;Generated with Cura_SteamEngine 4.9.0
M140 S60
M105
M190 S60
M104 S200
M105
M109 S200
M82 ;absolute extrusion mode
G21 ;metric values
G90 ;absolute positioning
M82 ;set extruder to absolute mode
M107 ;start with the fan off
G28 X0 Y0 ;move X/Y to min endstops
G28 Z0 ;move Z to min endstops
G1 Z15.0 F120 ;move the platform down 15mm
G92 E0 ;zero the extruded length
G1 F200 E3 ;extrude 3mm of feed stock
G92 E0 ;zero the extruded length again
G1 F120
G0 Y20 F120
M117 Printing...
G5
G92 E0
G92 E0
G1 F3000 E-5
;LAYER_COUNT:43
;LAYER:0
M106 S51
M204 S3000
M205 X10 Y10
G1 F600 Z0.325
G0 F4200 X62.95 Y49.215 Z0.325
M204 S400
;TYPE:SKIRT
G1 F600 Z0.25
G1 F3000 E0.06236
G1 F1800 X63.379 Y48.676 E0.09079
G1 X63.903 Y48.175 E0.1207
G1 X64.566 Y47.73 E0.15365
G1 X65.181 Y47.435 E0.1818
G1 X65.835 Y47.219 E0.21022
G1 X66.691 Y47.095 E0.24591
G1 X67.015 Y47.077 E0.2593
G1 X144.829 Y47.077 E3.47016
G1 X145.315 Y47.117 E3.49029
G1 X145.788 Y47.236 E3.51041
G1 X146.235 Y47.43 E3.53052
G1 X146.645 Y47.695 E3.55066
G1 X147.051 Y48.065 E3.57333
G1 X147.366 Y48.437 E3.59344
G1 X147.617 Y48.856 E3.6136
G1 X147.796 Y49.309 E3.6337
G1 X147.898 Y49.786 E3.65382
G1 X147.923 Y50.171 E3.66974
G1 X147.923 Y99.829 E5.7188
G1 X147.883 Y100.315 E5.73892
G1 X147.764 Y100.788 E5.75905
G1 X147.57 Y101.235 E5.77915
G1 X147.305 Y101.645 E5.7993
G1 X146.935 Y102.051 E5.82196
G1 X146.563 Y102.366 E5.84208
G1 X146.144 Y102.617 E5.86223
G1 X145.691 Y102.796 E5.88233
G1 X145.214 Y102.898 E5.90246
G1 X144.829 Y102.923 E5.91838
G1 X114.837 Y102.923 E7.15595
G1 X114.168 Y102.872 E7.18363
G1 X113.614 Y102.764 E7.20692
G1 X113.248 Y102.656 E7.22267
G1 X112.69 Y102.428 E7.24754
G1 X112.072 Y102.077 E7.27687
G1 X111.568 Y101.68 E7.30334
G1 X111.352 Y101.484 E7.31538
G1 X95.942 Y86.076 E8.21457
G1 X95.01 Y85.28 E8.26515
G1 X94.067 Y84.702 E8.31079
G1 X93.039 Y84.277 E8.35669
G1 X91.97 Y84.02 E8.40206
G1 X90.745 Y83.923 E8.45276
G1 X67.003 Y83.922 E9.43244
G1 X66.25 Y83.857 E9.46362
G1 X65.572 Y83.702 E9.49232
G1 X64.957 Y83.476 E9.51936
G1 X64.215 Y83.05 E9.55466
G1 X63.675 Y82.62 E9.58315
G1 X63.16 Y82.078 E9.614
G1 X62.73 Y81.434 E9.64595
G1 X62.435 Y80.819 E9.67409
G1 X62.219 Y80.165 E9.70251
G1 X62.095 Y79.313 E9.73804
G1 X62.077 Y78.987 E9.75151
G1 X62.078 Y52.003 E10.86496
G1 X62.143 Y51.25 E10.89615
G1 X62.298 Y50.572 E10.92485
G1 X62.524 Y49.957 E10.95189
G1 X62.95 Y49.215 E10.98719
M204 S3000
G0 F4200 X63.286 Y49.426
M204 S400
G1 F1800 X63.66 Y48.957 E11.01194
G1 X64.153 Y48.483 E11.04016
G1 X64.777 Y48.066 E11.07113
G1 X65.313 Y47.809 E11.09566
G1 X65.931 Y47.604 E11.12253
G1 X66.734 Y47.489 E11.156
G1 X67.015 Y47.474 E11.16761
G1 X144.829 Y47.474 E14.37848
G1 X145.281 Y47.514 E14.3972
G1 X145.719 Y47.632 E14.41592
G1 X146.13 Y47.826 E14.43467
G1 X146.654 Y48.23 E14.46198
G1 X147.062 Y48.694 E14.48747
G1 X147.288 Y49.088 E14.50621
G1 X147.441 Y49.515 E14.52493
G1 X147.526 Y50.171 E14.55222
G1 X147.526 Y99.829 E16.60128
G1 X147.486 Y100.281 E16.62
G1 X147.368 Y100.719 E16.63872
G1 X147.174 Y101.13 E16.65748
G1 X146.77 Y101.654 E16.68478
G1 X146.306 Y102.062 E16.71027
G1 X145.912 Y102.288 E16.72902
G1 X145.485 Y102.441 E16.74773
G1 X144.829 Y102.526 E16.77503
G1 X114.837 Y102.526 E18.0126
G1 X114.207 Y102.477 E18.03867
G1 X113.361 Y102.275 E18.07456
G1 X112.877 Y102.078 E18.09612
G1 X112.297 Y101.75 E18.12362
G1 X111.82 Y101.373 E18.14871
G1 X111.633 Y101.203 E18.15913
G1 X96.219 Y85.791 E19.05856
G1 X95.238 Y84.954 E19.11177
G1 X94.251 Y84.348 E19.15957
G1 X93.164 Y83.899 E19.20809
G1 X92.031 Y83.626 E19.25618
G1 X90.764 Y83.526 E19.30863
G1 X67.003 Y83.525 E20.28909
G1 X66.294 Y83.462 E20.31846
G1 X65.704 Y83.328 E20.34342
G1 X65.118 Y83.114 E20.36916
G1 X64.426 Y82.714 E20.40215
G1 X63.956 Y82.339 E20.42696
G1 X63.47 Y81.83 E20.456
G1 X63.066 Y81.223 E20.48608
G1 X62.809 Y80.687 E20.51061
G1 X62.604 Y80.069 E20.53748
G1 X62.49 Y79.269 E20.57082
G1 X62.474 Y78.987 E20.58248
G1 X62.475 Y52.003 E21.69593
G1 X62.538 Y51.294 E21.7253
G1 X62.672 Y50.704 E21.75026
G1 X62.886 Y50.118 E21.77601
G1 X63.286 Y49.426 E21.80899
M204 S3000
G0 F4200 X63.622 Y49.637
M204 S400
G1 F1800 X63.941 Y49.238 E21.83007
G1 X64.404 Y48.791 E21.85662
G1 X64.988 Y48.402 E21.88558
G1 X65.444 Y48.184 E21.90643
G1 X66.027 Y47.989 E21.9318
G1 X66.777 Y47.884 E21.96305
G1 X67.015 Y47.871 E21.97288
G1 X144.829 Y47.871 E25.18375
G1 X145.245 Y47.911 E25.201
G1 X145.645 Y48.029 E25.2182
G1 X146.016 Y48.221 E25.23544
G1 X146.489 Y48.627 E25.26116
G1 X146.755 Y48.949 E25.2784
G1 X146.954 Y49.316 E25.29562
G1 X147.081 Y49.714 E25.31286
G1 X147.129 Y50.171 E25.33182
G1 X147.129 Y99.829 E27.38088
G1 X147.089 Y100.245 E27.39812
G1 X146.971 Y100.645 E27.41533
G1 X146.779 Y101.016 E27.43257
G1 X146.373 Y101.489 E27.45829
G1 X146.051 Y101.755 E27.47552
G1 X145.684 Y101.954 E27.49275
G1 X145.286 Y102.081 E27.50999
G1 X144.829 Y102.129 E27.52895
G1 X114.837 Y102.129 E28.76652
G1 X114.245 Y102.082 E28.79103
G1 X113.473 Y101.895 E28.8238
G1 X112.732 Y101.55 E28.85753
G1 X112.357 Y101.3 E28.87613
G1 X111.914 Y100.922 E28.90016
G1 X96.491 Y85.501 E29.80011
G1 X95.476 Y84.635 E29.85517
G1 X94.426 Y83.991 E29.90599
G1 X93.288 Y83.52 E29.95681
G1 X92.092 Y83.233 E30.00757
G1 X90.783 Y83.129 E30.06175
G1 X67.003 Y83.128 E31.04299
G1 X66.337 Y83.068 E31.07059
G1 X65.835 Y82.953 E31.09184
G1 X65.279 Y82.751 E31.11625
G1 X64.637 Y82.378 E31.14688
G1 X64.237 Y82.058 E31.16802
G1 X63.78 Y81.582 E31.19525
G1 X63.402 Y81.012 E31.22347
G1 X63.184 Y80.556 E31.24433
G1 X62.989 Y79.973 E31.26969
G1 X62.884 Y79.226 E31.30082
G1 X62.871 Y78.987 E31.3107
G1 X62.872 Y52.003 E32.42415
G1 X62.932 Y51.337 E32.45174
G1 X63.047 Y50.835 E32.47299
G1 X63.249 Y50.279 E32.4974
G1 X63.622 Y49.637 E32.52804
M204 S3000
G0 F4200 X63.959 Y49.848
M204 S400
G1 F1800 X64.221 Y49.518 E32.54542
G1 X64.654 Y49.099 E32.57029
G1 X65.199 Y48.739 E32.59724
G1 X65.575 Y48.559 E32.61444
G1 X66.124 Y48.374 E32.63834
G1 X66.82 Y48.279 E32.66733
G1 X67.015 Y48.268 E32.67539
G1 X144.829 Y48.268 E35.88626
G1 X145.204 Y48.308 E35.90182
G1 X145.563 Y48.426 E35.91741
G1 X145.889 Y48.616 E35.93298
G1 X146.209 Y48.907 E35.95083
G1 X146.446 Y49.201 E35.96641
G1 X146.616 Y49.538 E35.98199
G1 X146.712 Y49.903 E35.99756
G1 X146.732 Y50.171 E36.00865
G1 X146.732 Y99.829 E38.0577
G1 X146.692 Y100.204 E38.07327
G1 X146.574 Y100.563 E38.08886
G1 X146.384 Y100.889 E38.10443
G1 X146.093 Y101.209 E38.12228
G1 X145.799 Y101.446 E38.13786
G1 X145.462 Y101.616 E38.15343
G1 X145.097 Y101.712 E38.16901
G1 X144.829 Y101.732 E38.1801
G1 X114.837 Y101.732 E39.41767
G1 X114.284 Y101.687 E39.44056
G1 X113.585 Y101.514 E39.47027
G1 X112.918 Y101.2 E39.50069
G1 X112.324 Y100.759 E39.53122
G1 X112.194 Y100.642 E39.53844
G1 X96.749 Y85.199 E40.43968
G1 X95.708 Y84.31 E40.49616
G1 X94.612 Y83.638 E40.54921
G1 X93.41 Y83.141 E40.60288
G1 X92.154 Y82.839 E40.65619
G1 X90.801 Y82.732 E40.71219
G1 X67.003 Y82.731 E41.69418
G1 X66.381 Y82.673 E41.71995
G1 X65.966 Y82.578 E41.73752
G1 X65.44 Y82.388 E41.7606
G1 X64.848 Y82.041 E41.78891
G1 X64.517 Y81.778 E41.80636
G1 X64.09 Y81.334 E41.83177
G1 X63.739 Y80.801 E41.85811
G1 X63.559 Y80.425 E41.87531
G1 X63.374 Y79.876 E41.89922
G1 X63.279 Y79.183 E41.92808
G1 X63.268 Y78.987 E41.93618
G1 X63.269 Y52.003 E43.04963
G1 X63.327 Y51.381 E43.07541
G1 X63.422 Y50.966 E43.09297
G1 X63.612 Y50.44 E43.11605
G1 X63.959 Y49.848 E43.14437
M204 S3000
G0 F4200 X64.295 Y50.059
M204 S400
G1 F1800 X64.798 Y49.503 E43.1753
G1 X65.059 Y49.295 E43.18907
G1 X65.583 Y48.983 E43.21424
G1 X66.097 Y48.796 E43.23681
G1 X66.426 Y48.721 E43.25073
G1 X67.015 Y48.665 E43.27515
G1 X144.829 Y48.665 E46.48601
G1 X145.159 Y48.705 E46.49973
G1 X145.471 Y48.822 E46.51348
G1 X145.928 Y49.188 E46.53764
G1 X146.133 Y49.45 E46.55137
G1 X146.271 Y49.753 E46.5651
G1 X146.335 Y50.171 E46.58255
G1 X146.335 Y99.829 E48.63161
G1 X146.295 Y100.159 E48.64533
G1 X146.178 Y100.471 E48.65908
G1 X145.812 Y100.928 E48.68323
G1 X145.55 Y101.133 E48.69696
G1 X145.247 Y101.271 E48.7107
G1 X144.829 Y101.335 E48.72815
G1 X114.837 Y101.335 E49.96572
G1 X114.322 Y101.291 E49.98705
G1 X113.698 Y101.133 E50.01361
G1 X113.105 Y100.85 E50.04072
G1 X112.576 Y100.452 E50.06804
G1 X112.475 Y100.361 E50.07365
G1 X97.02 Y84.908 E50.97547
G1 X95.946 Y83.991 E51.03374
G1 X94.793 Y83.284 E51.08955
G1 X93.528 Y82.761 E51.14603
G1 X92.221 Y82.447 E51.2015
G1 X90.807 Y82.335 E51.26003
G1 X67.003 Y82.334 E52.24226
G1 X66.425 Y82.279 E52.26622
G1 X65.706 Y82.067 E52.29715
G1 X65.059 Y81.705 E52.32774
G1 X64.798 Y81.497 E52.34151
G1 X64.4 Y81.086 E52.36512
G1 X64.075 Y80.59 E52.38959
G1 X63.796 Y79.903 E52.42019
G1 X63.721 Y79.575 E52.43407
G1 X63.665 Y78.987 E52.45844
G1 X63.666 Y52.003 E53.57189
G1 X63.721 Y51.425 E53.59585
G1 X63.933 Y50.706 E53.62678
G1 X64.295 Y50.059 E53.65738
M204 S3000
G0 F4200 X64.632 Y50.27
M204 S400
G1 F1800 X65.079 Y49.784 E53.68462
G1 X65.621 Y49.412 E53.71175
G1 X66.229 Y49.171 E53.73873
G1 X66.907 Y49.068 E53.76703
G1 X67.015 Y49.062 E53.7715
G1 X144.829 Y49.062 E56.98236
G1 X145.107 Y49.102 E56.99395
G1 X145.363 Y49.218 E57.00555
G1 X145.647 Y49.469 E57.02119
G1 X145.816 Y49.694 E57.0328
G1 X145.915 Y49.957 E57.0444
G1 X145.938 Y50.171 E57.05328
G1 X145.938 Y99.829 E59.10233
G1 X145.898 Y100.107 E59.11392
G1 X145.782 Y100.363 E59.12552
G1 X145.531 Y100.647 E59.14116
G1 X145.306 Y100.816 E59.15277
G1 X145.043 Y100.915 E59.16437
G1 X144.829 Y100.938 E59.17325
G1 X114.837 Y100.938 E60.41082
G1 X114.176 Y100.86 E60.43828
G1 X113.624 Y100.676 E60.46229
G1 X113.18 Y100.43 E60.48324
G1 X112.756 Y100.08 E60.50592
G1 X97.298 Y84.624 E61.40792
G1 X96.174 Y83.665 E61.46889
G1 X94.977 Y82.93 E61.52685
G1 X93.652 Y82.383 E61.586
G1 X92.282 Y82.053 E61.64414
G1 X90.826 Y81.938 E61.70441
G1 X67.003 Y81.937 E62.68743
G1 X66.468 Y81.884 E62.70961
G1 X65.838 Y81.692 E62.73679
G1 X65.27 Y81.368 E62.76377
G1 X64.783 Y80.92 E62.79108
G1 X64.412 Y80.379 E62.81814
G1 X64.171 Y79.771 E62.84513
G1 X64.068 Y79.096 E62.87331
G1 X64.062 Y78.987 E62.87781
G1 X64.063 Y52.003 E63.99126
G1 X64.116 Y51.468 E64.01344
G1 X64.308 Y50.838 E64.04062
G1 X64.632 Y50.27 E64.0676
M204 S3000
G0 F4200 X64.968 Y50.48
M204 S400
G1 F1800 X65.36 Y50.065 E64.09116
G1 X65.831 Y49.748 E64.11459
G1 X66.36 Y49.546 E64.13795
G1 X66.95 Y49.463 E64.16254
G1 X67.015 Y49.459 E64.16522
G1 X144.829 Y49.459 E67.37609
G1 X145.043 Y49.499 E67.38507
G1 X145.366 Y49.75 E67.40195
G1 X145.49 Y49.929 E67.41094
G1 X145.541 Y50.171 E67.42114
G1 X145.541 Y99.829 E69.4702
G1 X145.501 Y100.043 E69.47918
G1 X145.25 Y100.366 E69.49606
G1 X145.071 Y100.49 E69.50505
G1 X144.829 Y100.541 E69.51525
G1 X114.837 Y100.541 E70.75282
G1 X114.288 Y100.48 E70.77562
G1 X113.811 Y100.326 E70.7963
G1 X113.365 Y100.073 E70.81746
G1 X113.037 Y99.799 E70.83509
G1 X97.569 Y84.333 E71.73767
G1 X96.412 Y83.346 E71.80043
G1 X95.154 Y82.574 E71.86133
G1 X93.774 Y82.004 E71.92294
G1 X92.344 Y81.66 E71.98363
G1 X90.844 Y81.541 E72.04572
G1 X67.003 Y81.54 E73.02948
G1 X66.432 Y81.475 E73.05319
G1 X65.924 Y81.3 E73.07536
G1 X65.48 Y81.032 E73.09676
G1 X65.064 Y80.639 E73.12038
G1 X64.748 Y80.169 E73.14375
G1 X64.546 Y79.64 E73.16711
G1 X64.463 Y79.052 E73.19162
G1 X64.459 Y78.987 E73.1943
G1 X64.46 Y52.003 E74.30775
G1 X64.525 Y51.432 E74.33147
G1 X64.7 Y50.924 E74.35364
G1 X64.968 Y50.48 E74.37504
M204 S3000
G0 F4200 X65.344 Y50.641
M204 S400
G1 F1800 X65.691 Y50.304 E74.395
G1 X66.1 Y50.057 E74.41471
G1 X66.555 Y49.905 E74.43451
G1 X67.015 Y49.856 E74.4536
G1 X144.829 Y49.856 E77.66446
G1 X144.97 Y49.914 E77.67075
G1 X145.086 Y50.03 E77.67752
G1 X145.144 Y50.171 E77.68381
G1 X145.144 Y99.829 E79.73287
G1 X145.086 Y99.97 E79.73916
G1 X144.97 Y100.086 E79.74593
G1 X144.829 Y100.144 E79.75222
G1 X114.818 Y100.143 E80.99058
G1 X114.401 Y100.099 E81.00788
G1 X113.997 Y99.976 E81.0253
G1 X113.617 Y99.766 E81.04322
G1 X113.317 Y99.519 E81.05925
G1 X97.829 Y84.033 E81.963
G1 X96.648 Y83.025 E82.02707
G1 X95.333 Y82.218 E82.09073
G1 X93.9 Y81.626 E82.15471
G1 X92.404 Y81.266 E82.2182
G1 X90.863 Y81.144 E82.28199
G1 X66.981 Y81.142 E83.26744
G1 X66.491 Y81.08 E83.28782
G1 X66.042 Y80.916 E83.30755
G1 X65.64 Y80.655 E83.32732
G1 X65.304 Y80.309 E83.34722
G1 X65.057 Y79.9 E83.36694
G1 X64.905 Y79.445 E83.38673
G1 X64.856 Y78.987 E83.40574
G1 X64.858 Y51.981 E84.5201
G1 X64.92 Y51.491 E84.54048
G1 X65.084 Y51.042 E84.5602
G1 X65.344 Y50.641 E84.57992
M204 S3000
G1 F3000 E79.57992
G0 F4200 X111.855 Y108.085
M204 S400
G1 F3000 E84.64229
G1 F1800 X112.36 Y107.748 E84.66734
G1 X112.69 Y107.572 E84.68277
G1 X113.248 Y107.344 E84.70764
G1 X113.614 Y107.236 E84.72339
G1 X114.168 Y107.128 E84.74668
G1 X114.837 Y107.077 E84.77437
G1 X144.829 Y107.077 E86.01194
G1 X145.315 Y107.117 E86.03206
G1 X145.788 Y107.236 E86.05218
G1 X146.235 Y107.43 E86.07229
G1 X146.645 Y107.695 E86.09243
G1 X147.051 Y108.065 E86.1151
G1 X147.366 Y108.437 E86.13522
G1 X147.617 Y108.856 E86.15537
G1 X147.796 Y109.309 E86.17547
G1 X147.898 Y109.786 E86.1956
G1 X147.923 Y110.171 E86.21152
G1 X147.923 Y159.829 E88.26057
G1 X147.883 Y160.315 E88.28069
G1 X147.764 Y160.788 E88.30082
G1 X147.57 Y161.235 E88.32093
G1 X147.305 Y161.645 E88.34107
G1 X146.935 Y162.051 E88.36374
G1 X146.563 Y162.366 E88.38385
G1 X146.144 Y162.617 E88.404
G1 X145.691 Y162.796 E88.4241
G1 X145.214 Y162.898 E88.44423
G1 X144.829 Y162.923 E88.46015
G1 X67.003 Y162.922 E91.67151
G1 X66.25 Y162.857 E91.7027
G1 X65.572 Y162.702 E91.7314
G1 X64.957 Y162.476 E91.75843
G1 X64.215 Y162.05 E91.79374
G1 X63.675 Y161.62 E91.82222
G1 X63.16 Y161.078 E91.85307
G1 X62.73 Y160.434 E91.88503
G1 X62.435 Y159.819 E91.91317
G1 X62.219 Y159.165 E91.94159
G1 X62.095 Y158.313 E91.97712
G1 X62.077 Y157.987 E91.99059
G1 X62.078 Y131.003 E93.10404
G1 X62.143 Y130.25 E93.13523
G1 X62.298 Y129.572 E93.16393
G1 X62.524 Y128.957 E93.19096
G1 X62.95 Y128.215 E93.22627
G1 X63.379 Y127.676 E93.25469
G1 X63.903 Y127.175 E93.28461
G1 X64.566 Y126.73 E93.31755
G1 X65.181 Y126.435 E93.3457
G1 X65.835 Y126.219 E93.37412
G1 X66.691 Y126.095 E93.40981
G1 X67.015 Y126.077 E93.4232
G1 X90.745 Y126.077 E94.40238
G1 X91.97 Y125.98 E94.45309
G1 X93.039 Y125.723 E94.49845
G1 X94.07 Y125.296 E94.5445
G1 X95.005 Y124.723 E94.58975
G1 X95.957 Y123.91 E94.64141
G1 X111.359 Y108.51 E95.54014
G1 X111.855 Y108.085 E95.56709
M204 S3000
G0 F4200 X112.106 Y108.392
M204 S400
G1 F1800 X112.546 Y108.099 E95.5889
G1 X112.876 Y107.923 E95.60433
G1 X113.361 Y107.725 E95.62595
G1 X114.207 Y107.523 E95.66184
G1 X114.837 Y107.474 E95.68791
G1 X144.829 Y107.474 E96.92549
G1 X145.281 Y107.514 E96.94421
G1 X145.719 Y107.632 E96.96293
G1 X146.13 Y107.826 E96.98168
G1 X146.654 Y108.23 E97.00898
G1 X147.062 Y108.694 E97.03448
G1 X147.288 Y109.088 E97.05322
G1 X147.441 Y109.515 E97.07194
G1 X147.526 Y110.171 E97.09923
G1 X147.526 Y159.829 E99.14829
G1 X147.486 Y160.281 E99.16701
G1 X147.368 Y160.719 E99.18573
G1 X147.174 Y161.13 E99.20448
G1 X146.77 Y161.654 E99.23178
G1 X146.306 Y162.062 E99.25728
G1 X145.912 Y162.288 E99.27602
G1 X145.485 Y162.441 E99.29474
G1 X144.829 Y162.526 E99.32203
G1 X67.003 Y162.525 E102.5334
G1 X66.294 Y162.462 E102.56277
G1 X65.704 Y162.328 E102.58773
G1 X65.118 Y162.114 E102.61347
G1 X64.426 Y161.714 E102.64646
G1 X63.956 Y161.339 E102.67127
G1 X63.47 Y160.83 E102.70031
G1 X63.066 Y160.223 E102.73039
G1 X62.809 Y159.687 E102.75492
G1 X62.604 Y159.069 E102.78179
G1 X62.49 Y158.269 E102.81513
G1 X62.474 Y157.987 E102.82679
G1 X62.475 Y131.003 E103.94024
G1 X62.538 Y130.294 E103.96961
G1 X62.672 Y129.704 E103.99457
G1 X62.886 Y129.118 E104.02032
G1 X63.286 Y128.426 E104.0533
G1 X63.66 Y127.957 E104.07805
G1 X64.153 Y127.483 E104.10627
G1 X64.777 Y127.066 E104.13724
G1 X65.313 Y126.809 E104.16177
G1 X65.931 Y126.604 E104.18863
G1 X66.734 Y126.489 E104.22211
G1 X67.015 Y126.474 E104.23372
G1 X90.764 Y126.474 E105.21368
G1 X92.031 Y126.374 E105.26613
G1 X93.163 Y126.101 E105.31417
G1 X94.249 Y125.652 E105.36267
