;FLAVOR:Marlin
;TIME:2839
;Filament used: 2.30857m
;Layer height: 0.2
;MINX:44.454
;MINY:95.954
;MINZ:0.25
;MAXX:165.546
;MAXY:129.046
;MAXZ:14.85
;Generated with Cura_SteamEngine 4.7.1
M140 S60
M105
M190 S60
M104 S200
M105
M109 S200
M82 ;absolute extrusion mode
; Script based on an original created by tjjfvi (https://github.com/tjjfvi)
; An up-to-date version of the tjjfvi's original script can be found
; here:  https://csi.t6.fyi/
; Note - This script will only work in Cura V4.2 and above!
; --- Global Settings
; layer_height = 0.2
; smooth_spiralized_contours = True
; magic_mesh_surface_mode = normal
; machine_extruder_count = 1
; --- Single Extruder Settings
; speed_z_hop = 10
; retraction_amount = 5
; retraction_hop = 0.075
; retraction_hop_enabled = True
; retraction_enable = True
; retraction_speed = 50
; retraction_retract_speed = 50
; retraction_prime_speed = 50
; speed_travel = 120

G21 ;metric values
G90 ;absolute positioning
M82 ;set extruder to absolute mode
M107 ;start with the fan off
G28 X0 Y0 ;move X/Y to min endstops
G28 Z0 ;move Z to min endstops
G1 Z15.0 F120 ;move the platform down 15mm
G92 E0 ;zero the extruded length
G1 F200 E3 ;extrude 3mm of feed stock
G92 E0 ;zero the extruded length again
G1 F120
G0 Y20 F120
M117 Printing...
G5
G92 E0
G92 E0
G1 F3000 E-5
;LAYER_COUNT:74
;LAYER:0
M106 S51
M204 S3000
M205 X10 Y10
G1 F600 Z0.325
G0 F4200 X46.294 Y96.426 Z0.325
M204 S500
;TYPE:SKIRT
G1 F600 Z0.25
G1 F3000 E0.06236
G1 F1800 X46.78 Y96.198 E0.08451
G1 X47.293 Y96.045 E0.1066
G1 X47.958 Y95.964 E0.13425
G1 X48.38 Y95.954 E0.15166
G1 X161.295 Y95.954 E4.81092
G1 X161.993 Y95.964 E4.83972
G1 X162.526 Y96.012 E4.8618
G1 X163.047 Y96.138 E4.88392
G1 X163.544 Y96.341 E4.90607
G1 X164.004 Y96.615 E4.92817
G1 X164.419 Y96.954 E4.95028
G1 X164.779 Y97.351 E4.97239
G1 X165.076 Y97.798 E4.99454
G1 X165.303 Y98.283 E5.01663
G1 X165.455 Y98.797 E5.03875
G1 X165.536 Y99.459 E5.06627
G1 X165.546 Y99.88 E5.08365
G1 X165.546 Y108.774 E5.45064
G1 X165.518 Y110.764 E5.53277
G1 X165.503 Y111.326 E5.55596
G1 X165.535 Y115.462 E5.72663
G1 X165.546 Y115.879 E5.74385
G1 X165.546 Y124.759 E6.11027
G1 X165.537 Y125.486 E6.14027
G1 X165.49 Y126.019 E6.16235
G1 X165.365 Y126.541 E6.18449
G1 X165.163 Y127.037 E6.20659
G1 X164.89 Y127.498 E6.2287
G1 X164.552 Y127.914 E6.25082
G1 X164.155 Y128.275 E6.27296
G1 X163.709 Y128.572 E6.29507
G1 X163.224 Y128.8 E6.31718
G1 X162.711 Y128.954 E6.33929
G1 X162.042 Y129.036 E6.3671
G1 X161.62 Y129.046 E6.38451
G1 X48.711 Y129.046 E11.04352
G1 X48.013 Y129.037 E11.07232
G1 X47.479 Y128.99 E11.09444
G1 X46.958 Y128.864 E11.11656
G1 X46.461 Y128.662 E11.1387
G1 X46 Y128.389 E11.16081
G1 X45.585 Y128.05 E11.18292
G1 X45.224 Y127.654 E11.20503
G1 X44.927 Y127.208 E11.22714
G1 X44.699 Y126.723 E11.24925
G1 X44.546 Y126.209 E11.27138
G1 X44.464 Y125.538 E11.29928
G1 X44.454 Y125.108 E11.31702
G1 X44.454 Y116.206 E11.68435
G1 X44.482 Y114.236 E11.76565
G1 X44.497 Y113.674 E11.78885
G1 X44.465 Y109.526 E11.96001
G1 X44.454 Y109.121 E11.97673
G1 X44.454 Y100.175 E12.34587
G1 X44.463 Y99.51 E12.37331
G1 X44.511 Y98.976 E12.39544
G1 X44.637 Y98.455 E12.41755
G1 X44.839 Y97.959 E12.43965
G1 X45.112 Y97.498 E12.46176
G1 X45.451 Y97.083 E12.48387
G1 X45.848 Y96.723 E12.50599
G1 X46.294 Y96.426 E12.5281
M204 S3000
G0 F4200 X46.668 Y96.678
M204 S500
G1 F1800 X47.139 Y96.495 E12.54895
G1 X47.633 Y96.389 E12.5698
G1 X48.29 Y96.352 E12.59695
G1 X161.289 Y96.351 E17.25967
G1 X161.987 Y96.361 E17.28847
G1 X162.49 Y96.408 E17.30932
G1 X162.98 Y96.534 E17.33019
G1 X163.443 Y96.736 E17.35104
G1 X163.869 Y97.008 E17.37189
G1 X164.247 Y97.343 E17.39273
G1 X164.568 Y97.734 E17.41361
G1 X164.823 Y98.171 E17.43449
G1 X165.005 Y98.642 E17.45532
G1 X165.112 Y99.136 E17.47618
G1 X165.148 Y99.79 E17.50321
G1 X165.149 Y108.768 E17.87367
G1 X165.121 Y110.753 E17.95558
G1 X165.105 Y111.318 E17.97891
G1 X165.137 Y115.409 E18.14772
G1 X165.149 Y115.879 E18.16712
G1 X165.149 Y124.754 E18.53333
G1 X165.14 Y125.481 E18.56333
G1 X165.094 Y125.984 E18.58418
G1 X164.969 Y126.474 E18.60504
G1 X164.768 Y126.938 E18.62591
G1 X164.497 Y127.364 E18.64674
G1 X164.162 Y127.743 E18.66761
G1 X163.772 Y128.064 E18.68846
G1 X163.336 Y128.32 E18.70932
G1 X162.865 Y128.504 E18.73019
G1 X162.371 Y128.611 E18.75104
G1 X161.71 Y128.648 E18.77836
G1 X48.716 Y128.649 E23.44087
G1 X48.018 Y128.64 E23.46968
G1 X47.514 Y128.593 E23.49056
G1 X47.025 Y128.468 E23.51139
G1 X46.561 Y128.267 E23.53225
G1 X46.134 Y127.996 E23.55312
G1 X45.756 Y127.661 E23.57396
G1 X45.435 Y127.271 E23.59481
G1 X45.179 Y126.834 E23.61571
G1 X44.996 Y126.363 E23.63656
G1 X44.889 Y125.869 E23.65741
G1 X44.852 Y125.194 E23.68531
G1 X44.851 Y116.212 E24.05593
G1 X44.879 Y114.247 E24.13703
G1 X44.895 Y113.682 E24.16035
G1 X44.863 Y109.591 E24.32916
G1 X44.851 Y109.121 E24.34856
G1 X44.851 Y100.181 E24.71746
G1 X44.86 Y99.516 E24.7449
G1 X44.907 Y99.012 E24.76579
G1 X45.032 Y98.523 E24.78661
G1 X45.234 Y98.059 E24.80749
G1 X45.505 Y97.633 E24.82833
G1 X45.84 Y97.254 E24.8492
G1 X46.231 Y96.934 E24.87005
G1 X46.668 Y96.678 E24.89095
M204 S3000
G1 F3000 E19.89095
;MESH:bottom-plate-new.stl
G0 F4200 X156.872 Y123.207
M204 S500
;TYPE:WALL-INNER
G1 F3000 E24.95331
G1 F1080 X157.312 Y123.428 E24.97363
G1 X157.793 Y123.536 E24.99397
G1 X158.287 Y123.526 E25.01436
G1 X158.764 Y123.4 E25.03472
G1 X159.199 Y123.16 E25.05522
G1 X159.56 Y122.823 E25.07559
G1 X159.831 Y122.413 E25.09587
G1 X159.995 Y121.95 E25.11614
G1 X160.046 Y121.461 E25.13643
G1 X159.979 Y120.971 E25.15684
G1 X159.792 Y120.51 E25.17736
G1 X159.505 Y120.112 E25.19761
G1 X159.128 Y119.793 E25.21799
G1 X158.688 Y119.572 E25.23831
G1 X158.207 Y119.464 E25.25865
G1 X157.713 Y119.474 E25.27904
G1 X157.236 Y119.6 E25.29939
G1 X156.801 Y119.84 E25.31989
G1 X156.44 Y120.177 E25.34027
G1 X156.169 Y120.587 E25.36055
G1 X156.005 Y121.05 E25.38082
G1 X155.954 Y121.539 E25.40111
G1 X156.021 Y122.029 E25.42151
G1 X156.208 Y122.49 E25.44204
G1 X156.495 Y122.888 E25.46229
G1 X156.872 Y123.207 E25.48267
M204 S3000
G0 F4200 X157.092 Y122.873
M204 S500
G1 F1080 X157.447 Y123.051 E25.49905
G1 X157.833 Y123.138 E25.51538
G1 X158.232 Y123.13 E25.53185
G1 X158.615 Y123.029 E25.54819
G1 X158.964 Y122.836 E25.56465
G1 X159.255 Y122.565 E25.58106
G1 X159.473 Y122.235 E25.59738
G1 X159.605 Y121.862 E25.6137
G1 X159.646 Y121.468 E25.63005
G1 X159.592 Y121.074 E25.64646
G1 X159.442 Y120.704 E25.66293
G1 X159.211 Y120.384 E25.67922
G1 X158.908 Y120.127 E25.69561
G1 X158.553 Y119.949 E25.712
G1 X158.167 Y119.862 E25.72833
G1 X157.768 Y119.87 E25.74479
G1 X157.385 Y119.971 E25.76114
G1 X157.036 Y120.164 E25.7776
G1 X156.745 Y120.435 E25.794
G1 X156.527 Y120.765 E25.81032
G1 X156.395 Y121.138 E25.82665
G1 X156.354 Y121.532 E25.843
G1 X156.408 Y121.926 E25.85941
G1 X156.558 Y122.296 E25.87588
G1 X156.789 Y122.616 E25.89216
G1 X157.092 Y122.873 E25.90856
M204 S3000
G0 F4200 X157.309 Y122.545
M204 S500
;TYPE:WALL-OUTER
G1 F1080 X157.579 Y122.68 E25.92102
G1 X157.873 Y122.746 E25.93345
G1 X158.177 Y122.74 E25.946
G1 X158.468 Y122.663 E25.95842
G1 X158.733 Y122.517 E25.9709
G1 X158.954 Y122.311 E25.98337
G1 X159.12 Y122.059 E25.99582
G1 X159.221 Y121.775 E26.00826
G1 X159.252 Y121.475 E26.0207
G1 X159.211 Y121.176 E26.03315
G1 X159.097 Y120.895 E26.04567
G1 X158.921 Y120.651 E26.05808
G1 X158.691 Y120.455 E26.07055
G1 X158.421 Y120.32 E26.08301
G1 X158.127 Y120.254 E26.09544
G1 X157.823 Y120.26 E26.10799
G1 X157.532 Y120.337 E26.12041
G1 X157.267 Y120.483 E26.13289
G1 X157.046 Y120.689 E26.14536
G1 X156.88 Y120.941 E26.15781
G1 X156.779 Y121.225 E26.17025
G1 X156.748 Y121.525 E26.18269
G1 X156.789 Y121.824 E26.19515
G1 X156.903 Y122.105 E26.20766
G1 X157.079 Y122.349 E26.22007
G1 X157.309 Y122.545 E26.23254
M204 S3000
G0 F4200 X157.488 Y122.634
G0 X157.292 Y123.025
G1 F3000 E21.23254
G0 F4200 X53.199 Y123.16
M204 S500
;TYPE:WALL-INNER
G1 F3000 E26.29491
G1 F1080 X53.56 Y122.823 E26.31528
G1 X53.831 Y122.413 E26.33556
G1 X53.995 Y121.95 E26.35583
G1 X54.046 Y121.461 E26.37612
G1 X53.979 Y120.971 E26.39653
G1 X53.792 Y120.51 E26.41705
G1 X53.505 Y120.112 E26.4373
G1 X53.128 Y119.793 E26.45768
G1 X52.688 Y119.572 E26.478
G1 X52.207 Y119.464 E26.49834
G1 X51.713 Y119.474 E26.51873
G1 X51.236 Y119.6 E26.53908
G1 X50.801 Y119.84 E26.55958
G1 X50.44 Y120.177 E26.57996
G1 X50.169 Y120.587 E26.60024
G1 X50.005 Y121.05 E26.62051
G1 X49.954 Y121.539 E26.6408
G1 X50.021 Y122.029 E26.6612
G1 X50.208 Y122.49 E26.68173
G1 X50.495 Y122.888 E26.70198
G1 X50.872 Y123.207 E26.72236
G1 X51.312 Y123.428 E26.74268
G1 X51.793 Y123.536 E26.76302
G1 X52.287 Y123.526 E26.78341
G1 X52.764 Y123.4 E26.80376
G1 X53.199 Y123.16 E26.82426
M204 S3000
G0 F4200 X52.964 Y122.836
M204 S500
G1 F1080 X53.255 Y122.565 E26.84067
G1 X53.473 Y122.235 E26.85699
G1 X53.605 Y121.862 E26.87332
G1 X53.646 Y121.468 E26.88966
G1 X53.592 Y121.074 E26.90607
G1 X53.442 Y120.704 E26.92255
G1 X53.211 Y120.384 E26.93883
G1 X52.908 Y120.127 E26.95523
G1 X52.553 Y119.949 E26.97161
G1 X52.167 Y119.862 E26.98794
G1 X51.768 Y119.87 E27.00441
G1 X51.385 Y119.971 E27.02075
G1 X51.036 Y120.164 E27.03721
G1 X50.745 Y120.435 E27.05362
G1 X50.527 Y120.765 E27.06994
G1 X50.395 Y121.138 E27.08626
G1 X50.354 Y121.532 E27.10261
G1 X50.408 Y121.926 E27.11902
G1 X50.558 Y122.296 E27.13549
G1 X50.789 Y122.616 E27.15178
G1 X51.092 Y122.873 E27.16817
G1 X51.447 Y123.051 E27.18456
G1 X51.833 Y123.138 E27.20089
G1 X52.232 Y123.13 E27.21735
G1 X52.615 Y123.029 E27.2337
G1 X52.964 Y122.836 E27.25015
M204 S3000
G0 F4200 X52.733 Y122.517
M204 S500
;TYPE:WALL-OUTER
G1 F1080 X52.954 Y122.311 E27.26262
G1 X53.12 Y122.059 E27.27507
G1 X53.221 Y121.775 E27.28751
G1 X53.252 Y121.475 E27.29996
G1 X53.211 Y121.176 E27.31241
G1 X53.097 Y120.895 E27.32492
G1 X52.921 Y120.651 E27.33734
G1 X52.691 Y120.455 E27.3498
G1 X52.421 Y120.32 E27.36226
G1 X52.127 Y120.254 E27.37469
G1 X51.823 Y120.26 E27.38724
G1 X51.532 Y120.337 E27.39966
G1 X51.267 Y120.483 E27.41215
G1 X51.046 Y120.689 E27.42461
G1 X50.88 Y120.941 E27.43706
G1 X50.779 Y121.225 E27.4495
G1 X50.748 Y121.525 E27.46195
G1 X50.789 Y121.824 E27.4744
G1 X50.903 Y122.105 E27.48691
G1 X51.079 Y122.349 E27.49933
G1 X51.309 Y122.545 E27.5118
G1 X51.579 Y122.68 E27.52425
G1 X51.873 Y122.746 E27.53669
G1 X52.177 Y122.74 E27.54923
G1 X52.468 Y122.663 E27.56165
G1 X52.733 Y122.517 E27.57414
M204 S3000
G0 F4200 X52.879 Y122.381
G0 X53.175 Y122.7
G1 F3000 E22.57414
G0 F4200 X104.793 Y123.536
M204 S500
;TYPE:WALL-INNER
G1 F3000 E27.6365
G1 F1080 X105.287 Y123.526 E27.65689
G1 X105.764 Y123.4 E27.67725
G1 X106.199 Y123.16 E27.69775
G1 X106.56 Y122.823 E27.71813
G1 X106.831 Y122.413 E27.7384
G1 X106.995 Y121.95 E27.75867
G1 X107.046 Y121.461 E27.77896
G1 X106.979 Y120.971 E27.79937
G1 X106.792 Y120.51 E27.8199
G1 X106.505 Y120.112 E27.84014
G1 X106.128 Y119.793 E27.86052
G1 X105.688 Y119.572 E27.88084
G1 X105.207 Y119.464 E27.90118
G1 X104.713 Y119.474 E27.92157
G1 X104.236 Y119.6 E27.94193
G1 X103.801 Y119.84 E27.96243
G1 X103.44 Y120.177 E27.9828
G1 X103.169 Y120.587 E28.00308
G1 X103.005 Y121.05 E28.02335
G1 X102.954 Y121.539 E28.04364
G1 X103.021 Y122.029 E28.06405
G1 X103.208 Y122.49 E28.08457
G1 X103.495 Y122.888 E28.10482
G1 X103.872 Y123.207 E28.1252
G1 X104.312 Y123.428 E28.14552
G1 X104.793 Y123.536 E28.16586
M204 S3000
G0 F4200 X104.833 Y123.138
M204 S500
G1 F1080 X105.232 Y123.13 E28.18233
G1 X105.615 Y123.029 E28.19867
G1 X105.964 Y122.836 E28.21513
G1 X106.255 Y122.565 E28.23153
G1 X106.473 Y122.235 E28.24785
G1 X106.605 Y121.862 E28.26418
G1 X106.646 Y121.468 E28.28053
G1 X106.592 Y121.074 E28.29694
G1 X106.442 Y120.704 E28.31341
G1 X106.211 Y120.384 E28.3297
G1 X105.908 Y120.127 E28.34609
G1 X105.553 Y119.949 E28.36248
G1 X105.167 Y119.862 E28.3788
G1 X104.768 Y119.87 E28.39527
G1 X104.385 Y119.971 E28.41162
G1 X104.036 Y120.164 E28.42807
G1 X103.745 Y120.435 E28.44448
G1 X103.527 Y120.765 E28.4608
G1 X103.395 Y121.138 E28.47713
G1 X103.354 Y121.532 E28.49347
G1 X103.408 Y121.926 E28.50988
G1 X103.558 Y122.296 E28.52636
G1 X103.789 Y122.616 E28.54264
G1 X104.092 Y122.873 E28.55904
G1 X104.447 Y123.051 E28.57542
G1 X104.833 Y123.138 E28.59175
M204 S3000
G0 F4200 X104.873 Y122.746
M204 S500
;TYPE:WALL-OUTER
G1 F1080 X105.177 Y122.74 E28.6043
G1 X105.468 Y122.663 E28.61672
G1 X105.733 Y122.517 E28.6292
G1 X105.954 Y122.311 E28.64167
G1 X106.12 Y122.059 E28.65412
G1 X106.221 Y121.775 E28.66656
G1 X106.252 Y121.475 E28.679
G1 X106.211 Y121.176 E28.69146
G1 X106.097 Y120.895 E28.70397
G1 X105.921 Y120.651 E28.71638
G1 X105.691 Y120.455 E28.72885
G1 X105.421 Y120.32 E28.74131
G1 X105.127 Y120.254 E28.75374
G1 X104.823 Y120.26 E28.76629
G1 X104.532 Y120.337 E28.77871
G1 X104.267 Y120.483 E28.79119
G1 X104.046 Y120.689 E28.80366
G1 X103.88 Y120.941 E28.81611
G1 X103.779 Y121.225 E28.82855
G1 X103.748 Y121.525 E28.84099
G1 X103.789 Y121.824 E28.85345
G1 X103.903 Y122.105 E28.86596
G1 X104.079 Y122.349 E28.87837
G1 X104.309 Y122.545 E28.89084
G1 X104.579 Y122.68 E28.9033
G1 X104.873 Y122.746 E28.91573
M204 S3000
G0 F4200 X105.073 Y122.743
G0 X105.08 Y123.179
G1 F3000 E23.91573
G0 F4200 X97.041 Y123.541
M204 S500
;TYPE:WALL-INNER
G1 F3000 E28.9781
G1 F1080 X97.041 Y116.541 E29.26694
G1 X112.959 Y116.541 E29.92377
G1 X112.959 Y123.541 E30.21261
G1 X144.999 Y123.541 E31.53469
G1 X145.081 Y121.552 E31.61683
G1 X144.705 Y121.519 E31.63241
G1 X142.395 Y121.31 E31.72812
G1 X140.829 Y120.876 E31.79517
G1 X139.371 Y120.168 E31.86205
G1 X138.069 Y119.211 E31.92873
G1 X136.958 Y118.034 E31.99551
G1 X136.209 Y116.88 E32.05228
G1 X136.085 Y116.688 E32.06171
G1 X136.062 Y116.638 E32.06398
G1 X136.021 Y116.541 E32.06833
G1 X136.062 Y116.541
G1 X136.085 Y116.541
G1 X136.314 Y116.541 E32.07518
G1 X160.959 Y116.541 E33.09211
G1 X160.959 Y124.459 E33.41884
G1 X49.041 Y124.459 E38.03695
G1 X49.041 Y116.541 E38.36367
G1 X73.681 Y116.541 E39.3804
G1 X73.926 Y116.541 E39.39051
G1 X73.98 Y116.541 E39.39274
G1 X73.926 Y116.67 E39.39559
G1 X73.793 Y116.875 E39.40268
G1 X73.042 Y118.033 E39.45963
G1 X71.929 Y119.212 E39.52653
G1 X70.63 Y120.167 E39.59306
G1 X69.172 Y120.875 E39.65994
G1 X67.602 Y121.31 E39.72716
G1 X64.898 Y121.556 E39.8392
G1 X65.022 Y123.541 E39.92127
G1 X97.041 Y123.541 E41.24248
M204 S3000
G0 F4200 X96.644 Y123.144
M204 S500
G1 F1080 X96.644 Y116.144 E41.53132
G1 X113.356 Y116.144 E42.22092
G1 X113.356 Y123.144 E42.50976
G1 X144.618 Y123.144 E43.79973
G1 X144.669 Y121.913 E43.85057
G1 X142.347 Y121.704 E43.94677
G1 X142.314 Y121.7 E43.94815
G1 X140.692 Y121.25 E44.0176
G1 X139.164 Y120.508 E44.08769
G1 X137.822 Y119.522 E44.15641
G1 X137.802 Y119.506 E44.15747
G1 X136.645 Y118.28 E44.22703
G1 X135.738 Y116.883 E44.29575
G1 X135.696 Y116.792 E44.29989
G1 X135.54 Y116.418 E44.31661
G1 X135.426 Y116.144 E44.32886
G1 X135.722 Y116.144 E44.33599
G1 X135.723 Y116.144 E44.33603
G1 X161.356 Y116.144 E45.39373
G1 X161.356 Y124.856 E45.75322
G1 X48.644 Y124.856 E50.40409
G1 X48.644 Y116.144 E50.76358
G1 X74.278 Y116.144 E51.82132
G1 X74.279 Y116.144 E51.82136
G1 X74.574 Y116.144 E51.83354
G1 X74.461 Y116.417 E51.84067
G1 X74.28 Y116.854 E51.86018
G1 X73.356 Y118.279 E51.93026
G1 X72.199 Y119.505 E51.99982
G1 X72.178 Y119.522 E52.00094
G1 X70.837 Y120.507 E52.06959
G1 X69.309 Y121.249 E52.13969
G1 X67.689 Y121.699 E52.20906
G1 X67.654 Y121.704 E52.21052
G1 X65.318 Y121.916 E52.30731
G1 X65.395 Y123.144 E52.35808
G1 X96.644 Y123.144 E53.64752
M204 S3000
G0 F4200 X96.253 Y122.753
M204 S500
;TYPE:WALL-OUTER
G1 F1080 X96.253 Y115.753 E53.93636
G1 X113.747 Y115.753 E54.65822
G1 X113.747 Y122.753 E54.94707
G1 X144.243 Y122.753 E56.20543
G1 X144.263 Y122.269 E56.22542
G1 X142.304 Y122.093 E56.30658
G1 X142.241 Y122.086 E56.3092
G1 X140.617 Y121.636 E56.37874
G1 X140.544 Y121.613 E56.38189
G1 X139.004 Y120.865 E56.45254
G1 X138.955 Y120.839 E56.45483
G1 X137.577 Y119.827 E56.52538
G1 X137.535 Y119.793 E56.52761
G1 X136.374 Y118.564 E56.59737
G1 X136.327 Y118.508 E56.60038
G1 X135.398 Y117.077 E56.67078
G1 X135.335 Y116.942 E56.67693
G1 X134.954 Y116.027 E56.71783
G1 X134.84 Y115.753 E56.73008
