;FLAVOR:Marlin
;TIME:499
;Filament used: 0.393872m
;Layer height: 0.2
;MINX:91.454
;MINY:91.454
;MINZ:0.25
;MAXX:118.546
;MAXY:118.546
;MAXZ:12.25
;Generated with Cura_SteamEngine 4.7.1
M140 S60
M105
M190 S60
M104 S200
M105
M109 S200
M82 ;absolute extrusion mode
; Script based on an original created by tjjfvi (https://github.com/tjjfvi)
; An up-to-date version of the tjjfvi's original script can be found
; here:  https://csi.t6.fyi/
; Note - This script will only work in Cura V4.2 and above!
; --- Global Settings
; layer_height = 0.2
; smooth_spiralized_contours = True
; magic_mesh_surface_mode = normal
; machine_extruder_count = 1
; --- Single Extruder Settings
; speed_z_hop = 10
; retraction_amount = 5
; retraction_hop = 0.075
; retraction_hop_enabled = True
; retraction_enable = True
; retraction_speed = 50
; retraction_retract_speed = 50
; retraction_prime_speed = 50
; speed_travel = 120

G21 ;metric values
G90 ;absolute positioning
M82 ;set extruder to absolute mode
M107 ;start with the fan off
G28 X0 Y0 ;move X/Y to min endstops
G28 Z0 ;move Z to min endstops
G1 Z15.0 F120 ;move the platform down 15mm
G92 E0 ;zero the extruded length
G1 F200 E3 ;extrude 3mm of feed stock
G92 E0 ;zero the extruded length again
G1 F120
G0 Y20 F120
M117 Printing...
G5
G92 E0
G92 E0
G1 F3000 E-5
;LAYER_COUNT:61
;LAYER:0
M106 S51
M204 S3000
M205 X10 Y10
G1 F600 Z0.325
G0 F4200 X93.725 Y94.227 Z0.325
M204 S500
;TYPE:SKIRT
G1 F600 Z0.25
G1 F3000 E0.06236
G1 F1800 X94.261 Y93.694 E0.09355
G1 X94.954 Y93.122 E0.13063
G1 X95.324 Y92.869 E0.14913
G1 X95.936 Y92.505 E0.17851
G1 X96.731 Y92.12 E0.21496
G1 X97.279 Y91.911 E0.23916
G1 X98.078 Y91.689 E0.27338
G1 X98.688 Y91.571 E0.29901
G1 X99.21 Y91.501 E0.32075
G1 X99.516 Y91.479 E0.33341
G1 X100.072 Y91.459 E0.35636
G1 X100.494 Y91.454 E0.37378
G1 X109.339 Y91.454 E0.73875
G1 X109.833 Y91.463 E0.75914
G1 X110.764 Y91.509 E0.7976
G1 X111.217 Y91.561 E0.81642
G1 X111.79 Y91.663 E0.84043
G1 X112.21 Y91.764 E0.85826
G1 X112.803 Y91.946 E0.88385
G1 X113.684 Y92.306 E0.92312
G1 X114.08 Y92.513 E0.94156
G1 X114.716 Y92.897 E0.97222
G1 X115.441 Y93.431 E1.00937
G1 X115.775 Y93.727 E1.02779
G1 X116.306 Y94.261 E1.05886
G1 X116.884 Y94.963 E1.09639
G1 X117.133 Y95.329 E1.11465
G1 X117.517 Y95.975 E1.14566
G1 X117.895 Y96.768 E1.18191
G1 X118.11 Y97.355 E1.20771
G1 X118.308 Y98.065 E1.23812
G1 X118.438 Y98.749 E1.26685
G1 X118.521 Y99.516 E1.29868
G1 X118.543 Y100.178 E1.32602
G1 X118.546 Y100.421 E1.33604
G1 X118.546 Y109.318 E1.70316
G1 X118.537 Y109.832 E1.72438
G1 X118.491 Y110.764 E1.76288
G1 X118.439 Y111.217 E1.7817
G1 X118.337 Y111.79 E1.80571
G1 X118.236 Y112.21 E1.82354
G1 X118.084 Y112.708 E1.84502
G1 X117.886 Y113.253 E1.86895
G1 X117.489 Y114.077 E1.90669
G1 X117.107 Y114.711 E1.93723
G1 X116.568 Y115.442 E1.97471
G1 X116.277 Y115.77 E1.9928
G1 X115.742 Y116.303 E2.02396
G1 X115.047 Y116.877 E2.06116
G1 X114.68 Y117.128 E2.0795
G1 X114.067 Y117.493 E2.10894
G1 X113.618 Y117.726 E2.12982
G1 X113.029 Y117.979 E2.15627
G1 X112.492 Y118.159 E2.17964
G1 X111.922 Y118.311 E2.20398
G1 X111.312 Y118.429 E2.22962
G1 X110.79 Y118.499 E2.25135
G1 X110.484 Y118.521 E2.26401
G1 X109.928 Y118.541 E2.28697
G1 X109.506 Y118.546 E2.30438
G1 X100.661 Y118.546 E2.66935
G1 X100.168 Y118.537 E2.6897
G1 X99.236 Y118.491 E2.7282
G1 X98.783 Y118.439 E2.74702
G1 X98.21 Y118.337 E2.77104
G1 X97.79 Y118.236 E2.78886
G1 X97.292 Y118.084 E2.81034
G1 X96.748 Y117.885 E2.83425
G1 X95.903 Y117.478 E2.87295
G1 X95.242 Y117.078 E2.90483
G1 X94.556 Y116.566 E2.94015
G1 X94.224 Y116.272 E2.95845
G1 X93.692 Y115.737 E2.98958
G1 X93.12 Y115.044 E3.02666
G1 X92.865 Y114.67 E3.04534
G1 X92.478 Y114.017 E3.07666
G1 X92.096 Y113.211 E3.11346
G1 X91.911 Y112.721 E3.13508
G1 X91.691 Y111.935 E3.16876
G1 X91.565 Y111.275 E3.19648
G1 X91.499 Y110.743 E3.2186
G1 X91.478 Y110.462 E3.23023
G1 X91.457 Y109.814 E3.25698
G1 X91.454 Y109.506 E3.26969
G1 X91.454 Y100.622 E3.63627
G1 X91.464 Y100.145 E3.65596
G1 X91.508 Y99.246 E3.6931
G1 X91.559 Y98.798 E3.71171
G1 X91.663 Y98.208 E3.73643
G1 X91.913 Y97.3 E3.77529
G1 X92.114 Y96.747 E3.79957
G1 X92.513 Y95.92 E3.83746
G1 X92.897 Y95.284 E3.86811
G1 X93.427 Y94.563 E3.90504
G1 X93.725 Y94.227 E3.92357
M204 S3000
G0 F4200 X94.005 Y94.509
M204 S500
G1 F1800 X94.541 Y93.976 E3.95476
G1 X95.198 Y93.435 E3.98988
G1 X95.527 Y93.211 E4.0063
G1 X96.22 Y92.8 E4.03955
G1 X96.891 Y92.483 E4.07017
G1 X97.395 Y92.291 E4.09243
G1 X98.178 Y92.073 E4.12596
G1 X98.756 Y91.962 E4.15025
G1 X99.373 Y91.886 E4.1759
G1 X99.53 Y91.876 E4.18239
G1 X100.172 Y91.854 E4.2089
G1 X100.498 Y91.851 E4.22235
G1 X109.334 Y91.851 E4.58695
G1 X109.814 Y91.86 E4.60676
G1 X110.745 Y91.906 E4.64523
G1 X111.148 Y91.952 E4.66196
G1 X111.721 Y92.054 E4.68598
G1 X112.094 Y92.143 E4.7018
G1 X112.592 Y92.295 E4.72329
G1 X113.093 Y92.478 E4.7453
G1 X113.874 Y92.852 E4.78103
G1 X114.51 Y93.236 E4.81168
G1 X115.197 Y93.744 E4.84694
G1 X115.493 Y94.007 E4.86328
G1 X116.024 Y94.541 E4.89435
G1 X116.57 Y95.206 E4.92986
G1 X116.792 Y95.531 E4.9461
G1 X117.176 Y96.177 E4.97711
G1 X117.531 Y96.927 E5.01135
G1 X117.735 Y97.485 E5.03586
G1 X117.924 Y98.166 E5.06503
G1 X118.047 Y98.815 E5.09228
G1 X118.124 Y99.53 E5.12196
G1 X118.146 Y100.183 E5.14892
G1 X118.149 Y100.426 E5.15894
G1 X118.149 Y109.313 E5.52565
G1 X118.14 Y109.813 E5.54629
G1 X118.094 Y110.745 E5.58479
G1 X118.048 Y111.148 E5.60153
G1 X117.946 Y111.721 E5.62554
G1 X117.857 Y112.094 E5.64137
G1 X117.68 Y112.67 E5.66623
G1 X117.331 Y113.523 E5.70426
G1 X117.149 Y113.872 E5.7205
G1 X116.767 Y114.506 E5.75105
G1 X116.256 Y115.197 E5.78651
G1 X115.997 Y115.488 E5.80258
G1 X115.462 Y116.021 E5.83374
G1 X114.804 Y116.564 E5.86895
G1 X114.477 Y116.787 E5.88528
G1 X113.864 Y117.152 E5.91472
G1 X113.106 Y117.518 E5.94945
G1 X112.605 Y117.709 E5.97158
G1 X111.822 Y117.927 E6.00511
G1 X111.244 Y118.038 E6.0294
G1 X110.627 Y118.114 E6.05505
G1 X110.47 Y118.124 E6.06154
G1 X109.828 Y118.146 E6.08805
G1 X109.502 Y118.149 E6.1015
G1 X100.666 Y118.149 E6.46611
G1 X100.187 Y118.14 E6.48587
G1 X99.255 Y118.094 E6.52438
G1 X98.852 Y118.048 E6.54112
G1 X98.279 Y117.946 E6.56513
G1 X97.906 Y117.857 E6.58095
G1 X97.33 Y117.68 E6.60582
G1 X96.454 Y117.319 E6.64491
G1 X96.108 Y117.138 E6.66103
G1 X95.531 Y116.79 E6.68883
G1 X94.801 Y116.254 E6.7262
G1 X94.506 Y115.992 E6.74248
G1 X93.974 Y115.457 E6.77361
G1 X93.433 Y114.801 E6.8087
G1 X93.207 Y114.468 E6.82531
G1 X92.82 Y113.815 E6.85663
G1 X92.46 Y113.051 E6.89148
G1 X92.218 Y112.37 E6.9213
G1 X92.075 Y111.834 E6.94419
G1 X91.956 Y111.208 E6.97048
G1 X91.893 Y110.699 E6.99165
G1 X91.875 Y110.448 E7.00203
G1 X91.854 Y109.81 E7.02837
G1 X91.851 Y109.502 E7.04108
G1 X91.851 Y100.629 E7.40721
G1 X91.861 Y100.165 E7.42636
G1 X91.905 Y99.266 E7.4635
G1 X91.95 Y98.867 E7.48007
G1 X92.054 Y98.277 E7.50479
G1 X92.292 Y97.417 E7.54161
G1 X92.477 Y96.908 E7.56396
G1 X92.852 Y96.126 E7.59974
G1 X93.236 Y95.49 E7.6304
G1 X93.74 Y94.807 E7.66543
G1 X94.005 Y94.509 E7.68188
M204 S3000
G1 F3000 E2.68188
;MESH:Cabel_Holder.stl
G0 F4200 X99.38 Y114.311
M204 S500
;TYPE:WALL-INNER
G1 F3000 E7.74424
G1 F1080 X98.954 Y114.227 E7.76216
G1 X98.343 Y114.026 E7.7887
G1 X97.953 Y113.844 E7.80646
G1 X97.428 Y113.514 E7.83205
G1 X97.077 Y113.228 E7.85073
G1 X96.648 Y112.778 E7.87639
G1 X96.374 Y112.412 E7.89525
G1 X96.075 Y111.886 E7.92022
G1 X95.901 Y111.471 E7.93879
G1 X95.733 Y110.865 E7.96473
G1 X95.666 Y110.434 E7.98273
G1 X95.644 Y109.981 E8.00145
G1 X95.644 Y100.03 E8.41206
G1 X95.689 Y99.373 E8.43923
G1 X95.772 Y98.959 E8.45665
G1 X95.975 Y98.339 E8.48357
G1 X96.153 Y97.957 E8.50096
G1 X96.486 Y97.428 E8.52676
G1 X96.772 Y97.077 E8.54544
G1 X97.222 Y96.648 E8.57109
G1 X97.58 Y96.38 E8.58955
G1 X98.125 Y96.07 E8.61542
G1 X98.521 Y95.904 E8.63314
G1 X99.133 Y95.734 E8.65935
G1 X99.566 Y95.666 E8.67743
G1 X100.031 Y95.644 E8.69664
G1 X109.97 Y95.644 E9.10676
G1 X110.62 Y95.689 E9.13364
G1 X111.046 Y95.773 E9.15156
G1 X111.661 Y95.975 E9.17827
G1 X112.043 Y96.153 E9.19566
G1 X112.57 Y96.485 E9.22136
G1 X112.923 Y96.772 E9.24013
G1 X113.352 Y97.222 E9.26579
G1 X113.626 Y97.588 E9.28465
G1 X113.922 Y98.108 E9.30934
G1 X114.098 Y98.528 E9.32813
G1 X114.266 Y99.133 E9.35404
G1 X114.334 Y99.566 E9.37213
G1 X114.356 Y100.019 E9.39084
G1 X114.356 Y109.97 E9.80146
G1 X114.311 Y110.62 E9.82834
G1 X114.227 Y111.046 E9.84626
G1 X114.025 Y111.661 E9.87297
G1 X113.847 Y112.043 E9.89036
G1 X113.514 Y112.572 E9.91615
G1 X113.229 Y112.922 E9.93478
G1 X112.783 Y113.347 E9.9602
G1 X112.412 Y113.625 E9.97933
G1 X111.882 Y113.927 E10.0045
G1 X111.479 Y114.096 E10.02253
G1 X110.867 Y114.266 E10.04874
G1 X110.434 Y114.334 E10.06683
G1 X109.969 Y114.356 E10.08603
G1 X100.03 Y114.356 E10.49615
G1 X99.38 Y114.311 E10.52304
M204 S3000
G0 F4200 X99.324 Y114.699
M204 S500
;TYPE:WALL-OUTER
G1 F1080 X98.854 Y114.606 E10.54281
G1 X98.202 Y114.392 E10.57112
G1 X97.766 Y114.188 E10.59098
G1 X97.2 Y113.832 E10.61858
G1 X96.81 Y113.515 E10.63931
G1 X96.351 Y113.033 E10.66678
G1 X96.046 Y112.626 E10.68776
G1 X95.722 Y112.056 E10.71482
G1 X95.531 Y111.601 E10.73518
G1 X95.351 Y110.951 E10.76301
G1 X95.276 Y110.466 E10.78326
G1 X95.253 Y110 E10.80251
G1 X95.253 Y100.017 E11.21445
G1 X95.301 Y99.323 E11.24315
G1 X95.395 Y98.853 E11.26293
G1 X95.608 Y98.202 E11.29119
G1 X95.811 Y97.767 E11.311
G1 X96.168 Y97.2 E11.33865
G1 X96.485 Y96.81 E11.35939
G1 X96.967 Y96.351 E11.38685
G1 X97.366 Y96.052 E11.40742
G1 X97.948 Y95.721 E11.43505
G1 X98.398 Y95.532 E11.45519
G1 X99.047 Y95.352 E11.48298
G1 X99.534 Y95.276 E11.50332
G1 X100.012 Y95.253 E11.52307
G1 X109.983 Y95.253 E11.9345
G1 X110.676 Y95.301 E11.96317
G1 X111.146 Y95.394 E11.98294
G1 X111.798 Y95.608 E12.01125
G1 X112.233 Y95.811 E12.03106
G1 X112.8 Y96.168 E12.05871
G1 X113.19 Y96.485 E12.07945
G1 X113.649 Y96.967 E12.10691
G1 X113.954 Y97.374 E12.1279
G1 X114.275 Y97.938 E12.15468
G1 X114.469 Y98.4 E12.17535
G1 X114.648 Y99.044 E12.20293
G1 X114.724 Y99.534 E12.22339
G1 X114.747 Y100 E12.24265
G1 X114.747 Y109.983 E12.65458
G1 X114.699 Y110.676 E12.68324
G1 X114.606 Y111.146 E12.70301
G1 X114.392 Y111.798 E12.73133
G1 X114.189 Y112.233 E12.75114
G1 X113.832 Y112.8 E12.77878
G1 X113.516 Y113.189 E12.79946
G1 X113.034 Y113.648 E12.82693
G1 X112.63 Y113.951 E12.84777
G1 X112.059 Y114.276 E12.87488
G1 X111.602 Y114.468 E12.89533
G1 X110.953 Y114.648 E12.92312
G1 X110.466 Y114.724 E12.94346
G1 X109.988 Y114.747 E12.96321
G1 X100.017 Y114.747 E13.37464
G1 X99.324 Y114.699 E13.40331
M204 S3000
G0 F4200 X99.128 Y114.661
G0 X99.213 Y114.234
G0 X99.418 Y113.919
M204 S500
;TYPE:SKIN
G1 F1080 X99.057 Y113.849 E13.4189
G1 X98.488 Y113.661 E13.44431
G1 X98.14 Y113.498 E13.46061
G1 X97.656 Y113.194 E13.48485
G1 X97.348 Y112.944 E13.50167
G1 X96.95 Y112.525 E13.52618
G1 X96.7 Y112.193 E13.5438
G1 X96.429 Y111.715 E13.5671
G1 X96.272 Y111.34 E13.58434
G1 X96.118 Y110.785 E13.60877
G1 X96.056 Y110.393 E13.6256
G1 X96.036 Y109.981 E13.64309
G1 X96.036 Y100.057 E14.06393
G1 X96.079 Y99.417 E14.09114
G1 X96.153 Y99.056 E14.10676
G1 X96.339 Y98.486 E14.13219
G1 X96.498 Y98.145 E14.14814
G1 X96.806 Y97.656 E14.17265
G1 X97.057 Y97.347 E14.18953
G1 X97.475 Y96.95 E14.21398
G1 X97.799 Y96.706 E14.23118
G1 X98.296 Y96.424 E14.25541
G1 X98.652 Y96.275 E14.27178
G1 X99.212 Y96.12 E14.29642
G1 X99.609 Y96.056 E14.31347
G1 X100.049 Y96.036 E14.33215
G1 X109.942 Y96.036 E14.75168
G1 X110.582 Y96.081 E14.77889
G1 X110.943 Y96.151 E14.79448
G1 X111.516 Y96.34 E14.82007
G1 X111.852 Y96.496 E14.83578
G1 X112.339 Y96.803 E14.86019
G1 X112.659 Y97.064 E14.8777
G1 X113.046 Y97.47 E14.90149
G1 X113.3 Y97.807 E14.91938
G1 X113.568 Y98.279 E14.9424
G1 X113.727 Y98.659 E14.95987
G1 X113.88 Y99.212 E14.9842
G1 X113.944 Y99.609 E15.00125
G1 X113.964 Y100.019 E15.01866
G1 X113.964 Y109.942 E15.43946
G1 X113.919 Y110.582 E15.46667
G1 X113.849 Y110.943 E15.48226
G1 X113.66 Y111.516 E15.50785
G1 X113.501 Y111.856 E15.52377
G1 X113.198 Y112.34 E15.54798
G1 X112.943 Y112.653 E15.5651
G1 X112.521 Y113.054 E15.58979
G1 X112.202 Y113.293 E15.60669
G1 X111.711 Y113.573 E15.63066
G1 X111.348 Y113.725 E15.64735
G1 X110.788 Y113.88 E15.67199
G1 X110.391 Y113.944 E15.68904
G1 X109.951 Y113.964 E15.70772
G1 X100.058 Y113.964 E16.12725
G1 X99.418 Y113.919 E16.15446
M204 S3000
G0 F4200 X98.449 Y113.451
M204 S500
G1 F1080 X96.544 Y111.546 E16.26871
G1 X96.475 Y111.477
M204 S3000
G0 F4200 X96.278 Y110.703
M204 S500
G1 F1080 X99.294 Y113.719 E16.44958
M204 S3000
G0 F4200 X99.934 Y113.782
M204 S500
G1 F1080 X96.211 Y110.059 E16.67286
M204 S3000
G0 F4200 X96.208 Y109.479
M204 S500
G1 F1080 X100.52 Y113.791 E16.93146
M204 S3000
G0 F4200 X101.097 Y113.791
M204 S500
G1 F1080 X96.208 Y108.902 E17.22466
M204 S3000
G0 F4200 X96.208 Y108.325
M204 S500
G1 F1080 X101.674 Y113.791 E17.55247
M204 S3000
G0 F4200 X102.251 Y113.791
M204 S500
G1 F1080 X96.208 Y107.748 E17.91488
M204 S3000
G0 F4200 X96.208 Y107.171
M204 S500
G1 F1080 X102.828 Y113.791 E18.31189
M204 S3000
G0 F4200 X103.405 Y113.791
M204 S500
G1 F1080 X96.208 Y106.594 E18.74351
M204 S3000
G0 F4200 X96.208 Y106.017
M204 S500
G1 F1080 X103.982 Y113.791 E19.20974
M204 S3000
G0 F4200 X104.559 Y113.791
M204 S500
G1 F1080 X96.208 Y105.44 E19.71056
M204 S3000
G0 F4200 X96.208 Y104.863
M204 S500
G1 F1080 X105.136 Y113.791 E20.24599
M204 S3000
G0 F4200 X105.713 Y113.791
M204 S500
G1 F1080 X96.208 Y104.286 E20.81603
M204 S3000
G0 F4200 X96.208 Y103.709
M204 S500
G1 F1080 X106.29 Y113.791 E21.42067
M204 S3000
G0 F4200 X106.867 Y113.791
M204 S500
G1 F1080 X96.208 Y103.132 E22.05991
M204 S3000
G0 F4200 X96.208 Y102.555
M204 S500
G1 F1080 X107.444 Y113.791 E22.73376
M204 S3000
G0 F4200 X108.021 Y113.791
M204 S500
G1 F1080 X96.208 Y101.978 E23.44221
M204 S3000
G0 F4200 X96.208 Y101.401
M204 S500
G1 F1080 X108.598 Y113.791 E24.18526
M204 S3000
G0 F4200 X109.175 Y113.791
M204 S500
G1 F1080 X96.208 Y100.824 E24.96292
M204 S3000
G0 F4200 X96.208 Y100.247
M204 S500
G1 F1080 X109.752 Y113.791 E25.77518
M204 S3000
G0 F4200 X110.312 Y113.774
M204 S500
G1 F1080 X96.232 Y99.694 E26.61959
M204 S3000
G0 F4200 X96.301 Y99.186
M204 S500
G1 F1080 X110.808 Y113.693 E27.4896
M204 S3000
G0 F4200 X111.261 Y113.569
M204 S500
G1 F1080 X96.435 Y98.743 E28.37875
M204 S3000
G0 F4200 X96.599 Y98.33
M204 S500
G1 F1080 X111.667 Y113.398 E29.28241
M204 S3000
G0 F4200 X112.035 Y113.189
M204 S500
G1 F1080 X96.813 Y97.967 E30.1953
M204 S3000
G0 F4200 X97.049 Y97.626
M204 S500
G1 F1080 X112.372 Y112.949 E31.11426
M204 S3000
G0 F4200 X112.671 Y112.671
M204 S500
G1 F1080 X97.326 Y97.326 E32.03453
M204 S3000
G0 F4200 X97.628 Y97.051
M204 S500
G1 F1080 X112.949 Y112.372 E32.95336
M204 S3000
G0 F4200 X113.186 Y112.032
M204 S500
G1 F1080 X97.963 Y96.809 E33.86632
M204 S3000
G0 F4200 X98.332 Y96.601
M204 S500
G1 F1080 X113.398 Y111.667 E34.76986
M204 S3000
G0 F4200 X113.564 Y111.256
M204 S500
G1 F1080 X98.738 Y96.43 E35.659
M204 S3000
G0 F4200 X99.19 Y96.305
M204 S500
G1 F1080 X113.698 Y110.813 E36.52908
M204 S3000
G0 F4200 X113.766 Y110.304
M204 S500
G1 F1080 X99.687 Y96.225 E37.37342
M204 S3000
G0 F4200 X100.247 Y96.208
M204 S500
G1 F1080 X113.791 Y109.752 E38.18569
M204 S3000
G0 F4200 X113.791 Y109.175
M204 S500
G1 F1080 X100.824 Y96.208 E38.96334
M204 S3000
G0 F4200 X101.401 Y96.208
M204 S500
G1 F1080 X113.791 Y108.598 E39.7064
M204 S3000
G0 F4200 X113.791 Y108.021
M204 S500
G1 F1080 X101.978 Y96.208 E40.41485
M204 S3000
G0 F4200 X102.555 Y96.208
M204 S500
G1 F1080 X113.791 Y107.444 E41.0887
M204 S3000
G0 F4200 X113.791 Y106.867
M204 S500
G1 F1080 X103.132 Y96.208 E41.72794
M204 S3000
G0 F4200 X103.709 Y96.208
M204 S500
G1 F1080 X113.791 Y106.29 E42.33258
M204 S3000
G0 F4200 X113.791 Y105.713
M204 S500
G1 F1080 X104.286 Y96.208 E42.90261
M204 S3000
G0 F4200 X104.863 Y96.208
M204 S500
G1 F1080 X113.791 Y105.136 E43.43804
M204 S3000
G0 F4200 X113.791 Y104.559
M204 S500
G1 F1080 X105.44 Y96.208 E43.93887
M204 S3000
G0 F4200 X106.017 Y96.208
M204 S500
G1 F1080 X113.791 Y103.982 E44.40509
M204 S3000
G0 F4200 X113.791 Y103.405
M204 S500
G1 F1080 X106.594 Y96.208 E44.83671
M204 S3000
