;FLAVOR:Marlin
;TIME:1411
;Filament used: 1.16732m
;Layer height: 0.2
;MINX:73.454
;MINY:88.454
;MINZ:0.25
;MAXX:136.546
;MAXY:121.546
;MAXZ:8.85
;Generated with Cura_SteamEngine 4.7.1
M140 S60
M105
M190 S60
M104 S200
M105
M109 S200
M82 ;absolute extrusion mode
; Script based on an original created by tjjfvi (https://github.com/tjjfvi)
; An up-to-date version of the tjjfvi's original script can be found
; here:  https://csi.t6.fyi/
; Note - This script will only work in Cura V4.2 and above!
; --- Global Settings
; layer_height = 0.2
; smooth_spiralized_contours = True
; magic_mesh_surface_mode = normal
; machine_extruder_count = 1
; --- Single Extruder Settings
; speed_z_hop = 10
; retraction_amount = 5
; retraction_hop = 0.075
; retraction_hop_enabled = True
; retraction_enable = True
; retraction_speed = 50
; retraction_retract_speed = 50
; retraction_prime_speed = 50
; speed_travel = 120

G21 ;metric values
G90 ;absolute positioning
M82 ;set extruder to absolute mode
M107 ;start with the fan off
G28 X0 Y0 ;move X/Y to min endstops
G28 Z0 ;move Z to min endstops
G1 Z15.0 F120 ;move the platform down 15mm
G92 E0 ;zero the extruded length
G1 F200 E3 ;extrude 3mm of feed stock
G92 E0 ;zero the extruded length again
G1 F120
G0 Y20 F120
M117 Printing...
G5
G92 E0
G92 E0
G1 F3000 E-5
;LAYER_COUNT:44
;LAYER:0
M106 S51
M204 S3000
M205 X10 Y10
G1 F600 Z0.325
G0 F4200 X74.848 Y89.223 Z0.325
M204 S500
;TYPE:SKIRT
G1 F600 Z0.25
G1 F3000 E0.06236
G1 F1800 X75.294 Y88.926 E0.08447
G1 X75.78 Y88.698 E0.10662
G1 X76.293 Y88.545 E0.12871
G1 X76.958 Y88.464 E0.15636
G1 X77.38 Y88.454 E0.17377
G1 X132.295 Y88.454 E2.43975
G1 X132.993 Y88.464 E2.46856
G1 X133.526 Y88.512 E2.49064
G1 X134.047 Y88.638 E2.51276
G1 X134.544 Y88.841 E2.53491
G1 X135.004 Y89.115 E2.557
G1 X135.419 Y89.454 E2.57911
G1 X135.779 Y89.851 E2.60123
G1 X136.076 Y90.298 E2.62337
G1 X136.303 Y90.783 E2.64547
G1 X136.455 Y91.297 E2.66759
G1 X136.536 Y91.959 E2.69511
G1 X136.546 Y92.38 E2.71248
G1 X136.546 Y117.259 E3.73907
G1 X136.537 Y117.986 E3.76908
G1 X136.49 Y118.519 E3.79115
G1 X136.365 Y119.041 E3.8133
G1 X136.163 Y119.537 E3.8354
G1 X135.89 Y119.998 E3.85751
G1 X135.552 Y120.414 E3.87963
G1 X135.155 Y120.775 E3.90177
G1 X134.709 Y121.072 E3.92388
G1 X134.224 Y121.3 E3.94599
G1 X133.711 Y121.454 E3.96809
G1 X133.042 Y121.536 E3.99591
G1 X132.62 Y121.546 E4.01332
G1 X77.711 Y121.546 E6.27905
G1 X77.013 Y121.537 E6.30786
G1 X76.479 Y121.49 E6.32998
G1 X75.958 Y121.364 E6.3521
G1 X75.461 Y121.162 E6.37423
G1 X75 Y120.889 E6.39634
G1 X74.585 Y120.55 E6.41845
G1 X74.224 Y120.154 E6.44056
G1 X73.927 Y119.708 E6.46267
G1 X73.699 Y119.223 E6.48479
G1 X73.546 Y118.709 E6.50692
G1 X73.464 Y118.038 E6.53481
G1 X73.454 Y117.608 E6.55256
G1 X73.454 Y92.675 E7.58138
G1 X73.463 Y92.01 E7.60882
G1 X73.511 Y91.476 E7.63094
G1 X73.637 Y90.955 E7.65306
G1 X73.839 Y90.459 E7.67516
G1 X74.112 Y89.998 E7.69727
G1 X74.451 Y89.583 E7.71938
G1 X74.848 Y89.223 E7.74149
M204 S3000
G0 F4200 X75.231 Y89.434
M204 S500
G1 F1800 X75.668 Y89.178 E7.76239
G1 X76.139 Y88.995 E7.78324
G1 X76.633 Y88.889 E7.80409
G1 X77.29 Y88.852 E7.83124
G1 X132.289 Y88.851 E10.10069
G1 X132.987 Y88.861 E10.12949
G1 X133.49 Y88.908 E10.15034
G1 X133.98 Y89.034 E10.17121
G1 X134.443 Y89.236 E10.19206
G1 X134.869 Y89.508 E10.21291
G1 X135.247 Y89.843 E10.23375
G1 X135.568 Y90.234 E10.25463
G1 X135.823 Y90.671 E10.27551
G1 X136.005 Y91.142 E10.29634
G1 X136.112 Y91.636 E10.3172
G1 X136.148 Y92.29 E10.34423
G1 X136.149 Y117.254 E11.37432
G1 X136.14 Y117.981 E11.40432
G1 X136.094 Y118.484 E11.42517
G1 X135.969 Y118.974 E11.44603
G1 X135.768 Y119.438 E11.4669
G1 X135.497 Y119.864 E11.48773
G1 X135.162 Y120.243 E11.5086
G1 X134.772 Y120.564 E11.52945
G1 X134.336 Y120.82 E11.55031
G1 X133.865 Y121.004 E11.57118
G1 X133.371 Y121.111 E11.59203
G1 X132.71 Y121.148 E11.61935
G1 X77.716 Y121.149 E13.88859
G1 X77.018 Y121.14 E13.91739
G1 X76.514 Y121.093 E13.93828
G1 X76.025 Y120.968 E13.95911
G1 X75.561 Y120.767 E13.97997
G1 X75.134 Y120.496 E14.00084
G1 X74.756 Y120.161 E14.02168
G1 X74.435 Y119.771 E14.04252
G1 X74.179 Y119.334 E14.06342
G1 X73.996 Y118.863 E14.08427
G1 X73.889 Y118.369 E14.10513
G1 X73.852 Y117.694 E14.13302
G1 X73.851 Y92.681 E15.16514
G1 X73.86 Y92.016 E15.19259
G1 X73.907 Y91.512 E15.21347
G1 X74.032 Y91.023 E15.2343
G1 X74.234 Y90.559 E15.25518
G1 X74.505 Y90.133 E15.27602
G1 X74.84 Y89.754 E15.29689
G1 X75.231 Y89.434 E15.31774
M204 S3000
G1 F3000 E10.31774
;MESH:revised-bearing.stl
G0 F4200 X81.218 Y115.81
M204 S500
;TYPE:WALL-INNER
G1 F3000 E15.3801
G1 F1080 X82.035 Y115.498 E15.41619
G1 X82.57 Y114.897 E15.44939
G1 X82.614 Y114.847 E15.45214
G1 X82.822 Y114 E15.48812
G1 X82.614 Y113.153 E15.52411
G1 X82.57 Y113.103 E15.52686
G1 X82.035 Y112.502 E15.56006
G1 X81.219 Y112.19 E15.59611
G1 X80.42 Y112.289 E15.62933
G1 X79.944 Y112.537 E15.65148
G1 X79.452 Y113.072 E15.68147
G1 X79.231 Y113.616 E15.7057
G1 X79.231 Y114.434 E15.73945
G1 X79.635 Y115.208 E15.77548
G1 X80.354 Y115.702 E15.81148
G1 X81.218 Y115.81 E15.84741
M204 S3000
G0 F4200 X81.169 Y115.404
M204 S500
G1 F1080 X81.803 Y115.162 E15.87541
G1 X82.252 Y114.657 E15.90329
G1 X82.413 Y114 E15.9312
G1 X82.252 Y113.343 E15.95911
G1 X81.803 Y112.838 E15.987
G1 X81.17 Y112.596 E16.01496
G1 X80.54 Y112.674 E16.04116
G1 X80.189 Y112.857 E16.05749
G1 X79.793 Y113.288 E16.08164
G1 X79.628 Y113.694 E16.09972
G1 X79.628 Y114.337 E16.12626
G1 X79.941 Y114.937 E16.15418
G1 X80.499 Y115.32 E16.18211
G1 X81.169 Y115.404 E16.20997
M204 S3000
G0 F4200 X81.121 Y115.004
M204 S500
;TYPE:WALL-OUTER
G1 F1080 X81.574 Y114.831 E16.22998
G1 X81.895 Y114.47 E16.24991
G1 X82.01 Y114 E16.26988
G1 X81.895 Y113.53 E16.28985
G1 X81.574 Y113.169 E16.30978
G1 X81.121 Y112.996 E16.32979
G1 X80.658 Y113.053 E16.34904
G1 X80.431 Y113.172 E16.35961
G1 X80.129 Y113.501 E16.37804
G1 X80.019 Y113.771 E16.39007
G1 X80.019 Y114.241 E16.40946
G1 X80.243 Y114.67 E16.42943
G1 X80.642 Y114.944 E16.44941
G1 X81.121 Y115.004 E16.46933
M204 S3000
G0 F4200 X81.308 Y114.933
G0 X81.462 Y115.341
G1 F3000 E11.46933
G0 F4200 X81.218 Y97.81
M204 S500
;TYPE:WALL-INNER
G1 F3000 E16.53169
G1 F1080 X82.035 Y97.498 E16.56778
G1 X82.57 Y96.897 E16.60098
G1 X82.614 Y96.847 E16.60373
G1 X82.822 Y96 E16.63971
G1 X82.614 Y95.153 E16.6757
G1 X82.57 Y95.103 E16.67845
G1 X82.035 Y94.502 E16.71165
G1 X81.219 Y94.19 E16.7477
G1 X80.42 Y94.289 E16.78092
G1 X79.944 Y94.537 E16.80307
G1 X79.452 Y95.072 E16.83306
G1 X79.231 Y95.616 E16.85729
G1 X79.231 Y96.434 E16.89104
G1 X79.635 Y97.208 E16.92707
G1 X80.354 Y97.702 E16.96307
G1 X81.218 Y97.81 E16.999
M204 S3000
G0 F4200 X81.169 Y97.404
M204 S500
G1 F1080 X81.803 Y97.162 E17.027
G1 X82.252 Y96.657 E17.05488
G1 X82.413 Y96 E17.08279
G1 X82.252 Y95.343 E17.11071
G1 X81.803 Y94.838 E17.13859
G1 X81.17 Y94.596 E17.16655
G1 X80.54 Y94.674 E17.19275
G1 X80.189 Y94.857 E17.20908
G1 X79.793 Y95.288 E17.23323
G1 X79.628 Y95.694 E17.25132
G1 X79.628 Y96.337 E17.27785
G1 X79.941 Y96.937 E17.30577
G1 X80.499 Y97.32 E17.3337
G1 X81.169 Y97.404 E17.36156
M204 S3000
G0 F4200 X81.121 Y97.004
M204 S500
;TYPE:WALL-OUTER
G1 F1080 X81.574 Y96.831 E17.38157
G1 X81.895 Y96.47 E17.4015
G1 X82.01 Y96 E17.42147
G1 X81.895 Y95.53 E17.44144
G1 X81.574 Y95.169 E17.46137
G1 X81.121 Y94.996 E17.48138
G1 X80.658 Y95.053 E17.50063
G1 X80.431 Y95.172 E17.5112
G1 X80.129 Y95.501 E17.52963
G1 X80.019 Y95.771 E17.54166
G1 X80.019 Y96.241 E17.56105
G1 X80.243 Y96.67 E17.58102
G1 X80.642 Y96.944 E17.601
G1 X81.121 Y97.004 E17.62092
M204 S3000
G0 F4200 X81.308 Y96.933
G0 X81.462 Y97.341
G1 F3000 E12.62092
G0 F4200 X128.354 Y97.702
M204 S500
;TYPE:WALL-INNER
G1 F3000 E17.68328
G1 F1080 X129.218 Y97.81 E17.71921
G1 X130.035 Y97.498 E17.7553
G1 X130.614 Y96.847 E17.79125
G1 X130.822 Y96 E17.82723
G1 X130.614 Y95.153 E17.86322
G1 X130.035 Y94.502 E17.89917
G1 X129.219 Y94.19 E17.93522
G1 X128.42 Y94.289 E17.96844
G1 X127.944 Y94.537 E17.99059
G1 X127.452 Y95.072 E18.02058
G1 X127.231 Y95.616 E18.04481
G1 X127.231 Y96.434 E18.07856
G1 X127.635 Y97.208 E18.11459
G1 X128.354 Y97.702 E18.15059
M204 S3000
G0 F4200 X128.499 Y97.32
M204 S500
G1 F1080 X129.169 Y97.404 E18.17845
G1 X129.803 Y97.162 E18.20645
G1 X130.252 Y96.657 E18.23433
G1 X130.413 Y96 E18.26225
G1 X130.252 Y95.343 E18.29016
G1 X129.803 Y94.838 E18.31804
G1 X129.17 Y94.596 E18.34601
G1 X128.54 Y94.674 E18.3722
G1 X128.189 Y94.857 E18.38853
G1 X127.793 Y95.288 E18.41268
G1 X127.628 Y95.694 E18.43077
G1 X127.628 Y96.337 E18.4573
G1 X127.941 Y96.937 E18.48523
G1 X128.499 Y97.32 E18.51315
M204 S3000
G0 F4200 X128.642 Y96.944
M204 S500
;TYPE:WALL-OUTER
G1 F1080 X129.121 Y97.004 E18.53307
G1 X129.574 Y96.831 E18.55308
G1 X129.895 Y96.47 E18.57301
G1 X130.01 Y96 E18.59298
G1 X129.895 Y95.53 E18.61295
G1 X129.574 Y95.169 E18.63288
G1 X129.121 Y94.996 E18.65289
G1 X128.658 Y95.053 E18.67214
G1 X128.431 Y95.172 E18.68271
G1 X128.129 Y95.501 E18.70114
G1 X128.019 Y95.771 E18.71317
G1 X128.019 Y96.241 E18.73256
G1 X128.243 Y96.67 E18.75253
G1 X128.642 Y96.944 E18.77251
M204 S3000
G0 F4200 X128.84 Y96.968
G0 X128.785 Y97.401
G1 F3000 E13.77251
G0 F4200 X128.354 Y115.702
M204 S500
;TYPE:WALL-INNER
G1 F3000 E18.83487
G1 F1080 X129.218 Y115.81 E18.8708
G1 X130.035 Y115.498 E18.90689
G1 X130.614 Y114.847 E18.94284
G1 X130.822 Y114 E18.97882
G1 X130.614 Y113.153 E19.01481
G1 X130.035 Y112.502 E19.05076
G1 X129.219 Y112.19 E19.08681
G1 X128.42 Y112.289 E19.12003
G1 X127.944 Y112.537 E19.14218
G1 X127.452 Y113.072 E19.17217
G1 X127.231 Y113.616 E19.1964
G1 X127.231 Y114.434 E19.23015
G1 X127.635 Y115.208 E19.26618
G1 X128.354 Y115.702 E19.30218
M204 S3000
G0 F4200 X128.499 Y115.32
M204 S500
G1 F1080 X129.169 Y115.404 E19.33004
G1 X129.803 Y115.162 E19.35804
G1 X130.252 Y114.657 E19.38592
G1 X130.413 Y114 E19.41384
G1 X130.252 Y113.343 E19.44175
G1 X129.803 Y112.838 E19.46963
G1 X129.17 Y112.596 E19.4976
G1 X128.54 Y112.674 E19.52379
G1 X128.189 Y112.857 E19.54012
G1 X127.793 Y113.288 E19.56428
G1 X127.628 Y113.694 E19.58236
G1 X127.628 Y114.337 E19.60889
G1 X127.941 Y114.937 E19.63682
G1 X128.499 Y115.32 E19.66474
M204 S3000
G0 F4200 X128.642 Y114.944
M204 S500
;TYPE:WALL-OUTER
G1 F1080 X129.121 Y115.004 E19.68466
G1 X129.574 Y114.831 E19.70467
G1 X129.895 Y114.47 E19.7246
G1 X130.01 Y114 E19.74457
G1 X129.895 Y113.53 E19.76454
G1 X129.574 Y113.169 E19.78447
G1 X129.121 Y112.996 E19.80448
G1 X128.658 Y113.053 E19.82373
G1 X128.431 Y113.172 E19.8343
G1 X128.129 Y113.501 E19.85273
G1 X128.019 Y113.771 E19.86476
G1 X128.019 Y114.241 E19.88416
G1 X128.243 Y114.67 E19.90412
G1 X128.642 Y114.944 E19.9241
M204 S3000
G0 F4200 X128.84 Y114.968
G0 X128.785 Y115.401
G1 F3000 E14.9241
G0 F4200 X115 Y110.821
M204 S500
;TYPE:WALL-INNER
G1 F3000 E19.98646
G1 F1080 X120.041 Y107.91 E20.22666
G1 X120.041 Y102.09 E20.46681
G1 X115 Y99.179 E20.70701
G1 X109.959 Y102.09 E20.94721
G1 X109.959 Y107.91 E21.18736
G1 X115 Y110.821 E21.42756
M204 S3000
G0 F4200 X115 Y110.363
M204 S500
G1 F1080 X119.644 Y107.681 E21.64885
G1 X119.644 Y102.319 E21.87011
G1 X115 Y99.637 E22.09139
G1 X110.356 Y102.319 E22.31268
G1 X110.356 Y107.681 E22.53394
G1 X115 Y110.363 E22.75522
M204 S3000
G0 F4200 X115 Y109.911
M204 S500
;TYPE:WALL-OUTER
G1 F1080 X119.253 Y107.455 E22.95788
G1 X119.253 Y102.545 E23.16048
G1 X115 Y100.089 E23.36313
G1 X110.747 Y102.545 E23.56579
G1 X110.747 Y107.455 E23.76839
G1 X115 Y109.911 E23.97104
M204 S3000
G0 F4200 X115.173 Y109.811
G0 X115.391 Y110.189
G1 F3000 E18.97104
G0 F4200 X107.396 Y116.041
M204 S500
;TYPE:WALL-INNER
G1 F3000 E24.0334
G1 F1080 X107.92 Y114.743 E24.09116
G1 X105.999 Y112.868 E24.20193
G1 X104.854 Y111.326 E24.28118
G1 X103.984 Y109.649 E24.35914
G1 X103.384 Y107.832 E24.4381
G1 X103.082 Y105.954 E24.51658
G1 X103.082 Y104.04 E24.59556
G1 X103.384 Y102.169 E24.67376
G1 X103.985 Y100.349 E24.75285
G1 X104.854 Y98.674 E24.83072
G1 X105.999 Y97.132 E24.90997
G1 X107.92 Y95.257 E25.02073
G1 X107.396 Y93.959 E25.07849
G1 X82.959 Y93.959 E26.08685
G1 X82.959 Y95.086 E26.13335
G1 X82.959 Y95.153 E26.13595
G1 X82.959 Y96 E26.15712
G1 X82.959 Y96.847 E26.1783
G1 X82.959 Y96.914 E26.18089
G1 X82.959 Y113.086 E26.8482
G1 X82.959 Y113.153 E26.8508
G1 X82.959 Y114 E26.87198
G1 X82.959 Y114.847 E26.89315
G1 X82.959 Y114.914 E26.89575
G1 X82.959 Y116.041 E26.94225
G1 X107.396 Y116.041 E27.9506
M204 S3000
G0 F4200 X107.128 Y115.644
M204 S500
G1 F1080 X107.452 Y114.841 E27.98633
G1 X105.696 Y113.127 E28.08759
G1 X104.518 Y111.541 E28.16911
G1 X103.617 Y109.803 E28.24989
G1 X102.997 Y107.925 E28.3315
G1 X102.685 Y105.986 E28.41253
G1 X102.685 Y104.008 E28.49415
G1 X102.997 Y102.074 E28.57499
G1 X103.617 Y100.197 E28.65656
G1 X104.518 Y98.459 E28.73734
G1 X105.696 Y96.873 E28.81886
G1 X107.452 Y95.159 E28.92011
G1 X107.128 Y94.356 E28.95584
G1 X83.356 Y94.356 E29.93675
G1 X83.356 Y115.644 E30.81517
G1 X107.128 Y115.644 E31.79608
M204 S3000
G0 F4200 X106.864 Y115.253
M204 S500
;TYPE:WALL-OUTER
G1 F1080 X106.991 Y114.938 E31.81009
G1 X106.941 Y114.889 E31.81298
G1 X105.401 Y113.385 E31.90181
G1 X104.186 Y111.749 E31.98589
G1 X103.256 Y109.956 E32.06924
G1 X102.616 Y108.017 E32.15349
G1 X102.294 Y106.017 E32.23708
G1 X102.294 Y103.977 E32.32126
G1 X102.616 Y101.982 E32.40465
G1 X103.256 Y100.044 E32.48886
G1 X104.186 Y98.251 E32.57221
G1 X105.401 Y96.615 E32.65629
G1 X106.941 Y95.111 E32.74512
G1 X106.991 Y95.062 E32.74801
G1 X106.864 Y94.747 E32.76202
G1 X106.793 Y94.747 E32.76495
G1 X83.747 Y94.747 E33.71591
G1 X83.747 Y115.253 E34.56205
G1 X106.793 Y115.253 E35.51301
G1 X106.864 Y115.253 E35.51594
M204 S3000
G0 F4200 X106.938 Y115.068
G0 X107.343 Y115.232
G1 F3000 E30.51594
G0 F4200 X131.959 Y116.959
M204 S500
;TYPE:WALL-INNER
G1 F3000 E35.5783
G1 F1080 X78.041 Y116.959 E37.80314
G1 X78.041 Y93.041 E38.79007
G1 X131.959 Y93.041 E41.01491
G1 X131.959 Y116.959 E42.00185
M204 S3000
G0 F4200 X132.356 Y117.356
M204 S500
G1 F1080 X77.644 Y117.356 E44.25945
G1 X77.644 Y92.644 E45.27915
G1 X132.356 Y92.644 E47.53675
G1 X132.356 Y117.356 E48.55645
M204 S3000
G0 F4200 X132.747 Y117.747
M204 S500
;TYPE:WALL-OUTER
G1 F1080 X77.253 Y117.747 E50.84632
G1 X77.253 Y92.253 E51.89829
G1 X132.747 Y92.253 E54.18816
G1 X132.747 Y117.747 E55.24012
M204 S3000
G0 F4200 X132.547 Y117.747
G0 X132.311 Y117.311
G0 X131.567 Y116.567
M204 S500
;TYPE:SKIN
G1 F1080 X78.433 Y116.567 E57.49336
G1 X78.433 Y93.433 E58.4744
G1 X131.567 Y93.433 E60.72763
G1 X131.567 Y116.567 E61.70867
M204 S3000
G0 F4200 X130.264 Y115.83
M204 S500
G1 F1080 X130.972 Y115.035 E61.75381
G1 X131.226 Y114 E61.79901
G1 X130.972 Y112.965 E61.8442
G1 X130.265 Y112.17 E61.88931
G1 X129.268 Y111.789 E61.93458
G1 X128.301 Y111.909 E61.9759
G1 X127.702 Y112.221 E62.00454
G1 X127.115 Y112.858 E62.04127
G1 X126.839 Y113.539 E62.07243
G1 X126.839 Y114.531 E62.1145
G1 X127.332 Y115.476 E62.1597
G1 X128.211 Y116.079 E62.2049
G1 X129.266 Y116.212 E62.25
G1 X130.264 Y115.83 E62.29531
M204 S3000
G1 F3000 E57.29531
G0 F4200 X120.433 Y108.136
M204 S500
G1 F3000 E62.35768
G1 F1080 X120.433 Y101.864 E62.62365
G1 X115 Y98.726 E62.88971
G1 X109.567 Y101.864 E63.15578
G1 X109.567 Y108.136 E63.42175
G1 X115 Y111.274 E63.68782
G1 X120.433 Y108.136 E63.95388
M204 S3000
G1 F3000 E58.95388
G0 F4200 X129.266 Y98.212
M204 S500
G1 F3000 E64.01625
G1 F1080 X130.264 Y97.83 E64.06156
G1 X130.972 Y97.035 E64.10671
G1 X131.226 Y96 E64.1519
G1 X130.972 Y94.965 E64.19709
G1 X130.265 Y94.17 E64.24221
G1 X129.268 Y93.789 E64.28747
G1 X128.301 Y93.909 E64.32879
G1 X127.702 Y94.221 E64.35743
G1 X127.115 Y94.858 E64.39417
G1 X126.839 Y95.539 E64.42533
G1 X126.839 Y96.531 E64.46739
G1 X127.332 Y97.476 E64.51259
G1 X128.211 Y98.079 E64.5578
G1 X129.266 Y98.212 E64.60289
M204 S3000
G1 F3000 E59.60289
G0 F4200 X108.382 Y114.646
M204 S500
G1 F3000 E64.66525
G1 F1080 X106.296 Y112.608 E64.78892
G1 X105.186 Y111.114 E64.86785
G1 X104.347 Y109.497 E64.94511
G1 X103.766 Y107.74 E65.02358
G1 X103.474 Y105.923 E65.10162
G1 X103.474 Y104.072 E65.18012
G1 X103.766 Y102.26 E65.25795
G1 X104.348 Y100.501 E65.33652
G1 X105.186 Y98.886 E65.41368
