;FLAVOR:Marlin
;TIME:2980
;Filament used: 3.31071m
;Layer height: 0.3
;MINX:73.454
;MINY:52.454
;MINZ:0.25
;MAXX:136.546
;MAXY:155.546
;MAXZ:12.85
;Generated with Cura_SteamEngine 4.7.1
M140 S60
M105
M190 S60
M104 S200
M105
M109 S200
M82 ;absolute extrusion mode
; Script based on an original created by tjjfvi (https://github.com/tjjfvi)
; An up-to-date version of the tjjfvi's original script can be found
; here:  https://csi.t6.fyi/
; Note - This script will only work in Cura V4.2 and above!
; --- Global Settings
; layer_height = 0.3
; smooth_spiralized_contours = True
; magic_mesh_surface_mode = normal
; machine_extruder_count = 1
; --- Single Extruder Settings
; speed_z_hop = 10
; retraction_amount = 5
; retraction_hop = 0.075
; retraction_hop_enabled = True
; retraction_enable = True
; retraction_speed = 50
; retraction_retract_speed = 50
; retraction_prime_speed = 50
; speed_travel = 120

G21 ;metric values
G90 ;absolute positioning
M82 ;set extruder to absolute mode
M107 ;start with the fan off
G28 X0 Y0 ;move X/Y to min endstops
G28 Z0 ;move Z to min endstops
G1 Z15.0 F120 ;move the platform down 15mm
G92 E0 ;zero the extruded length
G1 F200 E3 ;extrude 3mm of feed stock
G92 E0 ;zero the extruded length again
G1 F120
G0 Y20 F120
M117 Printing...
G5
G92 E0
G92 E0
G1 F3000 E-5
;LAYER_COUNT:43
;LAYER:0
M106 S51
M204 S3000
M205 X10 Y10
G1 F600 Z0.325
G0 F4200 X74.112 Y53.998 Z0.325
M204 S500
;TYPE:SKIRT
G1 F600 Z0.25
G1 F3000 E0.06236
G1 F1800 X74.451 Y53.583 E0.08447
G1 X74.848 Y53.223 E0.10659
G1 X75.294 Y52.926 E0.1287
G1 X75.78 Y52.698 E0.15085
G1 X76.293 Y52.545 E0.17294
G1 X76.958 Y52.464 E0.20058
G1 X77.38 Y52.454 E0.218
G1 X132.295 Y52.454 E2.48398
G1 X132.993 Y52.464 E2.51278
G1 X133.526 Y52.512 E2.53486
G1 X134.047 Y52.638 E2.55698
G1 X134.544 Y52.841 E2.57914
G1 X135.004 Y53.115 E2.60123
G1 X135.419 Y53.454 E2.62334
G1 X135.779 Y53.851 E2.64545
G1 X136.076 Y54.298 E2.6676
G1 X136.303 Y54.783 E2.68969
G1 X136.455 Y55.297 E2.71181
G1 X136.536 Y55.959 E2.73933
G1 X136.546 Y56.38 E2.75671
G1 X136.546 Y81.274 E3.78392
G1 X136.535 Y82.05 E3.81594
G1 X136.458 Y84.783 E3.92876
G1 X136.458 Y87.48 E4.04005
G1 X136.502 Y89.042 E4.10453
G1 X136.497 Y89.158 E4.10932
G1 X136.544 Y90.774 E4.17603
G1 X136.546 Y90.88 E4.1804
G1 X136.546 Y118.778 E5.33157
G1 X136.535 Y119.507 E5.36165
G1 X136.492 Y120.009 E5.38244
G1 X136.36 Y120.847 E5.41745
G1 X136.184 Y121.876 E5.46052
G1 X135.799 Y124.575 E5.57302
G1 X135.49 Y127.291 E5.68581
G1 X135.257 Y130.017 E5.79871
G1 X135.103 Y132.709 E5.90997
G1 X135.024 Y135.467 E6.02382
G1 X135.029 Y138.549 E6.151
G1 X135.027 Y139.2 E6.17786
G1 X134.959 Y140.139 E6.21671
G1 X134.893 Y140.895 E6.24802
G1 X134.821 Y141.595 E6.27706
G1 X134.732 Y142.1 E6.29822
G1 X134.509 Y142.992 E6.33616
G1 X134.316 Y143.709 E6.36679
G1 X134.129 Y144.373 E6.39526
G1 X133.951 Y144.865 E6.41685
G1 X133.571 Y145.715 E6.45527
G1 X133.253 Y146.397 E6.48632
G1 X132.962 Y147.001 E6.51398
G1 X132.701 Y147.454 E6.53556
G1 X132.176 Y148.23 E6.57422
G1 X131.771 Y148.807 E6.6033
G1 X131.341 Y149.405 E6.6337
G1 X131.004 Y149.808 E6.65537
G1 X130.402 Y150.429 E6.69106
G1 X129.812 Y151.018 E6.72546
G1 X129.343 Y151.473 E6.75243
G1 X128.952 Y151.802 E6.77351
G1 X128.237 Y152.32 E6.80994
G1 X127.571 Y152.787 E6.84351
G1 X127.003 Y153.172 E6.87182
G1 X126.558 Y153.429 E6.89303
G1 X125.761 Y153.816 E6.92959
G1 X125.087 Y154.13 E6.96027
G1 X124.417 Y154.431 E6.99058
G1 X123.93 Y154.609 E7.01197
G1 X123.054 Y154.858 E7.04955
G1 X122.306 Y155.059 E7.08151
G1 X121.666 Y155.222 E7.10876
G1 X121.147 Y155.314 E7.13051
G1 X120.258 Y155.405 E7.16739
G1 X119.41 Y155.479 E7.20251
G1 X118.8 Y155.524 E7.22775
G1 X118.589 Y155.534 E7.23647
G1 X117.794 Y155.546 E7.26927
G1 X79.205 Y155.546 E8.86158
G1 X78.507 Y155.536 E8.89039
G1 X77.974 Y155.488 E8.91247
G1 X77.453 Y155.362 E8.93459
G1 X76.956 Y155.159 E8.95674
G1 X76.496 Y154.885 E8.97884
G1 X76.081 Y154.546 E9.00095
G1 X75.721 Y154.149 E9.02306
G1 X75.424 Y153.702 E9.04521
G1 X75.197 Y153.217 E9.0673
G1 X75.045 Y152.703 E9.08942
G1 X74.964 Y152.037 E9.1171
G1 X74.954 Y151.608 E9.13481
G1 X74.954 Y136.699 E9.75001
G1 X74.915 Y133.918 E9.86477
G1 X74.799 Y131.187 E9.97756
G1 X74.606 Y128.463 E10.09025
G1 X74.34 Y125.783 E10.20137
G1 X73.99 Y123.052 E10.31499
G1 X73.546 Y120.235 E10.43266
G1 X73.464 Y119.54 E10.46154
G1 X73.454 Y119.12 E10.47887
G1 X73.454 Y91.208 E11.63062
G1 X73.465 Y90.428 E11.6628
G1 X73.542 Y87.716 E11.77476
G1 X73.542 Y85.02 E11.886
G1 X73.498 Y83.458 E11.95048
G1 X73.503 Y83.342 E11.95527
G1 X73.456 Y81.726 E12.02198
G1 X73.454 Y81.62 E12.02636
G1 X73.454 Y56.675 E13.05567
G1 X73.463 Y56.01 E13.08311
G1 X73.511 Y55.476 E13.10524
G1 X73.637 Y54.955 E13.12735
G1 X73.839 Y54.459 E13.14945
G1 X74.112 Y53.998 E13.17156
M204 S3000
G0 F4200 X74.505 Y54.133
M204 S500
G1 F1800 X74.84 Y53.754 E13.19243
G1 X75.231 Y53.434 E13.21328
G1 X75.668 Y53.178 E13.23418
G1 X76.139 Y52.995 E13.25503
G1 X76.633 Y52.889 E13.27588
G1 X77.29 Y52.852 E13.30303
G1 X132.289 Y52.851 E15.57247
G1 X132.987 Y52.861 E15.60128
G1 X133.49 Y52.908 E15.62213
G1 X133.98 Y53.034 E15.643
G1 X134.443 Y53.236 E15.66385
G1 X134.869 Y53.508 E15.6847
G1 X135.247 Y53.843 E15.70554
G1 X135.568 Y54.234 E15.72642
G1 X135.823 Y54.671 E15.7473
G1 X136.005 Y55.142 E15.76813
G1 X136.112 Y55.636 E15.78899
G1 X136.148 Y56.29 E15.81601
G1 X136.149 Y81.268 E16.84669
G1 X136.138 Y82.039 E16.87851
G1 X136.061 Y84.772 E16.99133
G1 X136.061 Y87.491 E17.10352
G1 X136.105 Y89.053 E17.168
G1 X136.1 Y89.143 E17.17172
G1 X136.148 Y90.786 E17.23954
G1 X136.149 Y118.772 E18.39434
G1 X136.138 Y119.501 E18.42442
G1 X136.1 Y119.948 E18.44294
G1 X135.969 Y120.78 E18.47769
G1 X135.79 Y121.824 E18.5214
G1 X135.402 Y124.545 E18.63481
G1 X135.095 Y127.248 E18.74706
G1 X134.862 Y129.961 E18.85942
G1 X134.706 Y132.709 E18.973
G1 X134.627 Y135.457 E19.08644
G1 X134.632 Y138.554 E19.21423
G1 X134.631 Y139.172 E19.23973
G1 X134.564 Y140.105 E19.27833
G1 X134.498 Y140.854 E19.30935
G1 X134.426 Y141.554 E19.33839
G1 X134.347 Y142.004 E19.35724
G1 X134.125 Y142.89 E19.39493
G1 X133.934 Y143.601 E19.42531
G1 X133.747 Y144.265 E19.45377
G1 X133.589 Y144.703 E19.47299
G1 X133.211 Y145.547 E19.51115
G1 X132.895 Y146.224 E19.54198
G1 X132.604 Y146.828 E19.56964
G1 X132.372 Y147.231 E19.58883
G1 X131.851 Y148.002 E19.62723
G1 X131.448 Y148.576 E19.65616
G1 X131.018 Y149.174 E19.68656
G1 X130.718 Y149.532 E19.70583
G1 X130.121 Y150.148 E19.74123
G1 X129.536 Y150.733 E19.77537
G1 X129.067 Y151.188 E19.80233
G1 X128.719 Y151.48 E19.82107
G1 X128.009 Y151.995 E19.85727
G1 X127.348 Y152.458 E19.89057
G1 X126.78 Y152.843 E19.91888
G1 X126.385 Y153.072 E19.93772
G1 X125.594 Y153.456 E19.974
G1 X124.924 Y153.768 E20.0045
G1 X124.254 Y154.069 E20.03481
G1 X123.821 Y154.227 E20.05383
G1 X122.951 Y154.475 E20.09116
G1 X122.208 Y154.674 E20.1229
G1 X121.568 Y154.837 E20.15015
G1 X121.107 Y154.919 E20.16947
G1 X120.224 Y155.01 E20.2061
G1 X119.38 Y155.083 E20.24105
G1 X118.77 Y155.128 E20.26629
G1 X118.583 Y155.137 E20.27402
G1 X117.788 Y155.149 E20.30683
G1 X79.211 Y155.149 E21.89864
G1 X78.513 Y155.139 E21.92745
G1 X78.01 Y155.092 E21.94829
G1 X77.52 Y154.966 E21.96917
G1 X77.057 Y154.764 E21.99001
G1 X76.631 Y154.492 E22.01087
G1 X76.253 Y154.157 E22.03171
G1 X75.932 Y153.766 E22.05259
G1 X75.677 Y153.329 E22.07346
G1 X75.495 Y152.858 E22.0943
G1 X75.388 Y152.364 E22.11516
G1 X75.352 Y151.695 E22.1428
G1 X75.351 Y136.693 E22.76183
G1 X75.311 Y133.895 E22.8773
G1 X75.196 Y131.178 E22.98951
G1 X75.001 Y128.428 E23.10327
G1 X74.734 Y125.729 E23.21519
G1 X74.385 Y123.01 E23.3283
G1 X73.933 Y120.139 E23.44823
G1 X73.861 Y119.529 E23.47357
G1 X73.851 Y119.12 E23.49045
G1 X73.851 Y91.213 E24.64199
G1 X73.862 Y90.439 E24.67393
G1 X73.939 Y87.727 E24.78588
G1 X73.939 Y85.009 E24.89804
G1 X73.895 Y83.447 E24.96252
G1 X73.9 Y83.349 E24.96657
G1 X73.852 Y81.714 E25.03406
G1 X73.851 Y56.681 E26.06701
G1 X73.86 Y56.016 E26.09445
G1 X73.907 Y55.512 E26.11534
G1 X74.032 Y55.023 E26.13616
G1 X74.234 Y54.559 E26.15704
G1 X74.505 Y54.133 E26.17788
M204 S3000
G1 F3000 E21.17788
G0 F4200 X83.36 Y129.598
M204 S500
;TYPE:SUPPORT
G1 F3000 E26.24024
G1 F1080 X83.64 Y129.598 E26.25179
G1 X83.908 Y129.664 E26.26318
G1 X84.155 Y129.794 E26.2747
G1 X84.361 Y129.976 E26.28604
G1 X84.521 Y130.208 E26.29767
G1 X84.617 Y130.458 E26.30872
G1 X84.65 Y130.74 E26.32044
G1 X84.617 Y131.022 E26.33215
G1 X84.521 Y131.272 E26.3432
G1 X84.361 Y131.504 E26.35483
G1 X84.155 Y131.686 E26.36617
G1 X83.908 Y131.816 E26.37769
G1 X83.64 Y131.882 E26.38908
G1 X83.36 Y131.882 E26.40064
G1 X83.092 Y131.816 E26.41202
G1 X82.845 Y131.686 E26.42354
G1 X82.639 Y131.504 E26.43488
G1 X82.479 Y131.272 E26.44651
G1 X82.383 Y131.022 E26.45756
G1 X82.35 Y130.74 E26.46928
G1 X82.383 Y130.458 E26.48099
G1 X82.479 Y130.208 E26.49204
G1 X82.639 Y129.976 E26.50367
G1 X82.845 Y129.794 E26.51502
G1 X83.092 Y129.664 E26.52653
G1 X83.36 Y129.598 E26.53792
M204 S3000
G0 F4200 X83 Y129.878
M204 S500
G1 F1080 X83 Y131.601 E26.60902
M204 S3000
G0 F4200 X82.531 Y131
M204 S500
G1 F1080 X84.466 Y131 E26.68886
M204 S3000
G0 F4200 X84 Y131.602
M204 S500
G1 F1080 X84 Y129.879 E26.75996
M204 S3000
G0 F4200 X84.166 Y130
M204 S500
G1 F1080 X82.833 Y130 E26.81497
M204 S3000
G1 F3000 E21.81497
G0 F4200 X88.35 Y130.74
M204 S500
G1 F3000 E26.87733
G1 F1080 X88.383 Y130.458 E26.88904
G1 X88.479 Y130.208 E26.90009
G1 X88.639 Y129.976 E26.91172
G1 X88.845 Y129.794 E26.92307
G1 X89.092 Y129.664 E26.93458
G1 X89.36 Y129.598 E26.94597
G1 X89.64 Y129.598 E26.95753
G1 X89.908 Y129.664 E26.96891
G1 X90.155 Y129.794 E26.98043
G1 X90.361 Y129.976 E26.99177
G1 X90.521 Y130.208 E27.0034
G1 X90.617 Y130.458 E27.01445
G1 X90.65 Y130.74 E27.02617
G1 X90.617 Y131.022 E27.03789
G1 X90.521 Y131.272 E27.04894
G1 X90.361 Y131.504 E27.06056
G1 X90.155 Y131.686 E27.07191
G1 X89.908 Y131.816 E27.08342
G1 X89.64 Y131.882 E27.09481
G1 X89.36 Y131.882 E27.10637
G1 X89.092 Y131.816 E27.11776
G1 X88.845 Y131.686 E27.12927
G1 X88.639 Y131.504 E27.14062
G1 X88.479 Y131.272 E27.15225
G1 X88.383 Y131.022 E27.1633
G1 X88.35 Y130.74 E27.17501
M204 S3000
G0 F4200 X88.531 Y131
M204 S500
G1 F1080 X90.466 Y131 E27.25486
M204 S3000
G0 F4200 X90 Y131.602
M204 S500
G1 F1080 X90 Y129.879 E27.32595
M204 S3000
G0 F4200 X90.166 Y130
M204 S500
G1 F1080 X88.833 Y130 E27.38096
M204 S3000
G0 F4200 X89 Y129.878
M204 S500
G1 F1080 X89 Y131.601 E27.45205
M204 S3000
G1 F3000 E22.45205
G0 F4200 X89.36 Y146.118
M204 S500
G1 F3000 E27.51442
G1 F1080 X89.64 Y146.118 E27.52597
G1 X89.908 Y146.184 E27.53736
G1 X90.155 Y146.314 E27.54888
G1 X90.361 Y146.496 E27.56022
G1 X90.521 Y146.728 E27.57185
G1 X90.617 Y146.978 E27.5829
G1 X90.65 Y147.26 E27.59461
G1 X90.617 Y147.542 E27.60633
G1 X90.521 Y147.792 E27.61738
G1 X90.361 Y148.024 E27.62901
G1 X90.155 Y148.206 E27.64035
G1 X89.908 Y148.336 E27.65187
G1 X89.64 Y148.402 E27.66326
G1 X89.36 Y148.402 E27.67481
G1 X89.092 Y148.336 E27.6862
G1 X88.845 Y148.206 E27.69772
G1 X88.639 Y148.024 E27.70906
G1 X88.479 Y147.792 E27.72069
G1 X88.383 Y147.542 E27.73174
G1 X88.35 Y147.26 E27.74346
G1 X88.383 Y146.978 E27.75517
G1 X88.479 Y146.728 E27.76622
G1 X88.639 Y146.496 E27.77785
G1 X88.845 Y146.314 E27.78919
G1 X89.092 Y146.184 E27.80071
G1 X89.36 Y146.118 E27.8121
M204 S3000
G0 F4200 X89 Y146.398
M204 S500
G1 F1080 X89 Y148.121 E27.8832
M204 S3000
G0 F4200 X88.832 Y148
M204 S500
G1 F1080 X90.165 Y148 E27.9382
M204 S3000
G0 F4200 X90 Y148.122
M204 S500
G1 F1080 X90 Y146.399 E28.0093
M204 S3000
G0 F4200 X90.467 Y147
M204 S500
G1 F1080 X88.532 Y147 E28.08914
M204 S3000
G1 F3000 E23.08914
G0 F4200 X84.65 Y147.26
M204 S500
G1 F3000 E28.1515
G1 F1080 X84.617 Y147.542 E28.16322
G1 X84.521 Y147.792 E28.17427
G1 X84.361 Y148.024 E28.1859
G1 X84.155 Y148.206 E28.19724
G1 X83.908 Y148.336 E28.20876
G1 X83.64 Y148.402 E28.22015
G1 X83.36 Y148.402 E28.2317
G1 X83.092 Y148.336 E28.24309
G1 X82.845 Y148.206 E28.25461
G1 X82.639 Y148.024 E28.26595
G1 X82.479 Y147.792 E28.27758
G1 X82.383 Y147.542 E28.28863
G1 X82.35 Y147.26 E28.30035
G1 X82.383 Y146.978 E28.31206
G1 X82.479 Y146.728 E28.32311
G1 X82.639 Y146.496 E28.33474
G1 X82.845 Y146.314 E28.34608
G1 X83.092 Y146.184 E28.3576
G1 X83.36 Y146.118 E28.36899
G1 X83.64 Y146.118 E28.38054
G1 X83.908 Y146.184 E28.39193
G1 X84.155 Y146.314 E28.40345
G1 X84.361 Y146.496 E28.41479
G1 X84.521 Y146.728 E28.42642
G1 X84.617 Y146.978 E28.43747
G1 X84.65 Y147.26 E28.44919
M204 S3000
G0 F4200 X84.467 Y147
M204 S500
G1 F1080 X82.532 Y147 E28.52903
M204 S3000
G0 F4200 X83 Y146.398
M204 S500
G1 F1080 X83 Y148.121 E28.60013
M204 S3000
G0 F4200 X82.832 Y148
M204 S500
G1 F1080 X84.165 Y148 E28.65513
M204 S3000
G0 F4200 X84 Y148.122
M204 S500
G1 F1080 X84 Y146.399 E28.72623
M204 S3000
G1 F3000 E23.72623
;MESH:hip-base-plate.stl
G0 F4200 X80.831 Y61.404
M204 S500
;TYPE:WALL-INNER
G1 F3000 E28.78859
G1 F1080 X81.501 Y61.32 E28.81645
G1 X82.059 Y60.937 E28.84438
G1 X82.372 Y60.337 E28.87231
G1 X82.372 Y59.663 E28.90012
G1 X82.059 Y59.063 E28.92804
G1 X81.501 Y58.68 E28.95597
G1 X80.831 Y58.596 E28.98383
G1 X80.208 Y58.832 E29.01132
G1 X79.749 Y59.34 E29.03957
G1 X79.587 Y60 E29.06761
G1 X79.748 Y60.657 E29.09553
G1 X80.197 Y61.162 E29.12341
G1 X80.831 Y61.404 E29.15141
M204 S3000
G0 F4200 X80.879 Y61.004
M204 S500
;TYPE:WALL-OUTER
G1 F1080 X81.358 Y60.944 E29.17133
G1 X81.757 Y60.67 E29.1913
G1 X81.981 Y60.241 E29.21127
G1 X81.981 Y59.759 E29.23116
G1 X81.757 Y59.33 E29.25113
G1 X81.358 Y59.056 E29.2711
G1 X80.879 Y58.996 E29.29102
G1 X80.435 Y59.164 E29.31061
G1 X80.105 Y59.529 E29.33092
G1 X79.99 Y60 E29.35092
G1 X80.105 Y60.47 E29.37089
G1 X80.426 Y60.831 E29.39082
G1 X80.879 Y61.004 E29.41083
M204 S3000
G0 F4200 X81.077 Y60.98
G0 X81.13 Y61.413
G1 F3000 E24.41083
G0 F4200 X81.501 Y79.32
M204 S500
;TYPE:WALL-INNER
G1 F3000 E29.47319
G1 F1080 X82.059 Y78.937 E29.50112
G1 X82.372 Y78.337 E29.52905
G1 X82.372 Y77.663 E29.55686
G1 X82.059 Y77.063 E29.58478
G1 X81.501 Y76.68 E29.61271
G1 X80.831 Y76.596 E29.64057
G1 X80.208 Y76.832 E29.66806
G1 X79.749 Y77.34 E29.69631
G1 X79.587 Y78 E29.72435
G1 X79.748 Y78.657 E29.75227
G1 X80.197 Y79.162 E29.78015
G1 X80.831 Y79.404 E29.80815
G1 X81.501 Y79.32 E29.83601
M204 S3000
G0 F4200 X81.358 Y78.944
M204 S500
;TYPE:WALL-OUTER
G1 F1080 X81.757 Y78.67 E29.85599
G1 X81.981 Y78.241 E29.87596
G1 X81.981 Y77.759 E29.89585
G1 X81.757 Y77.33 E29.91581
G1 X81.358 Y77.056 E29.93579
G1 X80.879 Y76.996 E29.95571
G1 X80.435 Y77.164 E29.9753
G1 X80.105 Y77.529 E29.9956
G1 X79.99 Y78 E30.01561
G1 X80.105 Y78.47 E30.03557
G1 X80.426 Y78.831 E30.0555
G1 X80.879 Y79.004 E30.07551
G1 X81.358 Y78.944 E30.09543
M204 S3000
G0 F4200 X81.522 Y78.831
G0 X81.768 Y79.191
G1 F3000 E25.09543
G0 F4200 X128.831 Y79.404
M204 S500
;TYPE:WALL-INNER
G1 F3000 E30.1578
G1 F1080 X129.501 Y79.32 E30.18566
G1 X130.059 Y78.937 E30.21359
G1 X130.372 Y78.337 E30.24151
G1 X130.372 Y77.663 E30.26932
G1 X130.059 Y77.063 E30.29725
G1 X129.501 Y76.68 E30.32517
G1 X128.831 Y76.596 E30.35304
G1 X128.208 Y76.832 E30.38053
G1 X127.749 Y77.34 E30.40878
G1 X127.587 Y78 E30.43682
G1 X127.748 Y78.657 E30.46473
G1 X128.197 Y79.162 E30.49261
G1 X128.831 Y79.404 E30.52062
M204 S3000
G0 F4200 X128.879 Y79.004
M204 S500
;TYPE:WALL-OUTER
G1 F1080 X129.358 Y78.944 E30.54054
G1 X129.757 Y78.67 E30.56051
G1 X129.981 Y78.241 E30.58048
G1 X129.981 Y77.759 E30.60037
G1 X129.757 Y77.33 E30.62034
G1 X129.358 Y77.056 E30.64031
G1 X128.879 Y76.996 E30.66023
G1 X128.435 Y77.164 E30.67982
G1 X128.105 Y77.529 E30.70012
G1 X127.99 Y78 E30.72013
G1 X128.105 Y78.47 E30.74009
G1 X128.426 Y78.831 E30.76003
G1 X128.879 Y79.004 E30.78004
M204 S3000
G0 F4200 X129.077 Y78.98
G0 X129.13 Y79.413
G1 F3000 E25.78004
G0 F4200 X128.831 Y61.404
M204 S500
;TYPE:WALL-INNER
G1 F3000 E30.8424
G1 F1080 X129.501 Y61.32 E30.87026
G1 X130.059 Y60.937 E30.89819
G1 X130.372 Y60.337 E30.92611
G1 X130.372 Y59.663 E30.95392
G1 X130.059 Y59.063 E30.98185
G1 X129.501 Y58.68 E31.00978
G1 X128.831 Y58.596 E31.03764
G1 X128.208 Y58.832 E31.06513
G1 X127.749 Y59.34 E31.09338
G1 X127.587 Y60 E31.12142
