;FLAVOR:Marlin
;TIME:2124
;Filament used: 2.27154m
;Layer height: 0.3
;MINX:73.454
;MINY:86.954
;MINZ:0.25
;MAXX:136.546
;MAXY:155.546
;MAXZ:12.85
;Generated with Cura_SteamEngine 4.7.1
M140 S60
M105
M190 S60
M104 S200
M105
M109 S200
M82 ;absolute extrusion mode
; Script based on an original created by tjjfvi (https://github.com/tjjfvi)
; An up-to-date version of the tjjfvi's original script can be found
; here:  https://csi.t6.fyi/
; Note - This script will only work in Cura V4.2 and above!
; --- Global Settings
; layer_height = 0.3
; smooth_spiralized_contours = True
; magic_mesh_surface_mode = normal
; machine_extruder_count = 1
; --- Single Extruder Settings
; speed_z_hop = 10
; retraction_amount = 5
; retraction_hop = 0.075
; retraction_hop_enabled = True
; retraction_enable = True
; retraction_speed = 50
; retraction_retract_speed = 50
; retraction_prime_speed = 50
; speed_travel = 120

G21 ;metric values
G90 ;absolute positioning
M82 ;set extruder to absolute mode
M107 ;start with the fan off
G28 X0 Y0 ;move X/Y to min endstops
G28 Z0 ;move Z to min endstops
G1 Z15.0 F120 ;move the platform down 15mm
G92 E0 ;zero the extruded length
G1 F200 E3 ;extrude 3mm of feed stock
G92 E0 ;zero the extruded length again
G1 F120
G0 Y20 F120
M117 Printing...
G5
G92 E0
G92 E0
G1 F3000 E-5
;LAYER_COUNT:43
;LAYER:0
M106 S51
M204 S3000
M205 X10 Y10
G1 F600 Z0.325
G0 F4200 X74.848 Y87.723 Z0.325
M204 S500
;TYPE:SKIRT
G1 F600 Z0.25
G1 F3000 E0.06236
G1 F1800 X75.294 Y87.426 E0.08447
G1 X75.78 Y87.198 E0.10662
G1 X76.293 Y87.045 E0.12871
G1 X76.958 Y86.964 E0.15636
G1 X77.38 Y86.954 E0.17377
G1 X132.295 Y86.954 E2.43975
G1 X132.993 Y86.964 E2.46856
G1 X133.526 Y87.012 E2.49064
G1 X134.047 Y87.138 E2.51276
G1 X134.544 Y87.341 E2.53491
G1 X135.004 Y87.615 E2.557
G1 X135.419 Y87.954 E2.57911
G1 X135.779 Y88.351 E2.60123
G1 X136.076 Y88.798 E2.62337
G1 X136.303 Y89.283 E2.64547
G1 X136.455 Y89.797 E2.66759
G1 X136.536 Y90.459 E2.69511
G1 X136.546 Y90.88 E2.71248
G1 X136.546 Y118.775 E3.86352
G1 X136.522 Y120.459 E3.93302
G1 X136.494 Y121.454 E3.97409
G1 X136.494 Y124.185 E4.08678
G1 X136.525 Y125.625 E4.14622
G1 X136.546 Y126.377 E4.17726
G1 X136.546 Y151.259 E5.20397
G1 X136.537 Y151.986 E5.23397
G1 X136.49 Y152.519 E5.25605
G1 X136.365 Y153.041 E5.2782
G1 X136.163 Y153.537 E5.3003
G1 X135.89 Y153.998 E5.32241
G1 X135.552 Y154.414 E5.34452
G1 X135.155 Y154.775 E5.36667
G1 X134.709 Y155.072 E5.38878
G1 X134.224 Y155.3 E5.41089
G1 X133.711 Y155.454 E5.43299
G1 X133.042 Y155.536 E5.4608
G1 X132.62 Y155.546 E5.47822
G1 X77.711 Y155.546 E7.74395
G1 X77.013 Y155.537 E7.77276
G1 X76.479 Y155.49 E7.79488
G1 X75.958 Y155.364 E7.81699
G1 X75.461 Y155.162 E7.83913
G1 X75 Y154.889 E7.86124
G1 X74.585 Y154.55 E7.88335
G1 X74.224 Y154.154 E7.90546
G1 X73.927 Y153.708 E7.92757
G1 X73.699 Y153.223 E7.94968
G1 X73.546 Y152.709 E7.97181
G1 X73.464 Y152.038 E7.99971
G1 X73.454 Y151.608 E8.01746
G1 X73.454 Y126.706 E9.045
G1 X73.478 Y125.041 E9.11371
G1 X73.506 Y124.046 E9.15478
G1 X73.506 Y121.315 E9.26747
G1 X73.474 Y119.847 E9.32806
G1 X73.454 Y119.123 E9.35794
G1 X73.454 Y91.175 E10.51117
G1 X73.463 Y90.51 E10.53862
G1 X73.511 Y89.976 E10.56074
G1 X73.637 Y89.455 E10.58286
G1 X73.839 Y88.959 E10.60496
G1 X74.112 Y88.498 E10.62706
G1 X74.451 Y88.083 E10.64918
G1 X74.848 Y87.723 E10.67129
M204 S3000
G0 F4200 X75.231 Y87.934
M204 S500
G1 F1800 X75.668 Y87.678 E10.69219
G1 X76.139 Y87.495 E10.71304
G1 X76.633 Y87.389 E10.73389
G1 X77.29 Y87.352 E10.76104
G1 X132.289 Y87.351 E13.03048
G1 X132.987 Y87.361 E13.05929
G1 X133.49 Y87.408 E13.08013
G1 X133.98 Y87.534 E13.10101
G1 X134.443 Y87.736 E13.12185
G1 X134.869 Y88.008 E13.14271
G1 X135.247 Y88.343 E13.16355
G1 X135.568 Y88.734 E13.18443
G1 X135.823 Y89.171 E13.2053
G1 X136.005 Y89.642 E13.22614
G1 X136.112 Y90.136 E13.247
G1 X136.148 Y90.79 E13.27402
G1 X136.149 Y118.769 E14.42853
G1 X136.125 Y120.448 E14.49782
G1 X136.097 Y121.443 E14.53889
G1 X136.097 Y124.193 E14.65237
G1 X136.129 Y125.637 E14.71196
G1 X136.148 Y126.283 E14.73863
G1 X136.149 Y151.254 E15.76902
G1 X136.14 Y151.981 E15.79902
G1 X136.094 Y152.484 E15.81986
G1 X135.969 Y152.974 E15.84073
G1 X135.768 Y153.438 E15.86159
G1 X135.497 Y153.864 E15.88243
G1 X135.162 Y154.243 E15.9033
G1 X134.772 Y154.564 E15.92414
G1 X134.336 Y154.82 E15.94501
G1 X133.865 Y155.004 E15.96587
G1 X133.371 Y155.111 E15.98673
G1 X132.71 Y155.148 E16.01405
G1 X77.716 Y155.149 E18.28328
G1 X77.018 Y155.14 E18.31209
G1 X76.514 Y155.093 E18.33297
G1 X76.025 Y154.968 E18.3538
G1 X75.561 Y154.767 E18.37467
G1 X75.134 Y154.496 E18.39553
G1 X74.756 Y154.161 E18.41638
G1 X74.435 Y153.771 E18.43722
G1 X74.179 Y153.334 E18.45812
G1 X73.996 Y152.863 E18.47897
G1 X73.889 Y152.369 E18.49982
G1 X73.852 Y151.694 E18.52772
G1 X73.851 Y126.711 E19.5586
G1 X73.875 Y125.052 E19.62706
G1 X73.903 Y124.057 E19.66814
G1 X73.903 Y121.307 E19.78161
G1 X73.871 Y119.863 E19.84121
G1 X73.852 Y119.217 E19.86788
G1 X73.851 Y91.181 E21.02474
G1 X73.86 Y90.516 E21.05218
G1 X73.907 Y90.012 E21.07307
G1 X74.032 Y89.523 E21.09389
G1 X74.234 Y89.059 E21.11478
G1 X74.505 Y88.633 E21.13561
G1 X74.84 Y88.254 E21.15648
G1 X75.231 Y87.934 E21.17733
M204 S3000
G1 F3000 E16.17733
;MESH:hip-servo-cage.stl
G0 F4200 X124.746 Y117.255
M204 S500
;TYPE:WALL-INNER
G1 F3000 E21.23969
G1 F1080 X125.644 Y116.973 E21.27853
G1 X125.644 Y92.856 E22.27368
G1 X108.289 Y92.856 E22.98981
G1 X107.927 Y93.551 E23.02214
G1 X124.746 Y117.255 E24.22145
M204 S3000
G0 F4200 X124.9 Y116.797
M204 S500
;TYPE:WALL-OUTER
G1 F1080 X125.253 Y116.686 E24.23672
G1 X125.253 Y116.644 E24.23845
G1 X125.253 Y93.247 E25.20389
G1 X108.613 Y93.247 E25.89051
G1 X108.526 Y93.247 E25.8941
G1 X108.384 Y93.52 E25.9068
G1 X108.434 Y93.59 E25.91035
G1 X124.876 Y116.763 E27.08279
G1 X124.9 Y116.797 E27.0845
M204 S3000
G0 F4200 X125.09 Y116.737
G0 X125.22 Y117.153
G1 F3000 E22.0845
G0 F4200 X85.254 Y117.255
M204 S500
;TYPE:WALL-INNER
G1 F3000 E27.14687
G1 F1080 X102.073 Y93.551 E28.34617
G1 X101.711 Y92.856 E28.37851
G1 X84.356 Y92.856 E29.09463
G1 X84.356 Y116.973 E30.08978
G1 X85.254 Y117.255 E30.12862
M204 S3000
G0 F4200 X85.1 Y116.797
M204 S500
;TYPE:WALL-OUTER
G1 F1080 X85.124 Y116.763 E30.13034
G1 X101.566 Y93.59 E31.30277
G1 X101.616 Y93.52 E31.30632
G1 X101.474 Y93.247 E31.31902
G1 X101.387 Y93.247 E31.32261
G1 X84.747 Y93.247 E32.00923
G1 X84.747 Y116.644 E32.97467
G1 X84.747 Y116.686 E32.97641
G1 X85.1 Y116.797 E32.99167
M204 S3000
G0 F4200 X85.124 Y116.763
G0 X85.216 Y116.634
G0 X85.57 Y116.886
G1 F3000 E27.99167
G0 F4200 X88.289 Y117.144
M204 S500
;TYPE:WALL-INNER
G1 F3000 E33.05404
G1 F1080 X121.711 Y117.144 E34.43314
G1 X122.073 Y116.449 E34.46548
G1 X105.161 Y92.614 E35.67141
G1 X105 Y92.387 E35.6829
G1 X104.839 Y92.614 E35.68969
G1 X87.927 Y116.449 E36.89563
G1 X88.289 Y117.144 E36.92796
M204 S3000
G0 F4200 X88.526 Y116.753
M204 S500
;TYPE:WALL-OUTER
G1 F1080 X121.474 Y116.753 E38.28751
G1 X121.616 Y116.48 E38.30021
G1 X105 Y93.063 E39.48501
G1 X88.384 Y116.48 E40.66981
G1 X88.526 Y116.753 E40.68251
M204 S3000
G0 F4200 X88.726 Y116.753
G0 X88.726 Y117.189
G1 F3000 E35.68251
G0 F4200 X132.356 Y118.856
M204 S500
;TYPE:WALL-INNER
G1 F3000 E40.74487
G1 F1080 X77.644 Y118.856 E43.00247
G1 X77.644 Y91.144 E44.14596
G1 X132.356 Y91.144 E46.40356
G1 X132.356 Y118.856 E47.54705
M204 S3000
G0 F4200 X132.747 Y119.247
M204 S500
;TYPE:WALL-OUTER
G1 F1080 X77.253 Y119.247 E49.83692
G1 X77.253 Y90.753 E51.01268
G1 X132.747 Y90.753 E53.30255
G1 X132.747 Y119.247 E54.47831
M204 S3000
G0 F4200 X132.547 Y119.247
G0 X132.311 Y118.811
G0 X131.964 Y118.464
M204 S500
;TYPE:SKIN
G1 F1080 X78.036 Y118.464 E56.76522
G1 X78.036 Y91.536 E57.90714
G1 X131.964 Y91.536 E60.19405
G1 X131.964 Y118.464 E61.33598
M204 S3000
G1 F3000 E56.33598
G0 F4200 X126.036 Y117.26
M204 S500
G1 F3000 E61.39834
G1 F1080 X126.036 Y92.464 E62.44985
G1 X108.051 Y92.464 E63.21254
G1 X107.468 Y93.583 E63.26605
G1 X124.591 Y117.714 E64.52081
G1 X126.036 Y117.26 E64.58504
M204 S3000
G1 F3000 E59.58504
G0 F4200 X122.532 Y116.417
M204 S500
G1 F3000 E64.64741
G1 F1080 X105 Y91.71 E65.93213
G1 X87.468 Y116.417 E67.21685
G1 X88.051 Y117.536 E67.27036
G1 X121.949 Y117.536 E68.70786
G1 X122.532 Y116.417 E68.76137
M204 S3000
G1 F3000 E63.76137
G0 F4200 X102.532 Y93.583
M204 S500
G1 F3000 E68.82373
G1 F1080 X101.949 Y92.464 E68.87724
G1 X83.964 Y92.464 E69.63992
G1 X83.964 Y117.26 E70.69144
G1 X85.409 Y117.714 E70.75567
G1 X102.532 Y93.583 E72.01044
M204 S3000
G1 F3000 E67.01044
G0 F4200 X131.791 Y91.978
M204 S500
G1 F3000 E72.0728
G1 F1080 X131.521 Y91.708 E72.08899
M204 S3000
G0 F4200 X130.944 Y91.708
M204 S500
G1 F1080 X131.791 Y92.555 E72.13979
M204 S3000
G0 F4200 X131.791 Y93.132
M204 S500
G1 F1080 X130.367 Y91.708 E72.22519
M204 S3000
G0 F4200 X129.79 Y91.708
M204 S500
G1 F1080 X131.791 Y93.709 E72.34519
M204 S3000
G0 F4200 X131.791 Y94.286
M204 S500
G1 F1080 X129.213 Y91.708 E72.4998
M204 S3000
G0 F4200 X128.636 Y91.708
M204 S500
G1 F1080 X131.791 Y94.863 E72.68901
M204 S3000
G0 F4200 X131.791 Y95.44
M204 S500
G1 F1080 X128.059 Y91.708 E72.91283
M204 S3000
G0 F4200 X127.482 Y91.708
M204 S500
G1 F1080 X131.791 Y96.017 E73.17125
M204 S3000
G0 F4200 X131.791 Y96.594
M204 S500
G1 F1080 X126.905 Y91.708 E73.46427
M204 S3000
G0 F4200 X126.328 Y91.708
M204 S500
G1 F1080 X131.791 Y97.171 E73.7919
M204 S3000
G0 F4200 X131.791 Y97.748
M204 S500
G1 F1080 X125.751 Y91.708 E74.15413
M204 S3000
G0 F4200 X125.174 Y91.708
M204 S500
G1 F1080 X125.757 Y92.291 E74.18909
M204 S3000
G0 F4200 X125.18 Y92.291
M204 S500
G1 F1080 X124.597 Y91.708 E74.22406
M204 S3000
G0 F4200 X124.02 Y91.708
M204 S500
G1 F1080 X124.603 Y92.291 E74.25902
M204 S3000
G0 F4200 X124.026 Y92.291
M204 S500
G1 F1080 X123.443 Y91.708 E74.29399
M204 S3000
G0 F4200 X122.866 Y91.708
M204 S500
G1 F1080 X123.449 Y92.291 E74.32895
M204 S3000
G0 F4200 X122.872 Y92.291
M204 S500
G1 F1080 X122.289 Y91.708 E74.36391
M204 S3000
G0 F4200 X121.712 Y91.708
M204 S500
G1 F1080 X122.295 Y92.291 E74.39888
M204 S3000
G0 F4200 X121.718 Y92.291
M204 S500
G1 F1080 X121.135 Y91.708 E74.43384
M204 S3000
G0 F4200 X120.558 Y91.708
M204 S500
G1 F1080 X121.141 Y92.291 E74.4688
M204 S3000
G0 F4200 X120.564 Y92.291
M204 S500
G1 F1080 X119.981 Y91.708 E74.50377
M204 S3000
G0 F4200 X119.404 Y91.708
M204 S500
G1 F1080 X119.987 Y92.291 E74.53873
M204 S3000
G0 F4200 X119.41 Y92.291
M204 S500
G1 F1080 X118.827 Y91.708 E74.5737
M204 S3000
G0 F4200 X118.25 Y91.708
M204 S500
G1 F1080 X118.833 Y92.291 E74.60866
M204 S3000
G0 F4200 X118.256 Y92.291
M204 S500
G1 F1080 X117.673 Y91.708 E74.64362
M204 S3000
G0 F4200 X117.096 Y91.708
M204 S500
G1 F1080 X117.679 Y92.291 E74.67859
M204 S3000
G0 F4200 X117.102 Y92.291
M204 S500
G1 F1080 X116.519 Y91.708 E74.71355
M204 S3000
G0 F4200 X115.942 Y91.708
M204 S500
G1 F1080 X116.525 Y92.291 E74.74851
M204 S3000
G0 F4200 X115.948 Y92.291
M204 S500
G1 F1080 X115.365 Y91.708 E74.78348
M204 S3000
G0 F4200 X114.788 Y91.708
M204 S500
G1 F1080 X115.371 Y92.291 E74.81844
M204 S3000
G0 F4200 X114.794 Y92.291
M204 S500
G1 F1080 X114.211 Y91.708 E74.85341
M204 S3000
G0 F4200 X113.634 Y91.708
M204 S500
G1 F1080 X114.217 Y92.291 E74.88837
M204 S3000
G0 F4200 X113.64 Y92.291
M204 S500
G1 F1080 X113.057 Y91.708 E74.92333
M204 S3000
G0 F4200 X112.48 Y91.708
M204 S500
G1 F1080 X113.063 Y92.291 E74.9583
M204 S3000
G0 F4200 X112.486 Y92.291
M204 S500
G1 F1080 X111.903 Y91.708 E74.99326
M204 S3000
G0 F4200 X111.326 Y91.708
M204 S500
G1 F1080 X111.909 Y92.291 E75.02822
M204 S3000
G0 F4200 X111.332 Y92.291
M204 S500
G1 F1080 X110.749 Y91.708 E75.06319
M204 S3000
G0 F4200 X110.172 Y91.708
M204 S500
G1 F1080 X110.755 Y92.291 E75.09815
M204 S3000
G0 F4200 X110.178 Y92.291
M204 S500
G1 F1080 X109.595 Y91.708 E75.13312
M204 S3000
G0 F4200 X109.018 Y91.708
M204 S500
G1 F1080 X109.601 Y92.291 E75.16808
M204 S3000
G0 F4200 X109.024 Y92.291
M204 S500
G1 F1080 X108.441 Y91.708 E75.20304
M204 S3000
G0 F4200 X107.864 Y91.708
M204 S500
G1 F1080 X108.447 Y92.291 E75.23801
M204 S3000
G0 F4200 X107.92 Y92.341
M204 S500
G1 F1080 X107.287 Y91.708 E75.27597
M204 S3000
G0 F4200 X106.71 Y91.708
M204 S500
G1 F1080 X107.722 Y92.72 E75.33666
M204 S3000
G0 F4200 X107.524 Y93.099
M204 S500
G1 F1080 X106.133 Y91.708 E75.42008
M204 S3000
G0 F4200 X105.556 Y91.708
M204 S500
G1 F1080 X107.326 Y93.478 E75.52623
G1 X107.395 Y93.547
M204 S3000
G0 F4200 X107.182 Y94.488
M204 S500
G1 F1080 X109.649 Y96.955 E75.67418
G1 X109.718 Y97.024
M204 S3000
G0 F4200 X108.592 Y96.475
M204 S500
G1 F1080 X111.059 Y98.942 E75.82213
G1 X111.128 Y99.011
M204 S3000
G0 F4200 X110.001 Y98.461
M204 S500
G1 F1080 X112.469 Y100.929 E75.97015
G1 X112.538 Y100.998
M204 S3000
G0 F4200 X111.411 Y100.448
M204 S500
G1 F1080 X113.879 Y102.916 E76.11816
G1 X113.948 Y102.985
M204 S3000
G0 F4200 X112.821 Y102.435
M204 S500
G1 F1080 X115.289 Y104.903 E76.26617
G1 X115.358 Y104.972
M204 S3000
G0 F4200 X114.23 Y104.421
M204 S500
G1 F1080 X116.699 Y106.89 E76.41424
G1 X116.768 Y106.959
M204 S3000
G0 F4200 X115.64 Y106.408
M204 S500
G1 F1080 X118.108 Y108.876 E76.56225
G1 X118.177 Y108.945
M204 S3000
G0 F4200 X117.049 Y108.394
M204 S500
G1 F1080 X119.518 Y110.863 E76.71032
G1 X119.587 Y110.932
M204 S3000
G0 F4200 X118.459 Y110.381
M204 S500
G1 F1080 X120.928 Y112.85 E76.85839
G1 X120.997 Y112.919
M204 S3000
G0 F4200 X119.868 Y112.367
M204 S500
G1 F1080 X122.338 Y114.837 E77.00652
G1 X122.407 Y114.906
M204 S3000
G0 F4200 X121.278 Y114.354
M204 S500
G1 F1080 X123.748 Y116.824 E77.15465
G1 X123.817 Y116.893
M204 S3000
G0 F4200 X122.687 Y116.34
M204 S500
G1 F1080 X124.638 Y118.291 E77.27166
M204 S3000
G0 F4200 X124.763 Y117.839
M204 S500
G1 F1080 X125.215 Y118.291 E77.29877
M204 S3000
G0 F4200 X125.792 Y118.291
M204 S500
G1 F1080 X125.202 Y117.701 E77.33415
M204 S3000
G0 F4200 X125.641 Y117.563
M204 S500
G1 F1080 X126.369 Y118.291 E77.37781
M204 S3000
G0 F4200 X126.946 Y118.291
M204 S500
G1 F1080 X126.08 Y117.425 E77.42975
M204 S3000
G0 F4200 X126.207 Y116.975
M204 S500
G1 F1080 X127.523 Y118.291 E77.50867
M204 S3000
G0 F4200 X128.1 Y118.291
M204 S500
G1 F1080 X126.207 Y116.398 E77.6222
M204 S3000
G0 F4200 X126.207 Y115.821
M204 S500
G1 F1080 X128.677 Y118.291 E77.77033
M204 S3000
G0 F4200 X129.254 Y118.291
M204 S500
G1 F1080 X126.207 Y115.244 E77.95306
M204 S3000
G0 F4200 X126.207 Y114.667
M204 S500
G1 F1080 X129.831 Y118.291 E78.1704
M204 S3000
G0 F4200 X130.408 Y118.291
M204 S500
G1 F1080 X126.207 Y114.09 E78.42234
M204 S3000
G0 F4200 X126.207 Y113.513
M204 S500
G1 F1080 X130.985 Y118.291 E78.70889
M204 S3000
G0 F4200 X131.562 Y118.291
M204 S500
G1 F1080 X126.207 Y112.936 E79.03004
M204 S3000
G0 F4200 X126.207 Y112.359
M204 S500
G1 F1080 X131.791 Y117.943 E79.36493
M204 S3000
G0 F4200 X131.791 Y117.366
M204 S500
G1 F1080 X126.207 Y111.782 E79.69981
M204 S3000
G0 F4200 X126.207 Y111.205
M204 S500
G1 F1080 X131.791 Y116.789 E80.03469
M204 S3000
G0 F4200 X131.791 Y116.212
M204 S500
G1 F1080 X126.207 Y110.628 E80.36958
M204 S3000
G0 F4200 X126.207 Y110.051
M204 S500
G1 F1080 X131.791 Y115.635 E80.70446
M204 S3000
G0 F4200 X131.791 Y115.058
M204 S500
G1 F1080 X126.207 Y109.474 E81.03935
M204 S3000
G0 F4200 X126.207 Y108.897
M204 S500
G1 F1080 X131.791 Y114.481 E81.37423
M204 S3000
G0 F4200 X131.791 Y113.904
M204 S500
G1 F1080 X126.207 Y108.32 E81.70911
M204 S3000
G0 F4200 X126.207 Y107.743
M204 S500
G1 F1080 X131.791 Y113.327 E82.044
M204 S3000
G0 F4200 X131.791 Y112.75
M204 S500
G1 F1080 X126.207 Y107.166 E82.37888
M204 S3000
G0 F4200 X126.207 Y106.589
M204 S500
G1 F1080 X131.791 Y112.173 E82.71377
M204 S3000
G0 F4200 X131.791 Y111.596
M204 S500
G1 F1080 X126.207 Y106.012 E83.04865
M204 S3000
G0 F4200 X126.207 Y105.435
M204 S500
G1 F1080 X131.791 Y111.019 E83.38354
M204 S3000
G0 F4200 X131.791 Y110.442
M204 S500
G1 F1080 X126.207 Y104.858 E83.71842
M204 S3000
G0 F4200 X126.207 Y104.281
M204 S500
G1 F1080 X131.791 Y109.865 E84.0533
M204 S3000
G0 F4200 X131.791 Y109.288
M204 S500
G1 F1080 X126.207 Y103.704 E84.38819
M204 S3000
G0 F4200 X126.207 Y103.127
M204 S500
G1 F1080 X131.791 Y108.711 E84.72307
M204 S3000
