;FLAVOR:Marlin
;TIME:3698
;Filament used: 2.69842m
;Layer height: 0.2
;MINX:76.499
;MINY:56.336
;MINZ:0.25
;MAXX:133.501
;MAXY:169.546
;MAXZ:14.85
;Generated with Cura_SteamEngine 4.7.1
M140 S60
M105
M190 S60
M104 S200
M105
M109 S200
M82 ;absolute extrusion mode
; Script based on an original created by tjjfvi (https://github.com/tjjfvi)
; An up-to-date version of the tjjfvi's original script can be found
; here:  https://csi.t6.fyi/
; Note - This script will only work in Cura V4.2 and above!
; --- Global Settings
; layer_height = 0.2
; smooth_spiralized_contours = True
; magic_mesh_surface_mode = normal
; machine_extruder_count = 1
; --- Single Extruder Settings
; speed_z_hop = 10
; retraction_amount = 5
; retraction_hop = 0.075
; retraction_hop_enabled = True
; retraction_enable = True
; retraction_speed = 50
; retraction_retract_speed = 50
; retraction_prime_speed = 50
; speed_travel = 120

G21 ;metric values
G90 ;absolute positioning
M82 ;set extruder to absolute mode
M107 ;start with the fan off
G28 X0 Y0 ;move X/Y to min endstops
G28 Z0 ;move Z to min endstops
G1 Z15.0 F120 ;move the platform down 15mm
G92 E0 ;zero the extruded length
G1 F200 E3 ;extrude 3mm of feed stock
G92 E0 ;zero the extruded length again
G1 F120
G0 Y20 F120
M117 Printing...
G5
G92 E0
G92 E0
G1 F3000 E-5
;LAYER_COUNT:74
;LAYER:0
M106 S51
M204 S3000
M205 X10 Y10
G1 F600 Z0.325
G0 F4200 X88.981 Y58.072 Z0.325
M204 S500
;TYPE:SKIRT
G1 F600 Z0.25
G1 F3000 E0.06236
G1 F1800 X89.098 Y57.898 E0.07101
G1 X89.435 Y57.481 E0.09314
G1 X89.83 Y57.119 E0.11525
G1 X90.274 Y56.819 E0.13736
G1 X90.758 Y56.588 E0.15949
G1 X91.271 Y56.432 E0.18161
G1 X91.958 Y56.346 E0.21018
G1 X92.38 Y56.336 E0.2276
G1 X117.294 Y56.336 E1.25563
G1 X117.995 Y56.346 E1.28456
G1 X118.529 Y56.394 E1.30669
G1 X119.05 Y56.52 E1.3288
G1 X119.546 Y56.723 E1.35092
G1 X120.007 Y56.997 E1.37305
G1 X120.422 Y57.336 E1.39516
G1 X120.782 Y57.733 E1.41727
G1 X120.977 Y58.01 E1.43125
G1 X121.639 Y59.05 E1.48212
G1 X121.676 Y59.111 E1.48507
G1 X123.136 Y61.347 E1.59526
G1 X124.698 Y63.597 E1.70828
G1 X126.323 Y65.803 E1.82134
G1 X126.712 Y66.298 E1.84731
G1 X127.431 Y67.241 E1.89625
G1 X127.496 Y67.33 E1.90079
G1 X128.128 Y68.215 E1.94567
G1 X128.964 Y69.432 E2.00659
G1 X129.316 Y69.959 E2.03274
G1 X129.482 Y70.232 E2.04593
G1 X129.969 Y71.125 E2.0879
G1 X130.648 Y72.424 E2.14838
G1 X130.936 Y72.994 E2.17473
G1 X131.066 Y73.284 E2.18785
G1 X131.438 Y74.218 E2.22933
G1 X131.949 Y75.572 E2.28905
G1 X132.174 Y76.193 E2.3163
G1 X132.269 Y76.496 E2.3294
G1 X132.537 Y77.51 E2.37268
G1 X132.88 Y78.907 E2.43204
G1 X133.022 Y79.523 E2.45812
G1 X133.079 Y79.833 E2.47113
G1 X133.219 Y80.836 E2.51292
G1 X133.395 Y82.297 E2.57364
G1 X133.463 Y82.923 E2.59962
G1 X133.483 Y83.248 E2.61306
G1 X133.501 Y84.283 E2.65577
G1 X133.501 Y85.725 E2.71527
G1 X133.492 Y86.356 E2.74131
G1 X133.473 Y86.674 E2.75446
G1 X133.363 Y87.736 E2.79852
G1 X133.191 Y89.156 E2.85754
G1 X133.109 Y89.765 E2.88289
G1 X133.052 Y90.081 E2.89614
G1 X132.708 Y91.596 E2.96025
G1 X132.138 Y94.283 E3.07359
G1 X131.65 Y96.95 E3.18547
G1 X131.239 Y99.633 E3.29747
G1 X130.899 Y102.354 E3.41062
G1 X130.64 Y105.038 E3.52188
G1 X130.453 Y107.797 E3.63599
G1 X130.348 Y110.489 E3.74716
G1 X130.316 Y113.244 E3.86084
G1 X130.363 Y115.951 E3.97256
G1 X130.488 Y118.681 E4.08533
G1 X130.689 Y121.405 E4.19804
G1 X130.966 Y124.115 E4.31044
G1 X131.318 Y126.798 E4.4221
G1 X131.751 Y129.5 E4.53502
G1 X132.261 Y132.202 E4.64848
G1 X132.792 Y134.646 E4.75168
G1 X133.023 Y135.646 E4.79403
G1 X133.08 Y135.957 E4.80708
G1 X133.219 Y136.954 E4.84861
G1 X133.395 Y138.415 E4.90933
G1 X133.463 Y139.042 E4.93536
G1 X133.483 Y139.367 E4.94879
G1 X133.501 Y140.401 E4.99147
G1 X133.501 Y141.843 E5.05097
G1 X133.492 Y142.474 E5.07701
G1 X133.473 Y142.792 E5.09015
G1 X133.363 Y143.854 E5.13421
G1 X133.19 Y145.278 E5.1934
G1 X133.107 Y145.889 E5.21884
G1 X133.051 Y146.199 E5.23184
G1 X132.82 Y147.217 E5.27492
G1 X132.483 Y148.588 E5.33317
G1 X132.309 Y149.253 E5.36154
G1 X132.217 Y149.552 E5.37445
G1 X131.876 Y150.505 E5.41621
G1 X131.362 Y151.865 E5.4762
G1 X131.123 Y152.469 E5.50301
G1 X130.996 Y152.753 E5.51584
G1 X130.535 Y153.675 E5.55838
G1 X129.879 Y154.928 E5.61674
G1 X129.559 Y155.518 E5.64444
G1 X129.4 Y155.784 E5.65722
G1 X128.815 Y156.669 E5.701
G1 X128.012 Y157.836 E5.75945
G1 X127.598 Y158.42 E5.78899
G1 X127.284 Y158.839 E5.81059
G1 X125.998 Y160.502 E5.89734
G1 X124.409 Y162.68 E6.00859
G1 X122.864 Y164.931 E6.12124
G1 X120.973 Y167.88 E6.2658
G1 X120.651 Y168.308 E6.2879
G1 X120.269 Y168.684 E6.31002
G1 X119.835 Y168.999 E6.33215
G1 X119.55 Y169.157 E6.34559
G1 X119.054 Y169.361 E6.36772
G1 X118.534 Y169.488 E6.38981
G1 X117.72 Y169.545 E6.42348
G1 X92.706 Y169.546 E7.45564
G1 X92.005 Y169.536 E7.48457
G1 X91.471 Y169.488 E7.50669
G1 X90.95 Y169.362 E7.52881
G1 X90.454 Y169.159 E7.55093
G1 X89.993 Y168.885 E7.57305
G1 X89.578 Y168.546 E7.59517
G1 X89.218 Y168.149 E7.61728
G1 X89.023 Y167.871 E7.63129
G1 X88.327 Y166.776 E7.68483
G1 X86.864 Y164.535 E7.79526
G1 X85.289 Y162.267 E7.9092
G1 X83.688 Y160.094 E8.02057
G1 X83.289 Y159.585 E8.04726
G1 X82.578 Y158.653 E8.09563
G1 X82.51 Y158.561 E8.10035
G1 X81.854 Y157.64 E8.14701
G1 X81.04 Y156.456 E8.2063
G1 X80.685 Y155.925 E8.23265
G1 X80.517 Y155.648 E8.24602
G1 X80.014 Y154.725 E8.2894
G1 X79.355 Y153.463 E8.34814
G1 X79.062 Y152.882 E8.37499
G1 X78.933 Y152.595 E8.38798
G1 X78.563 Y151.667 E8.4292
G1 X78.054 Y150.319 E8.48866
G1 X77.822 Y149.676 E8.51686
G1 X77.729 Y149.377 E8.52978
G1 X77.468 Y148.39 E8.57191
G1 X77.119 Y146.971 E8.63221
G1 X76.978 Y146.361 E8.65804
G1 X76.92 Y146.046 E8.67126
G1 X76.777 Y145.012 E8.71433
G1 X76.608 Y143.618 E8.77227
G1 X76.535 Y142.937 E8.80054
G1 X76.516 Y142.617 E8.81376
G1 X76.499 Y141.634 E8.85433
G1 X76.499 Y140.157 E8.91528
G1 X76.508 Y139.526 E8.94132
G1 X76.527 Y139.208 E8.95446
G1 X76.637 Y138.146 E8.99852
G1 X76.81 Y136.722 E9.05771
G1 X76.894 Y136.103 E9.08349
G1 X76.95 Y135.793 E9.09648
G1 X77.285 Y134.313 E9.1591
G1 X77.86 Y131.605 E9.27333
G1 X78.357 Y128.881 E9.38759
G1 X78.765 Y126.222 E9.49859
G1 X79.099 Y123.539 E9.61016
G1 X79.363 Y120.793 E9.72399
G1 X79.548 Y118.061 E9.83698
G1 X79.653 Y115.37 E9.9481
G1 X79.683 Y112.603 E10.06228
G1 X79.636 Y109.908 E10.17351
G1 X79.512 Y107.181 E10.28615
G1 X79.31 Y104.456 E10.3989
G1 X79.031 Y101.738 E10.51164
G1 X78.679 Y99.062 E10.62301
G1 X78.243 Y96.337 E10.73689
G1 X77.742 Y93.688 E10.84813
G1 X77.195 Y91.178 E10.95413
G1 X76.978 Y90.237 E10.99398
G1 X76.92 Y89.925 E11.00707
G1 X76.777 Y88.893 E11.05007
G1 X76.608 Y87.5 E11.10797
G1 X76.535 Y86.818 E11.13627
G1 X76.516 Y86.498 E11.1495
G1 X76.499 Y85.516 E11.19002
G1 X76.499 Y84.039 E11.25097
G1 X76.508 Y83.408 E11.27701
G1 X76.527 Y83.09 E11.29015
G1 X76.637 Y82.028 E11.33421
G1 X76.81 Y80.604 E11.3934
G1 X76.893 Y79.993 E11.41884
G1 X76.949 Y79.683 E11.43184
G1 X77.18 Y78.663 E11.475
G1 X77.52 Y77.276 E11.53392
G1 X77.683 Y76.653 E11.5605
G1 X77.777 Y76.349 E11.57363
G1 X78.14 Y75.335 E11.61807
G1 X78.648 Y73.992 E11.67732
G1 X78.876 Y73.415 E11.70292
G1 X79.003 Y73.13 E11.71579
G1 X79.456 Y72.224 E11.75759
G1 X80.121 Y70.954 E11.81674
G1 X80.441 Y70.364 E11.84444
G1 X80.6 Y70.098 E11.85723
G1 X81.185 Y69.213 E11.901
G1 X81.988 Y68.046 E11.95945
G1 X82.402 Y67.462 E11.98899
G1 X82.716 Y67.043 E12.0106
G1 X84.002 Y65.38 E12.09734
G1 X85.591 Y63.202 E12.20859
G1 X87.131 Y60.959 E12.32086
G1 X88.981 Y58.072 E12.46235
M204 S3000
G0 F4200 X89.316 Y58.286
M204 S500
G1 F1800 X89.425 Y58.124 E12.4704
G1 X89.744 Y57.732 E12.49126
G1 X90.121 Y57.395 E12.51212
G1 X90.546 Y57.122 E12.53297
G1 X91.009 Y56.919 E12.55383
G1 X91.498 Y56.791 E12.57469
G1 X92.291 Y56.734 E12.60749
G1 X117.289 Y56.733 E13.63899
G1 X117.99 Y56.743 E13.66792
G1 X118.493 Y56.79 E13.68877
G1 X118.983 Y56.916 E13.70964
G1 X119.446 Y57.118 E13.73049
G1 X119.872 Y57.389 E13.75132
G1 X120.25 Y57.725 E13.77219
G1 X120.642 Y58.223 E13.79834
G1 X121.33 Y59.306 E13.85129
G1 X122.818 Y61.587 E13.96366
G1 X124.382 Y63.839 E14.0768
G1 X125.99 Y66.02 E14.18861
G1 X126.396 Y66.538 E14.21577
G1 X127.115 Y67.481 E14.2647
G1 X127.801 Y68.44 E14.31335
G1 X128.634 Y69.652 E14.37404
G1 X128.986 Y70.179 E14.40019
G1 X129.134 Y70.423 E14.41196
G1 X129.617 Y71.309 E14.4536
G1 X130.293 Y72.603 E14.51385
G1 X130.581 Y73.173 E14.5402
G1 X130.698 Y73.431 E14.55189
G1 X131.067 Y74.359 E14.5931
G1 X131.576 Y75.707 E14.65255
G1 X131.801 Y76.328 E14.67981
G1 X131.885 Y76.598 E14.69147
G1 X132.152 Y77.605 E14.73446
G1 X132.493 Y78.996 E14.79356
G1 X132.635 Y79.612 E14.81964
G1 X132.686 Y79.888 E14.83122
G1 X132.825 Y80.884 E14.87272
G1 X133 Y82.34 E14.93323
G1 X133.068 Y82.966 E14.95922
G1 X133.087 Y83.255 E14.97117
G1 X133.104 Y84.227 E15.01128
G1 X133.104 Y85.72 E15.07289
G1 X133.095 Y86.351 E15.09893
G1 X133.078 Y86.633 E15.11058
G1 X132.969 Y87.688 E15.15435
G1 X132.797 Y89.103 E15.21317
G1 X132.715 Y89.712 E15.23852
G1 X132.665 Y89.993 E15.2503
G1 X132.321 Y91.508 E15.31441
G1 X131.757 Y94.166 E15.42653
G1 X131.258 Y96.89 E15.5408
G1 X130.843 Y99.595 E15.65372
G1 X130.505 Y102.303 E15.76633
G1 X130.244 Y105.009 E15.87851
G1 X130.058 Y107.753 E15.99199
G1 X129.95 Y110.506 E16.10568
G1 X129.92 Y113.225 E16.21788
G1 X129.967 Y115.975 E16.33137
G1 X130.093 Y118.731 E16.44521
G1 X130.293 Y121.436 E16.55713
G1 X130.57 Y124.14 E16.66929
G1 X130.928 Y126.87 E16.78291
G1 X131.365 Y129.599 E16.89695
G1 X131.866 Y132.254 E17.00844
G1 X132.405 Y134.735 E17.1132
G1 X132.636 Y135.735 E17.15555
G1 X132.687 Y136.012 E17.16717
G1 X132.825 Y137.001 E17.20838
G1 X133 Y138.458 E17.26893
G1 X133.068 Y139.085 E17.29495
G1 X133.087 Y139.374 E17.3069
G1 X133.104 Y140.345 E17.34698
G1 X133.104 Y141.838 E17.40858
G1 X133.095 Y142.469 E17.43462
G1 X133.078 Y142.751 E17.44628
G1 X132.969 Y143.806 E17.49004
G1 X132.797 Y145.225 E17.54902
G1 X132.714 Y145.836 E17.57447
G1 X132.664 Y146.111 E17.586
G1 X132.435 Y147.122 E17.62878
G1 X132.099 Y148.488 E17.68682
G1 X131.925 Y149.153 E17.71519
G1 X131.843 Y149.418 E17.72663
G1 X131.505 Y150.364 E17.76808
G1 X130.993 Y151.719 E17.82785
G1 X130.754 Y152.323 E17.85466
G1 X130.641 Y152.575 E17.86605
G1 X130.183 Y153.491 E17.90831
G1 X129.53 Y154.739 E17.96643
G1 X129.21 Y155.329 E17.99413
G1 X129.068 Y155.566 E18.00553
G1 X128.488 Y156.444 E18.04895
G1 X127.688 Y157.606 E18.10716
G1 X127.274 Y158.19 E18.1367
G1 X126.97 Y158.596 E18.15763
G1 X125.668 Y160.28 E18.24546
G1 X124.091 Y162.442 E18.35589
G1 X122.537 Y164.705 E18.46916
G1 X120.639 Y167.666 E18.61429
G1 X120.334 Y168.068 E18.63511
G1 X119.968 Y168.418 E18.65601
G1 X119.373 Y168.802 E18.68523
G1 X118.904 Y168.992 E18.70611
G1 X118.411 Y169.105 E18.72698
G1 X117.709 Y169.148 E18.756
G1 X92.711 Y169.149 E19.7875
G1 X92.01 Y169.139 E19.81643
G1 X91.507 Y169.092 E19.83727
G1 X91.017 Y168.966 E19.85815
G1 X90.554 Y168.764 E19.879
G1 X90.128 Y168.493 E19.89983
G1 X89.75 Y168.157 E19.9207
G1 X89.358 Y167.658 E19.94688
G1 X88.663 Y166.566 E20.00029
G1 X87.193 Y164.312 E20.11133
G1 X85.605 Y162.026 E20.22619
G1 X84.01 Y159.862 E20.33711
G1 X83.633 Y159.382 E20.3623
G1 X82.894 Y158.412 E20.41262
G1 X82.833 Y158.33 E20.41683
G1 X82.181 Y157.416 E20.46316
G1 X81.37 Y156.235 E20.52228
G1 X81.015 Y155.704 E20.54863
G1 X80.866 Y155.458 E20.5605
G1 X80.366 Y154.541 E20.6036
G1 X79.71 Y153.284 E20.66211
G1 X79.417 Y152.703 E20.68896
G1 X79.301 Y152.448 E20.70052
G1 X78.955 Y151.58 E20.73907
G1 X78.428 Y150.185 E20.80061
G1 X78.196 Y149.542 E20.82881
G1 X78.113 Y149.275 E20.84035
G1 X77.854 Y148.295 E20.88218
G1 X77.506 Y146.881 E20.94226
G1 X77.365 Y146.271 E20.9681
G1 X77.313 Y145.991 E20.97985
G1 X77.171 Y144.964 E21.02263
G1 X77.003 Y143.576 E21.08032
G1 X76.93 Y142.895 E21.10858
G1 X76.912 Y142.61 E21.12037
G1 X76.896 Y141.69 E21.15833
G1 X76.896 Y140.162 E21.22139
G1 X76.905 Y139.531 E21.24742
G1 X76.922 Y139.249 E21.25908
G1 X77.031 Y138.194 E21.30285
G1 X77.203 Y136.776 E21.36179
G1 X77.287 Y136.157 E21.38756
G1 X77.337 Y135.881 E21.39914
G1 X77.683 Y134.353 E21.46378
G1 X78.248 Y131.687 E21.57624
G1 X78.744 Y128.976 E21.68996
G1 X79.16 Y126.26 E21.80334
G1 X79.497 Y123.555 E21.91582
G1 X79.756 Y120.857 E22.02766
G1 X79.943 Y118.105 E22.14147
G1 X80.051 Y115.354 E22.25508
G1 X80.079 Y112.636 E22.36724
G1 X80.032 Y109.884 E22.48081
G1 X79.906 Y107.132 E22.59449
G1 X79.705 Y104.425 E22.70649
G1 X79.427 Y101.713 E22.81899
G1 X79.069 Y98.989 E22.93235
G1 X78.634 Y96.266 E23.04614
G1 X78.13 Y93.608 E23.15777
G1 X77.583 Y91.094 E23.26393
G1 X77.365 Y90.148 E23.30399
G1 X77.314 Y89.87 E23.31566
G1 X77.171 Y88.845 E23.35836
G1 X77.003 Y87.457 E23.41605
G1 X76.93 Y86.775 E23.44435
G1 X76.912 Y86.491 E23.4561
G1 X76.896 Y85.572 E23.49402
G1 X76.896 Y84.044 E23.55707
G1 X76.905 Y83.413 E23.58311
G1 X76.922 Y83.131 E23.59477
G1 X77.031 Y82.076 E23.63854
G1 X77.203 Y80.657 E23.69752
G1 X77.286 Y80.046 E23.72296
G1 X77.336 Y79.77 E23.73453
G1 X77.566 Y78.757 E23.7774
G1 X77.918 Y77.324 E23.83829
G1 X78.067 Y76.753 E23.86264
G1 X78.15 Y76.482 E23.87433
G1 X78.511 Y75.476 E23.91843
G1 X79.017 Y74.138 E23.97746
G1 X79.245 Y73.561 E24.00306
G1 X79.358 Y73.308 E24.01449
G1 X79.808 Y72.408 E24.05601
G1 X80.47 Y71.143 E24.11493
G1 X80.79 Y70.553 E24.14262
G1 X80.932 Y70.316 E24.15402
G1 X81.512 Y69.438 E24.19745
G1 X82.312 Y68.276 E24.25566
G1 X82.726 Y67.692 E24.2852
G1 X83.03 Y67.286 E24.30613
G1 X84.332 Y65.602 E24.39396
G1 X85.909 Y63.44 E24.50438
G1 X87.472 Y61.163 E24.61834
G1 X89.316 Y58.286 E24.75935
M204 S3000
G1 F3000 E19.75935
;MESH:hip-connector.stl
G0 F4200 X119.743 Y101.476
M204 S500
;TYPE:WALL-INNER
G1 F3000 E24.82171
G1 F1080 X120.165 Y101.452 E24.83915
G1 X120.568 Y101.325 E24.85659
G1 X120.928 Y101.108 E24.87393
G1 X121.226 Y100.81 E24.89132
G1 X121.443 Y100.45 E24.90867
G1 X121.57 Y100.046 E24.92614
G1 X121.594 Y99.625 E24.94354
G1 X121.518 Y99.211 E24.96091
G1 X121.346 Y98.828 E24.97824
G1 X121.085 Y98.493 E24.99576
G1 X120.752 Y98.235 E25.01314
G1 X120.37 Y98.062 E25.03045
G1 X119.956 Y97.986 E25.04781
G1 X119.534 Y98.01 E25.06526
G1 X119.131 Y98.137 E25.08269
G1 X118.771 Y98.354 E25.10004
G1 X118.472 Y98.653 E25.11748
G1 X118.255 Y99.013 E25.13483
G1 X118.128 Y99.416 E25.15226
G1 X118.104 Y99.838 E25.16971
G1 X118.18 Y100.252 E25.18707
G1 X118.353 Y100.634 E25.20438
G1 X118.611 Y100.967 E25.22176
G1 X118.946 Y101.228 E25.23928
G1 X119.329 Y101.4 E25.25661
G1 X119.743 Y101.476 E25.27398
M204 S3000
G0 F4200 X119.767 Y101.083
M204 S500
;TYPE:WALL-OUTER
G1 F1080 X120.094 Y101.064 E25.28749
G1 X120.406 Y100.966 E25.30099
G1 X120.685 Y100.798 E25.31443
G1 X120.916 Y100.567 E25.32791
G1 X121.084 Y100.288 E25.34134
G1 X121.182 Y99.975 E25.35488
G1 X121.201 Y99.649 E25.36835
G1 X121.142 Y99.328 E25.38182
G1 X121.009 Y99.031 E25.39525
G1 X120.807 Y98.772 E25.4088
G1 X120.549 Y98.572 E25.42227
G1 X120.252 Y98.438 E25.43572
G1 X119.932 Y98.379 E25.44914
G1 X119.605 Y98.398 E25.46266
G1 X119.293 Y98.496 E25.47615
G1 X119.014 Y98.664 E25.48959
G1 X118.782 Y98.896 E25.50313
G1 X118.614 Y99.175 E25.51657
G1 X118.516 Y99.487 E25.53006
G1 X118.497 Y99.814 E25.54358
G1 X118.556 Y100.134 E25.55701
G1 X118.69 Y100.431 E25.57045
G1 X118.89 Y100.689 E25.58392
G1 X119.149 Y100.891 E25.59747
G1 X119.446 Y101.024 E25.6109
G1 X119.767 Y101.083 E25.62437
M204 S3000
G0 F4200 X119.967 Y101.072
G0 X119.991 Y101.508
G1 F3000 E20.62437
G0 F4200 X125.582 Y86.581
M204 S500
;TYPE:WALL-INNER
G1 F3000 E25.68673
G1 F1080 X126 Y86.63 E25.7041
G1 X126.418 Y86.581 E25.72146
G1 X126.812 Y86.431 E25.73886
G1 X127.159 Y86.191 E25.75627
G1 X127.438 Y85.877 E25.7736
G1 X127.635 Y85.503 E25.79104
G1 X127.736 Y85.093 E25.80847
G1 X127.736 Y84.671 E25.82588
G1 X127.635 Y84.261 E25.8433
G1 X127.438 Y83.887 E25.86075
G1 X127.159 Y83.573 E25.87808
G1 X126.812 Y83.333 E25.89549
G1 X126.418 Y83.183 E25.91289
G1 X126 Y83.134 E25.93025
G1 X125.582 Y83.183 E25.94762
G1 X125.188 Y83.333 E25.96501
G1 X124.841 Y83.573 E25.98242
G1 X124.562 Y83.887 E25.99976
G1 X124.365 Y84.261 E26.0172
G1 X124.264 Y84.671 E26.03462
G1 X124.264 Y85.093 E26.05204
G1 X124.365 Y85.503 E26.06946
