;FLAVOR:Marlin
;TIME:4294
;Filament used: 3.3248m
;Layer height: 0.2
;MINX:77.077
;MINY:47.122
;MINZ:0.25
;MAXX:132.923
;MAXY:162.878
;MAXZ:14.85
;Generated with Cura_SteamEngine 4.9.0
M140 S60
M105
M190 S60
M104 S200
M105
M109 S200
M82 ;absolute extrusion mode
G21 ;metric values
G90 ;absolute positioning
M82 ;set extruder to absolute mode
M107 ;start with the fan off
G28 X0 Y0 ;move X/Y to min endstops
G28 Z0 ;move Z to min endstops
G1 Z15.0 F120 ;move the platform down 15mm
G92 E0 ;zero the extruded length
G1 F200 E3 ;extrude 3mm of feed stock
G92 E0 ;zero the extruded length again
G1 F120
G0 Y20 F120
M117 Printing...
G5
G92 E0
G92 E0
G1 F3000 E-5
;LAYER_COUNT:74
;LAYER:0
M106 S51
M204 S3000
M205 X10 Y10
G1 F600 Z0.325
G0 F4200 X77.695 Y60.355 Z0.325
M204 S400
;TYPE:SKIRT
G1 F600 Z0.25
G1 F3000 E0.06236
G1 F1800 X78.065 Y59.949 E0.08503
G1 X78.437 Y59.634 E0.10514
G1 X78.856 Y59.383 E0.1253
G1 X79.309 Y59.204 E0.1454
G1 X79.786 Y59.102 E0.16552
G1 X80.171 Y59.077 E0.18144
G1 X82.12 Y59.077 E0.26187
G1 X82.966 Y57.858 E0.32309
G1 X83.187 Y57.576 E0.33788
G1 X85.183 Y55.333 E0.46177
G1 X85.44 Y55.078 E0.47671
G1 X87.695 Y53.092 E0.6007
G1 X87.976 Y52.873 E0.6154
G1 X90.436 Y51.182 E0.73858
G1 X90.743 Y50.997 E0.75337
G1 X93.412 Y49.601 E0.87765
G1 X93.74 Y49.454 E0.89249
G1 X96.558 Y48.39 E1.01678
G1 X96.9 Y48.284 E1.03155
G1 X99.808 Y47.57 E1.15511
G1 X100.161 Y47.506 E1.16991
G1 X103.155 Y47.144 E1.29436
G1 X103.513 Y47.122 E1.30916
G1 X106.502 Y47.123 E1.43249
G1 X106.86 Y47.145 E1.44729
G1 X109.853 Y47.508 E1.5717
G1 X110.206 Y47.572 E1.5865
G1 X113.115 Y48.288 E1.71012
G1 X113.456 Y48.394 E1.72485
G1 X116.27 Y49.458 E1.84899
G1 X116.597 Y49.605 E1.86379
G1 X119.256 Y50.996 E1.98761
G1 X119.565 Y51.182 E2.00249
G1 X122.036 Y52.883 E2.12628
G1 X122.316 Y53.102 E2.14095
G1 X124.569 Y55.087 E2.26485
G1 X124.826 Y55.342 E2.27979
G1 X126.821 Y57.586 E2.40368
G1 X127.042 Y57.867 E2.41844
G1 X127.882 Y59.077 E2.47922
G1 X129.829 Y59.077 E2.55956
G1 X130.315 Y59.117 E2.57968
G1 X130.788 Y59.236 E2.5998
G1 X131.235 Y59.43 E2.61991
G1 X131.645 Y59.695 E2.64006
G1 X132.051 Y60.065 E2.66272
G1 X132.366 Y60.437 E2.68284
G1 X132.617 Y60.856 E2.70299
G1 X132.796 Y61.309 E2.72309
G1 X132.898 Y61.786 E2.74322
G1 X132.923 Y62.171 E2.75914
G1 X132.923 Y87.829 E3.81787
G1 X132.883 Y88.315 E3.83799
G1 X132.764 Y88.788 E3.85812
G1 X132.57 Y89.235 E3.87823
G1 X132.305 Y89.645 E3.89837
G1 X131.935 Y90.051 E3.92104
G1 X131.563 Y90.366 E3.94115
G1 X131.144 Y90.617 E3.9613
G1 X130.691 Y90.796 E3.9814
G1 X130.214 Y90.898 E4.00153
G1 X129.829 Y90.923 E4.01745
G1 X127.88 Y90.923 E4.09787
G1 X127.034 Y92.142 E4.1591
G1 X126.813 Y92.424 E4.17388
G1 X124.817 Y94.667 E4.29778
G1 X124.56 Y94.922 E4.31272
G1 X122.305 Y96.908 E4.43671
G1 X122.024 Y97.127 E4.45141
G1 X119.564 Y98.818 E4.57458
G1 X119.257 Y99.003 E4.58937
G1 X116.588 Y100.399 E4.71366
G1 X116.26 Y100.546 E4.72849
G1 X113.442 Y101.61 E4.85278
G1 X113.1 Y101.716 E4.86756
G1 X110.192 Y102.43 E4.99112
G1 X109.839 Y102.494 E5.00592
G1 X106.845 Y102.856 E5.13036
G1 X106.487 Y102.878 E5.14516
G1 X103.498 Y102.877 E5.2685
G1 X103.14 Y102.855 E5.2833
G1 X100.147 Y102.492 E5.40771
G1 X99.794 Y102.428 E5.42251
G1 X96.885 Y101.712 E5.54613
G1 X96.544 Y101.606 E5.56086
G1 X93.73 Y100.542 E5.685
G1 X93.403 Y100.395 E5.69979
G1 X90.744 Y99.004 E5.82362
G1 X90.435 Y98.818 E5.8385
G1 X87.964 Y97.117 E5.96229
G1 X87.684 Y96.898 E5.97695
G1 X85.43 Y94.912 E6.10091
G1 X85.173 Y94.657 E6.11585
G1 X83.179 Y92.414 E6.23969
G1 X82.958 Y92.133 E6.25444
G1 X82.118 Y90.923 E6.31522
G1 X80.171 Y90.923 E6.39556
G1 X79.685 Y90.883 E6.41569
G1 X79.212 Y90.764 E6.43581
G1 X78.765 Y90.57 E6.45592
G1 X78.355 Y90.305 E6.47606
G1 X77.949 Y89.935 E6.49873
G1 X77.634 Y89.563 E6.51884
G1 X77.383 Y89.144 E6.539
G1 X77.204 Y88.691 E6.55909
G1 X77.102 Y88.214 E6.57922
G1 X77.077 Y87.829 E6.59514
G1 X77.077 Y62.171 E7.65388
G1 X77.117 Y61.685 E7.674
G1 X77.236 Y61.212 E7.69413
G1 X77.43 Y60.765 E7.71423
G1 X77.695 Y60.355 E7.73438
M204 S3000
G0 F4200 X77.826 Y60.87
M204 S400
G1 F1800 X78.23 Y60.346 E7.76168
G1 X78.694 Y59.938 E7.78717
G1 X79.088 Y59.712 E7.80592
G1 X79.515 Y59.559 E7.82463
G1 X80.171 Y59.474 E7.85193
G1 X82.327 Y59.474 E7.94089
G1 X83.292 Y58.084 E8.01071
G1 X83.484 Y57.84 E8.02353
G1 X85.48 Y55.597 E8.14742
G1 X85.702 Y55.376 E8.16035
G1 X87.957 Y53.39 E8.28434
G1 X88.201 Y53.2 E8.2971
G1 X90.661 Y51.509 E8.42027
G1 X90.927 Y51.349 E8.43308
G1 X93.596 Y49.953 E8.55737
G1 X93.88 Y49.825 E8.57022
G1 X96.698 Y48.761 E8.69452
G1 X96.995 Y48.669 E8.70735
G1 X99.903 Y47.955 E8.8309
G1 X100.208 Y47.9 E8.84369
G1 X103.202 Y47.538 E8.96813
G1 X103.513 Y47.519 E8.98099
G1 X106.502 Y47.52 E9.10433
G1 X106.812 Y47.539 E9.11714
G1 X109.805 Y47.902 E9.24155
G1 X110.111 Y47.958 E9.25439
G1 X113.02 Y48.674 E9.378
G1 X113.316 Y48.766 E9.39079
G1 X116.13 Y49.83 E9.51493
G1 X116.413 Y49.957 E9.52773
G1 X119.072 Y51.348 E9.65156
G1 X119.339 Y51.509 E9.66442
G1 X121.81 Y53.21 E9.78821
G1 X122.053 Y53.399 E9.80091
G1 X124.306 Y55.384 E9.92481
G1 X124.529 Y55.606 E9.9378
G1 X126.524 Y57.85 E10.06169
G1 X126.715 Y58.094 E10.07448
G1 X127.673 Y59.474 E10.1438
G1 X129.829 Y59.474 E10.23276
G1 X130.281 Y59.514 E10.25149
G1 X130.719 Y59.632 E10.2702
G1 X131.13 Y59.826 E10.28896
G1 X131.654 Y60.23 E10.31626
G1 X132.062 Y60.694 E10.34175
G1 X132.288 Y61.088 E10.3605
G1 X132.441 Y61.515 E10.37921
G1 X132.526 Y62.171 E10.40651
G1 X132.526 Y87.829 E11.46524
G1 X132.486 Y88.281 E11.48397
G1 X132.368 Y88.719 E11.50269
G1 X132.174 Y89.13 E11.52144
G1 X131.77 Y89.654 E11.54874
G1 X131.306 Y90.062 E11.57424
G1 X130.912 Y90.288 E11.59298
G1 X130.485 Y90.441 E11.6117
G1 X129.829 Y90.526 E11.63899
G1 X127.673 Y90.526 E11.72795
G1 X126.708 Y91.916 E11.79778
G1 X126.516 Y92.16 E11.81059
G1 X124.52 Y94.403 E11.93448
G1 X124.298 Y94.624 E11.94741
G1 X122.043 Y96.61 E12.0714
G1 X121.799 Y96.8 E12.08416
G1 X119.339 Y98.491 E12.20734
G1 X119.073 Y98.651 E12.22015
G1 X116.404 Y100.047 E12.34443
G1 X116.12 Y100.175 E12.35729
G1 X113.302 Y101.239 E12.48158
G1 X113.005 Y101.331 E12.49441
G1 X110.097 Y102.045 E12.61797
G1 X109.792 Y102.1 E12.63075
G1 X106.798 Y102.462 E12.7552
G1 X106.487 Y102.481 E12.76805
G1 X103.498 Y102.48 E12.89139
G1 X103.188 Y102.461 E12.90421
G1 X100.195 Y102.098 E13.02861
G1 X99.889 Y102.042 E13.04145
G1 X96.98 Y101.326 E13.16507
G1 X96.684 Y101.234 E13.17786
G1 X93.87 Y100.17 E13.30199
G1 X93.587 Y100.043 E13.31479
G1 X90.928 Y98.652 E13.43862
G1 X90.661 Y98.491 E13.45148
G1 X88.19 Y96.79 E13.57527
G1 X87.947 Y96.601 E13.58797
G1 X85.693 Y94.615 E13.71193
G1 X85.47 Y94.393 E13.72492
G1 X83.476 Y92.15 E13.84876
G1 X83.285 Y91.906 E13.86154
G1 X82.327 Y90.526 E13.93086
G1 X80.171 Y90.526 E14.01982
G1 X79.719 Y90.486 E14.03855
G1 X79.281 Y90.368 E14.05727
G1 X78.87 Y90.174 E14.07602
G1 X78.346 Y89.77 E14.10332
G1 X77.938 Y89.306 E14.12882
G1 X77.712 Y88.912 E14.14756
G1 X77.559 Y88.485 E14.16628
G1 X77.474 Y87.829 E14.19357
G1 X77.474 Y62.171 E15.25231
G1 X77.514 Y61.719 E15.27103
G1 X77.632 Y61.281 E15.28975
G1 X77.826 Y60.87 E15.3085
M204 S3000
G0 F4200 X78.221 Y60.984
M204 S400
G1 F1800 X78.627 Y60.511 E15.33422
G1 X78.949 Y60.245 E15.35146
G1 X79.316 Y60.046 E15.36868
G1 X79.714 Y59.919 E15.38592
G1 X80.171 Y59.871 E15.40488
G1 X82.534 Y59.871 E15.50239
G1 X83.618 Y58.31 E15.58081
G1 X83.78 Y58.104 E15.59162
G1 X85.776 Y55.861 E15.71552
G1 X85.965 Y55.674 E15.72649
G1 X88.22 Y53.688 E15.85048
G1 X88.426 Y53.527 E15.86127
G1 X90.886 Y51.836 E15.98444
G1 X91.111 Y51.701 E15.99527
G1 X93.78 Y50.305 E16.11956
G1 X94.021 Y50.197 E16.13045
G1 X96.839 Y49.133 E16.25475
G1 X97.089 Y49.055 E16.26555
G1 X99.997 Y48.341 E16.38911
G1 X100.256 Y48.294 E16.39997
G1 X103.25 Y47.932 E16.52442
G1 X103.513 Y47.916 E16.53529
G1 X106.502 Y47.917 E16.65862
G1 X106.764 Y47.933 E16.66945
G1 X109.757 Y48.296 E16.79386
G1 X110.016 Y48.343 E16.80472
G1 X112.925 Y49.059 E16.92834
G1 X113.175 Y49.137 E16.93915
G1 X115.989 Y50.201 E17.06329
G1 X116.229 Y50.309 E17.07414
G1 X118.888 Y51.7 E17.19797
G1 X119.114 Y51.836 E17.20885
G1 X121.585 Y53.537 E17.33264
G1 X121.791 Y53.697 E17.3434
G1 X124.044 Y55.682 E17.4673
G1 X124.232 Y55.87 E17.47827
G1 X126.227 Y58.114 E17.60217
G1 X126.389 Y58.32 E17.61299
G1 X127.465 Y59.871 E17.69088
G1 X129.829 Y59.871 E17.78842
G1 X130.245 Y59.911 E17.80567
G1 X130.645 Y60.029 E17.82288
G1 X131.016 Y60.221 E17.84011
G1 X131.489 Y60.627 E17.86584
G1 X131.755 Y60.949 E17.88307
G1 X131.954 Y61.316 E17.9003
G1 X132.081 Y61.714 E17.91754
G1 X132.129 Y62.171 E17.9365
G1 X132.129 Y87.829 E18.99523
G1 X132.089 Y88.245 E19.01248
G1 X131.971 Y88.645 E19.02969
G1 X131.779 Y89.016 E19.04692
G1 X131.373 Y89.489 E19.07264
G1 X131.051 Y89.755 E19.08988
G1 X130.684 Y89.954 E19.1071
G1 X130.286 Y90.081 E19.12434
G1 X129.829 Y90.129 E19.1433
G1 X127.466 Y90.129 E19.24081
G1 X126.382 Y91.69 E19.31923
G1 X126.22 Y91.896 E19.33004
G1 X124.224 Y94.139 E19.45394
G1 X124.035 Y94.326 E19.46491
G1 X121.78 Y96.312 E19.5889
G1 X121.574 Y96.473 E19.59969
G1 X119.114 Y98.164 E19.72286
G1 X118.889 Y98.299 E19.73369
G1 X116.22 Y99.695 E19.85798
G1 X115.979 Y99.803 E19.86888
G1 X113.161 Y100.867 E19.99317
G1 X112.911 Y100.945 E20.00397
G1 X110.003 Y101.659 E20.12753
G1 X109.744 Y101.706 E20.13839
G1 X106.75 Y102.068 E20.26284
G1 X106.487 Y102.084 E20.27371
G1 X103.498 Y102.083 E20.39704
G1 X103.236 Y102.067 E20.40788
G1 X100.243 Y101.704 E20.53228
G1 X99.984 Y101.657 E20.54314
G1 X97.075 Y100.941 E20.66676
G1 X96.825 Y100.863 E20.67757
G1 X94.011 Y99.799 E20.80171
G1 X93.771 Y99.691 E20.81257
G1 X91.112 Y98.3 E20.93639
G1 X90.886 Y98.164 E20.94727
G1 X88.415 Y96.463 E21.07106
G1 X88.209 Y96.303 E21.08182
G1 X85.955 Y94.317 E21.20578
G1 X85.767 Y94.129 E21.21675
G1 X83.773 Y91.886 E21.34059
G1 X83.611 Y91.68 E21.35141
G1 X82.535 Y90.129 E21.4293
G1 X80.171 Y90.129 E21.52685
G1 X79.755 Y90.089 E21.54409
G1 X79.355 Y89.971 E21.5613
G1 X78.984 Y89.779 E21.57854
G1 X78.511 Y89.373 E21.60426
G1 X78.245 Y89.051 E21.62149
G1 X78.046 Y88.684 E21.63872
G1 X77.919 Y88.286 E21.65596
G1 X77.871 Y87.829 E21.67492
G1 X77.871 Y62.171 E22.73365
G1 X77.911 Y61.755 E22.7509
G1 X78.029 Y61.355 E22.76811
G1 X78.221 Y60.984 E22.78534
M204 S3000
G0 F4200 X78.616 Y61.111
M204 S400
G1 F1800 X78.907 Y60.791 E22.80319
G1 X79.201 Y60.554 E22.81877
G1 X79.538 Y60.384 E22.83435
G1 X79.903 Y60.288 E22.84992
G1 X80.171 Y60.268 E22.86101
G1 X82.742 Y60.268 E22.9671
G1 X83.944 Y58.537 E23.05406
G1 X84.077 Y58.368 E23.06293
G1 X86.073 Y56.125 E23.18683
G1 X86.227 Y55.972 E23.19578
G1 X88.482 Y53.986 E23.31977
G1 X88.651 Y53.854 E23.32862
G1 X91.111 Y52.163 E23.4518
G1 X91.295 Y52.053 E23.46064
G1 X93.964 Y50.657 E23.58493
G1 X94.161 Y50.568 E23.59385
G1 X96.979 Y49.504 E23.71814
G1 X97.184 Y49.441 E23.72699
G1 X100.092 Y48.727 E23.85055
G1 X100.303 Y48.688 E23.85941
G1 X103.297 Y48.326 E23.98385
G1 X103.513 Y48.313 E23.99278
G1 X106.502 Y48.314 E24.11611
G1 X106.716 Y48.327 E24.12496
G1 X109.709 Y48.69 E24.24937
G1 X109.921 Y48.729 E24.25826
G1 X112.83 Y49.445 E24.38188
G1 X113.035 Y49.508 E24.39073
G1 X115.849 Y50.572 E24.51487
G1 X116.045 Y50.661 E24.52375
G1 X118.704 Y52.052 E24.64757
G1 X118.889 Y52.163 E24.65648
G1 X121.36 Y53.864 E24.78026
G1 X121.528 Y53.995 E24.78905
G1 X123.781 Y55.98 E24.91295
G1 X123.936 Y56.134 E24.92197
G1 X125.931 Y58.378 E25.04587
G1 X126.063 Y58.546 E25.05468
G1 X127.258 Y60.268 E25.14117
G1 X129.829 Y60.268 E25.24726
G1 X130.204 Y60.308 E25.26282
G1 X130.563 Y60.426 E25.27841
G1 X130.889 Y60.616 E25.29398
G1 X131.209 Y60.907 E25.31183
G1 X131.446 Y61.201 E25.32741
G1 X131.616 Y61.538 E25.34299
G1 X131.712 Y61.903 E25.35856
G1 X131.732 Y62.171 E25.36965
G1 X131.732 Y87.829 E26.42839
G1 X131.692 Y88.204 E26.44395
G1 X131.574 Y88.563 E26.45954
G1 X131.384 Y88.889 E26.47511
G1 X131.093 Y89.209 E26.49296
G1 X130.799 Y89.446 E26.50854
G1 X130.462 Y89.616 E26.52412
G1 X130.097 Y89.712 E26.53969
G1 X129.829 Y89.732 E26.55078
G1 X127.258 Y89.732 E26.65687
G1 X126.056 Y91.463 E26.74383
G1 X125.923 Y91.632 E26.7527
G1 X123.927 Y93.875 E26.87659
G1 X123.773 Y94.028 E26.88555
G1 X121.518 Y96.014 E27.00954
G1 X121.349 Y96.146 E27.01839
G1 X118.889 Y97.837 E27.14157
G1 X118.705 Y97.947 E27.15041
G1 X116.036 Y99.343 E27.2747
G1 X115.839 Y99.432 E27.28362
G1 X113.021 Y100.496 E27.40791
G1 X112.816 Y100.559 E27.41676
G1 X109.908 Y101.273 E27.54032
G1 X109.697 Y101.312 E27.54917
G1 X106.703 Y101.674 E27.67362
G1 X106.487 Y101.687 E27.68254
G1 X103.498 Y101.686 E27.80588
G1 X103.284 Y101.673 E27.81473
G1 X100.291 Y101.31 E27.93913
G1 X100.079 Y101.271 E27.94803
G1 X97.17 Y100.555 E28.07165
G1 X96.965 Y100.492 E28.0805
G1 X94.151 Y99.428 E28.20463
G1 X93.955 Y99.339 E28.21352
G1 X91.296 Y97.948 E28.33734
G1 X91.111 Y97.837 E28.34624
G1 X88.64 Y96.136 E28.47003
G1 X88.472 Y96.005 E28.47882
G1 X86.218 Y94.019 E28.60278
G1 X86.063 Y93.865 E28.6118
G1 X84.069 Y91.622 E28.73563
G1 X83.937 Y91.454 E28.74445
G1 X82.742 Y89.732 E28.83094
G1 X80.171 Y89.732 E28.93703
G1 X79.796 Y89.692 E28.95259
G1 X79.437 Y89.574 E28.96818
G1 X79.111 Y89.384 E28.98375
G1 X78.791 Y89.093 E29.0016
G1 X78.554 Y88.799 E29.01718
G1 X78.384 Y88.462 E29.03276
G1 X78.288 Y88.097 E29.04833
G1 X78.268 Y87.829 E29.05942
G1 X78.268 Y62.171 E30.11815
G1 X78.308 Y61.796 E30.13372
G1 X78.426 Y61.437 E30.14931
G1 X78.616 Y61.111 E30.16488
M204 S3000
G0 F4200 X78.822 Y61.529
M204 S400
G1 F1800 X79.188 Y61.072 E30.18904
G1 X79.45 Y60.867 E30.20277
G1 X79.753 Y60.729 E30.2165
G1 X80.171 Y60.665 E30.23395
G1 X82.95 Y60.665 E30.34862
G1 X84.27 Y58.763 E30.44416
G1 X84.374 Y58.632 E30.45106
G1 X86.37 Y56.389 E30.57495
G1 X86.489 Y56.27 E30.58189
G1 X88.744 Y54.284 E30.70589
G1 X88.876 Y54.182 E30.71277
G1 X91.336 Y52.491 E30.83595
G1 X91.479 Y52.404 E30.84285
G1 X94.148 Y51.008 E30.96714
G1 X94.301 Y50.94 E30.97405
G1 X97.119 Y49.876 E31.09834
G1 X97.279 Y49.826 E31.10526
G1 X100.187 Y49.112 E31.22882
G1 X100.351 Y49.082 E31.2357
G1 X103.345 Y48.72 E31.36014
G1 X103.512 Y48.71 E31.36704
G1 X106.501 Y48.711 E31.49038
G1 X106.668 Y48.721 E31.49728
G1 X109.661 Y49.084 E31.62169
G1 X109.826 Y49.114 E31.62861
G1 X112.735 Y49.83 E31.75222
G1 X112.895 Y49.88 E31.75914
G1 X115.709 Y50.944 E31.88328
G1 X115.861 Y51.012 E31.89015
G1 X118.52 Y52.403 E32.01398
G1 X118.664 Y52.49 E32.02092
G1 X121.135 Y54.191 E32.1447
G1 X121.266 Y54.293 E32.15155
G1 X123.519 Y56.278 E32.27546
G1 X123.639 Y56.397 E32.28243
G1 X125.634 Y58.641 E32.40633
G1 X125.737 Y58.773 E32.41324
G1 X127.05 Y60.665 E32.50826
G1 X129.829 Y60.665 E32.62293
G1 X130.159 Y60.705 E32.63665
G1 X130.471 Y60.822 E32.6504
G1 X130.928 Y61.188 E32.67456
G1 X131.133 Y61.45 E32.68829
G1 X131.271 Y61.753 E32.70203
G1 X131.335 Y62.171 E32.71947
G1 X131.335 Y87.829 E33.77821
G1 X131.295 Y88.159 E33.79193
G1 X131.178 Y88.471 E33.80568
G1 X130.812 Y88.928 E33.82984
G1 X130.55 Y89.133 E33.84356
G1 X130.247 Y89.271 E33.8573
G1 X129.829 Y89.335 E33.87475
G1 X127.05 Y89.335 E33.98942
G1 X125.73 Y91.237 E34.08495
G1 X125.626 Y91.368 E34.09185
G1 X123.63 Y93.611 E34.21575
G1 X123.511 Y93.73 E34.22269
G1 X121.256 Y95.716 E34.34668
G1 X121.124 Y95.818 E34.35357
G1 X118.664 Y97.509 E34.47674
G1 X118.521 Y97.596 E34.48365
G1 X115.852 Y98.992 E34.60794
G1 X115.699 Y99.06 E34.61485
G1 X112.881 Y100.124 E34.73914
G1 X112.721 Y100.174 E34.74606
G1 X109.813 Y100.888 E34.86961
G1 X109.649 Y100.918 E34.87649
G1 X106.655 Y101.28 E35.00093
G1 X106.488 Y101.29 E35.00784
G1 X103.499 Y101.289 E35.13117
G1 X103.332 Y101.279 E35.13808
G1 X100.339 Y100.916 E35.26248
G1 X100.174 Y100.886 E35.2694
G1 X97.265 Y100.17 E35.39302
G1 X97.105 Y100.12 E35.39994
G1 X94.291 Y99.056 E35.52408
G1 X94.139 Y98.988 E35.53095
G1 X91.48 Y97.597 E35.65477
G1 X91.336 Y97.51 E35.66172
G1 X88.865 Y95.809 E35.7855
G1 X88.734 Y95.707 E35.79235
G1 X86.48 Y93.721 E35.91631
G1 X86.36 Y93.602 E35.92328
G1 X84.366 Y91.359 E36.04712
G1 X84.263 Y91.227 E36.05403
G1 X82.95 Y89.335 E36.14906
G1 X80.171 Y89.335 E36.26373
G1 X79.841 Y89.295 E36.27745
G1 X79.529 Y89.178 E36.2912
G1 X79.072 Y88.812 E36.31536
