;FLAVOR:Marlin
;TIME:1237
;Filament used: 1.09793m
;Layer height: 0.2
;MINX:74.954
;MINY:90.954
;MINZ:0.25
;MAXX:135.025
;MAXY:124.046
;MAXZ:4.85
;Generated with Cura_SteamEngine 4.7.1
M140 S60
M105
M190 S60
M104 S200
M105
M109 S200
M82 ;absolute extrusion mode
; Script based on an original created by tjjfvi (https://github.com/tjjfvi)
; An up-to-date version of the tjjfvi's original script can be found
; here:  https://csi.t6.fyi/
; Note - This script will only work in Cura V4.2 and above!
; --- Global Settings
; layer_height = 0.2
; smooth_spiralized_contours = True
; magic_mesh_surface_mode = normal
; machine_extruder_count = 1
; --- Single Extruder Settings
; speed_z_hop = 10
; retraction_amount = 5
; retraction_hop = 0.075
; retraction_hop_enabled = True
; retraction_enable = True
; retraction_speed = 50
; retraction_retract_speed = 50
; retraction_prime_speed = 50
; speed_travel = 120

G21 ;metric values
G90 ;absolute positioning
M82 ;set extruder to absolute mode
M107 ;start with the fan off
G28 X0 Y0 ;move X/Y to min endstops
G28 Z0 ;move Z to min endstops
G1 Z15.0 F120 ;move the platform down 15mm
G92 E0 ;zero the extruded length
G1 F200 E3 ;extrude 3mm of feed stock
G92 E0 ;zero the extruded length again
G1 F120
G0 Y20 F120
M117 Printing...
G5
G92 E0
G92 E0
G1 F3000 E-5
;LAYER_COUNT:24
;LAYER:0
M106 S51
M204 S3000
M205 X10 Y10
G1 F600 Z0.325
G0 F4200 X76.352 Y91.721 Z0.325
M204 S500
;TYPE:SKIRT
G1 F600 Z0.25
G1 F3000 E0.06236
G1 F1800 X76.798 Y91.424 E0.08447
G1 X77.284 Y91.197 E0.10661
G1 X77.798 Y91.045 E0.12872
G1 X78.459 Y90.964 E0.1562
G1 X78.88 Y90.954 E0.17358
G1 X117.842 Y90.954 E1.78128
G1 X118.524 Y90.964 E1.80943
G1 X118.725 Y90.973 E1.81773
G1 X119.548 Y91.032 E1.85178
G1 X120.475 Y91.113 E1.89017
G1 X121.078 Y91.174 E1.91518
G1 X121.592 Y91.264 E1.93671
G1 X122.444 Y91.478 E1.97296
G1 X123.237 Y91.691 E2.00684
G1 X123.877 Y91.872 E2.03429
G1 X124.366 Y92.049 E2.05575
G1 X125.203 Y92.424 E2.09359
G1 X125.877 Y92.738 E2.12427
G1 X126.509 Y93.043 E2.15323
G1 X126.961 Y93.304 E2.17477
G1 X127.708 Y93.809 E2.21197
G1 X128.305 Y94.227 E2.24205
G1 X128.907 Y94.661 E2.27267
G1 X129.308 Y94.996 E2.29423
G1 X129.919 Y95.588 E2.32934
G1 X130.515 Y96.185 E2.36414
G1 X130.968 Y96.651 E2.39096
G1 X131.301 Y97.047 E2.41231
G1 X131.84 Y97.792 E2.45025
G1 X132.26 Y98.391 E2.48044
G1 X132.672 Y98.999 E2.51075
G1 X132.927 Y99.44 E2.53177
G1 X133.322 Y100.251 E2.56899
G1 X133.643 Y100.94 E2.60035
G1 X133.931 Y101.581 E2.62935
G1 X134.11 Y102.071 E2.65088
G1 X134.358 Y102.946 E2.68841
G1 X134.548 Y103.653 E2.71861
G1 X134.721 Y104.334 E2.74761
G1 X134.813 Y104.846 E2.76907
G1 X134.901 Y105.689 E2.80405
G1 X134.977 Y106.563 E2.84025
G1 X135.024 Y107.204 E2.86677
G1 X135.025 Y107.72 E2.88806
G1 X134.958 Y108.66 E2.92694
G1 X134.89 Y109.432 E2.95892
G1 X134.825 Y110.079 E2.98576
G1 X134.735 Y110.595 E3.00737
G1 X134.508 Y111.497 E3.04575
G1 X134.309 Y112.237 E3.07737
G1 X134.128 Y112.877 E3.10481
G1 X133.951 Y113.365 E3.12623
G1 X133.575 Y114.205 E3.16421
G1 X133.253 Y114.897 E3.1957
G1 X132.962 Y115.501 E3.22337
G1 X132.701 Y115.954 E3.24494
G1 X132.176 Y116.73 E3.2836
G1 X131.771 Y117.307 E3.31269
G1 X131.341 Y117.905 E3.34308
G1 X131.004 Y118.308 E3.36476
G1 X130.402 Y118.929 E3.40045
G1 X129.812 Y119.518 E3.43485
G1 X129.343 Y119.973 E3.46181
G1 X128.952 Y120.302 E3.4829
G1 X128.237 Y120.82 E3.51933
G1 X127.571 Y121.287 E3.55289
G1 X127.003 Y121.672 E3.58121
G1 X126.558 Y121.929 E3.60241
G1 X125.761 Y122.316 E3.63897
G1 X125.087 Y122.63 E3.66965
G1 X124.417 Y122.931 E3.69996
G1 X123.93 Y123.109 E3.72136
G1 X123.054 Y123.358 E3.75893
G1 X122.306 Y123.559 E3.79089
G1 X121.666 Y123.722 E3.81815
G1 X121.147 Y123.814 E3.83989
G1 X120.258 Y123.905 E3.87677
G1 X119.41 Y123.979 E3.91189
G1 X118.8 Y124.024 E3.93713
G1 X118.589 Y124.034 E3.94585
G1 X117.794 Y124.046 E3.97866
G1 X79.205 Y124.046 E5.57097
G1 X78.507 Y124.036 E5.59977
G1 X77.974 Y123.988 E5.62186
G1 X77.453 Y123.862 E5.64397
G1 X76.956 Y123.659 E5.66613
G1 X76.496 Y123.385 E5.68822
G1 X76.081 Y123.046 E5.71033
G1 X75.721 Y122.649 E5.73245
G1 X75.424 Y122.202 E5.75459
G1 X75.197 Y121.717 E5.77669
G1 X75.045 Y121.203 E5.7988
G1 X74.964 Y120.537 E5.82649
G1 X74.954 Y120.108 E5.84419
G1 X74.954 Y95.196 E6.87215
G1 X74.964 Y94.507 E6.90058
G1 X75.012 Y93.973 E6.9227
G1 X75.139 Y93.452 E6.94483
G1 X75.341 Y92.956 E6.96693
G1 X75.615 Y92.495 E6.98906
G1 X75.955 Y92.08 E7.0112
G1 X76.352 Y91.721 E7.03328
M204 S3000
G0 F4200 X76.735 Y91.932
M204 S500
G1 F1800 X77.171 Y91.677 E7.05412
G1 X77.643 Y91.494 E7.07501
G1 X78.137 Y91.388 E7.09586
G1 X78.79 Y91.352 E7.12285
G1 X117.836 Y91.351 E8.73402
G1 X118.518 Y91.361 E8.76216
G1 X118.697 Y91.369 E8.76955
G1 X119.513 Y91.427 E8.80331
G1 X120.435 Y91.508 E8.8415
G1 X121.038 Y91.569 E8.86651
G1 X121.495 Y91.649 E8.88566
G1 X122.396 Y91.876 E8.924
G1 X123.129 Y92.073 E8.95531
G1 X123.769 Y92.254 E8.98276
G1 X124.204 Y92.412 E9.00186
G1 X125.036 Y92.784 E9.03946
G1 X125.704 Y93.096 E9.06988
G1 X126.336 Y93.401 E9.09884
G1 X126.739 Y93.633 E9.11803
G1 X127.48 Y94.134 E9.15494
G1 X128.111 Y94.577 E9.18675
G1 X128.675 Y94.983 E9.21543
G1 X129.031 Y95.281 E9.23458
G1 X129.638 Y95.869 E9.26945
G1 X130.231 Y96.462 E9.30406
G1 X130.684 Y96.928 E9.33088
G1 X130.98 Y97.28 E9.34985
G1 X131.486 Y97.978 E9.38543
G1 X131.931 Y98.613 E9.41742
G1 X132.343 Y99.221 E9.44773
G1 X132.571 Y99.614 E9.46648
G1 X132.962 Y100.418 E9.50337
G1 X133.281 Y101.103 E9.53455
G1 X133.569 Y101.744 E9.56354
G1 X133.728 Y102.18 E9.58269
G1 X133.975 Y103.049 E9.61997
G1 X134.164 Y103.75 E9.64993
G1 X134.337 Y104.431 E9.67892
G1 X134.418 Y104.887 E9.69803
G1 X134.511 Y105.783 E9.73521
G1 X134.581 Y106.592 E9.76871
G1 X134.628 Y107.233 E9.79523
G1 X134.629 Y107.692 E9.81417
G1 X134.563 Y108.625 E9.85277
G1 X134.495 Y109.393 E9.88458
G1 X134.43 Y110.04 E9.91141
G1 X134.35 Y110.498 E9.9306
G1 X134.125 Y111.394 E9.96872
G1 X133.927 Y112.129 E10.00013
G1 X133.746 Y112.769 E10.02757
G1 X133.589 Y113.203 E10.04662
G1 X133.215 Y114.038 E10.08437
G1 X132.895 Y114.724 E10.1156
G1 X132.604 Y115.328 E10.14327
G1 X132.372 Y115.731 E10.16246
G1 X131.851 Y116.502 E10.20085
G1 X131.448 Y117.076 E10.22979
G1 X131.018 Y117.674 E10.26019
G1 X130.718 Y118.032 E10.27946
G1 X130.121 Y118.648 E10.31486
G1 X129.536 Y119.233 E10.34899
G1 X129.067 Y119.688 E10.37596
G1 X128.719 Y119.98 E10.3947
G1 X128.009 Y120.495 E10.4309
G1 X127.348 Y120.958 E10.4642
G1 X126.78 Y121.343 E10.49251
G1 X126.385 Y121.572 E10.51135
G1 X125.594 Y121.956 E10.54763
G1 X124.924 Y122.268 E10.57813
G1 X124.254 Y122.569 E10.60844
G1 X123.821 Y122.727 E10.62746
G1 X122.951 Y122.975 E10.66479
G1 X122.208 Y123.174 E10.69653
G1 X121.568 Y123.337 E10.72378
G1 X121.107 Y123.419 E10.7431
G1 X120.224 Y123.51 E10.77973
G1 X119.38 Y123.583 E10.81468
G1 X118.77 Y123.628 E10.83992
G1 X118.583 Y123.637 E10.84765
G1 X117.788 Y123.649 E10.88045
G1 X79.211 Y123.649 E12.47227
G1 X78.513 Y123.639 E12.50108
G1 X78.01 Y123.592 E12.52192
G1 X77.52 Y123.466 E12.5428
G1 X77.057 Y123.264 E12.56364
G1 X76.631 Y122.992 E12.5845
G1 X76.253 Y122.657 E12.60534
G1 X75.932 Y122.266 E12.62621
G1 X75.677 Y121.829 E12.64709
G1 X75.495 Y121.358 E12.66793
G1 X75.388 Y120.864 E12.68878
G1 X75.352 Y120.195 E12.71643
G1 X75.351 Y95.202 E13.74772
G1 X75.361 Y94.513 E13.77616
G1 X75.409 Y94.009 E13.79705
G1 X75.535 Y93.52 E13.81789
G1 X75.736 Y93.056 E13.83875
G1 X76.008 Y92.63 E13.85961
G1 X76.344 Y92.252 E13.88048
G1 X76.735 Y91.932 E13.90132
M204 S3000
G1 F3000 E8.90132
;MESH:HipConnectorBearing.stl
G0 F4200 X117.687 Y114.199
M204 S500
;TYPE:WALL-INNER
G1 F3000 E13.96369
G1 F1080 X119.313 Y114.199 E14.03078
G1 X120.893 Y113.81 E14.09792
G1 X122.334 Y113.053 E14.16509
G1 X123.552 Y111.975 E14.23221
G1 X124.476 Y110.636 E14.29934
G1 X125.052 Y109.115 E14.36645
G1 X125.057 Y109.067 E14.36844
G1 X125.248 Y107.5 E14.43358
G1 X125.052 Y105.885 E14.50071
G1 X124.476 Y104.364 E14.56782
G1 X123.552 Y103.025 E14.63495
G1 X123.516 Y102.994 E14.63691
G1 X122.334 Y101.947 E14.70206
G1 X120.893 Y101.19 E14.76923
G1 X119.313 Y100.801 E14.83637
G1 X117.687 Y100.801 E14.90347
G1 X116.107 Y101.19 E14.97061
G1 X114.666 Y101.947 E15.03778
G1 X113.448 Y103.025 E15.10489
G1 X112.524 Y104.364 E15.17202
G1 X111.948 Y105.885 E15.23913
G1 X111.943 Y105.933 E15.24112
G1 X111.752 Y107.5 E15.30626
G1 X111.948 Y109.115 E15.37339
G1 X112.524 Y110.636 E15.4405
G1 X113.448 Y111.975 E15.50763
G1 X113.484 Y112.006 E15.50959
G1 X114.666 Y113.053 E15.57475
G1 X116.107 Y113.81 E15.64192
G1 X117.687 Y114.199 E15.70906
M204 S3000
G0 F4200 X117.735 Y113.802
M204 S500
G1 F1080 X119.265 Y113.802 E15.77219
G1 X120.751 Y113.436 E15.83534
G1 X122.107 Y112.724 E15.89854
G1 X123.253 Y111.71 E15.96168
G1 X124.122 Y110.45 E16.02484
G1 X124.664 Y109.019 E16.08798
G1 X124.848 Y107.5 E16.15112
G1 X124.664 Y105.981 E16.21425
G1 X124.122 Y104.55 E16.2774
G1 X123.253 Y103.29 E16.34055
G1 X122.107 Y102.276 E16.40369
G1 X120.751 Y101.564 E16.46689
G1 X119.265 Y101.198 E16.53004
G1 X117.735 Y101.198 E16.59317
G1 X116.249 Y101.564 E16.65632
G1 X114.893 Y102.276 E16.71952
G1 X113.747 Y103.29 E16.78266
G1 X112.878 Y104.55 E16.84582
G1 X112.336 Y105.981 E16.90896
G1 X112.152 Y107.5 E16.9721
G1 X112.336 Y109.019 E17.03524
G1 X112.878 Y110.45 E17.09838
G1 X113.747 Y111.71 E17.16154
G1 X114.893 Y112.724 E17.22468
G1 X116.249 Y113.436 E17.28787
G1 X117.735 Y113.802 E17.35102
M204 S3000
G0 F4200 X117.782 Y113.411
M204 S500
;TYPE:WALL-OUTER
G1 F1080 X119.218 Y113.411 E17.41028
G1 X120.611 Y113.068 E17.46948
G1 X121.883 Y112.4 E17.52876
G1 X122.958 Y111.449 E17.58798
G1 X123.773 Y110.267 E17.64723
G1 X124.282 Y108.925 E17.70645
G1 X124.454 Y107.5 E17.76568
G1 X124.282 Y106.075 E17.82491
G1 X123.773 Y104.733 E17.88413
G1 X122.958 Y103.551 E17.94337
G1 X121.883 Y102.6 E18.0026
G1 X120.611 Y101.932 E18.06188
G1 X119.218 Y101.589 E18.12108
G1 X117.782 Y101.589 E18.18033
G1 X116.389 Y101.932 E18.23953
G1 X115.117 Y102.6 E18.29882
G1 X114.042 Y103.551 E18.35804
G1 X113.227 Y104.733 E18.41728
G1 X112.718 Y106.075 E18.47651
G1 X112.546 Y107.5 E18.53574
G1 X112.718 Y108.925 E18.59496
G1 X113.227 Y110.267 E18.65419
G1 X114.042 Y111.449 E18.71343
G1 X115.117 Y112.4 E18.77266
G1 X116.389 Y113.068 E18.83194
G1 X117.782 Y113.411 E18.89114
M204 S3000
G0 F4200 X117.982 Y113.411
G0 X117.982 Y113.847
G1 F3000 E13.89114
G0 F4200 X89.767 Y101.433
M204 S500
;TYPE:WALL-INNER
G1 F3000 E18.9535
G1 F1080 X90.283 Y101.305 E18.97544
G1 X90.748 Y101.058 E18.99716
G1 X91.146 Y100.71 E19.01898
G1 X91.447 Y100.271 E19.04094
G1 X91.637 Y99.775 E19.06286
G1 X91.698 Y99.25 E19.08467
G1 X91.637 Y98.725 E19.10648
G1 X91.447 Y98.229 E19.12839
G1 X91.146 Y97.79 E19.15036
G1 X90.748 Y97.442 E19.17217
G1 X90.283 Y97.195 E19.1939
G1 X89.767 Y97.067 E19.21584
G1 X89.233 Y97.067 E19.23787
G1 X88.717 Y97.195 E19.25981
G1 X88.252 Y97.442 E19.28153
G1 X87.854 Y97.79 E19.30335
G1 X87.553 Y98.229 E19.32531
G1 X87.363 Y98.725 E19.34723
G1 X87.302 Y99.25 E19.36904
G1 X87.363 Y99.775 E19.39085
G1 X87.553 Y100.271 E19.41276
G1 X87.854 Y100.71 E19.43473
G1 X88.252 Y101.058 E19.45654
G1 X88.717 Y101.305 E19.47827
G1 X89.233 Y101.433 E19.50021
G1 X89.767 Y101.433 E19.52224
M204 S3000
G0 F4200 X89.718 Y101.036
M204 S500
G1 F1080 X90.14 Y100.931 E19.54019
G1 X90.521 Y100.729 E19.55798
G1 X90.847 Y100.444 E19.57585
G1 X91.093 Y100.085 E19.59381
G1 X91.248 Y99.68 E19.6117
G1 X91.298 Y99.25 E19.62956
G1 X91.248 Y98.82 E19.64743
G1 X91.093 Y98.415 E19.66532
G1 X90.847 Y98.056 E19.68328
G1 X90.521 Y97.771 E19.70114
G1 X90.14 Y97.569 E19.71894
G1 X89.718 Y97.464 E19.73688
G1 X89.282 Y97.464 E19.75487
G1 X88.86 Y97.569 E19.77282
G1 X88.479 Y97.771 E19.79061
G1 X88.153 Y98.056 E19.80848
G1 X87.907 Y98.415 E19.82644
G1 X87.752 Y98.82 E19.84433
G1 X87.702 Y99.25 E19.86219
G1 X87.752 Y99.68 E19.88006
G1 X87.907 Y100.085 E19.89795
G1 X88.153 Y100.444 E19.91591
G1 X88.479 Y100.729 E19.93378
G1 X88.86 Y100.931 E19.95157
G1 X89.282 Y101.036 E19.96951
G1 X89.718 Y101.036 E19.9875
M204 S3000
G0 F4200 X89.67 Y100.645
M204 S500
;TYPE:WALL-OUTER
G1 F1080 X89.999 Y100.563 E20.0015
G1 X90.298 Y100.405 E20.01545
G1 X90.552 Y100.182 E20.0294
G1 X90.744 Y99.902 E20.04341
G1 X90.865 Y99.586 E20.05737
G1 X90.904 Y99.25 E20.07133
G1 X90.865 Y98.914 E20.08528
G1 X90.744 Y98.598 E20.09925
G1 X90.552 Y98.318 E20.11326
G1 X90.298 Y98.095 E20.1272
G1 X89.999 Y97.937 E20.14116
G1 X89.67 Y97.855 E20.15515
G1 X89.33 Y97.855 E20.16918
G1 X89.001 Y97.937 E20.18317
G1 X88.702 Y98.095 E20.19712
G1 X88.448 Y98.318 E20.21107
G1 X88.256 Y98.598 E20.22508
G1 X88.135 Y98.914 E20.23904
G1 X88.096 Y99.25 E20.253
G1 X88.135 Y99.586 E20.26696
G1 X88.256 Y99.902 E20.28092
G1 X88.448 Y100.182 E20.29493
G1 X88.702 Y100.405 E20.30888
G1 X89.001 Y100.563 E20.32283
G1 X89.33 Y100.645 E20.33682
G1 X89.67 Y100.645 E20.35085
M204 S3000
G0 F4200 X89.864 Y100.597
G0 X89.968 Y101.02
G1 F3000 E15.35085
G0 F4200 X83.767 Y101.433
M204 S500
;TYPE:WALL-INNER
G1 F3000 E20.41321
G1 F1080 X84.283 Y101.305 E20.43515
G1 X84.748 Y101.058 E20.45688
G1 X85.146 Y100.71 E20.47869
G1 X85.447 Y100.271 E20.50066
G1 X85.637 Y99.775 E20.52257
G1 X85.698 Y99.25 E20.54438
G1 X85.637 Y98.725 E20.56619
G1 X85.447 Y98.229 E20.58811
G1 X85.146 Y97.79 E20.61007
G1 X84.748 Y97.442 E20.63189
G1 X84.283 Y97.195 E20.65361
G1 X83.767 Y97.067 E20.67555
G1 X83.233 Y97.067 E20.69758
G1 X82.717 Y97.195 E20.71952
G1 X82.252 Y97.442 E20.74125
G1 X81.854 Y97.79 E20.76306
G1 X81.553 Y98.229 E20.78503
G1 X81.363 Y98.725 E20.80694
G1 X81.302 Y99.25 E20.82875
G1 X81.363 Y99.775 E20.85056
G1 X81.553 Y100.271 E20.87248
G1 X81.854 Y100.71 E20.89444
G1 X82.252 Y101.058 E20.91626
G1 X82.717 Y101.305 E20.93798
G1 X83.233 Y101.433 E20.95992
G1 X83.767 Y101.433 E20.98196
M204 S3000
G0 F4200 X83.718 Y101.036
M204 S500
G1 F1080 X84.14 Y100.931 E20.9999
G1 X84.521 Y100.729 E21.01769
G1 X84.847 Y100.444 E21.03556
G1 X85.093 Y100.085 E21.05352
G1 X85.248 Y99.68 E21.07141
G1 X85.298 Y99.25 E21.08928
G1 X85.248 Y98.82 E21.10714
G1 X85.093 Y98.415 E21.12503
G1 X84.847 Y98.056 E21.14299
G1 X84.521 Y97.771 E21.16086
G1 X84.14 Y97.569 E21.17865
G1 X83.718 Y97.464 E21.1966
G1 X83.282 Y97.464 E21.21459
G1 X82.86 Y97.569 E21.23253
G1 X82.479 Y97.771 E21.25033
G1 X82.153 Y98.056 E21.26819
G1 X81.907 Y98.415 E21.28615
G1 X81.752 Y98.82 E21.30404
G1 X81.702 Y99.25 E21.32191
G1 X81.752 Y99.68 E21.33977
G1 X81.907 Y100.085 E21.35766
G1 X82.153 Y100.444 E21.37562
G1 X82.479 Y100.729 E21.39349
G1 X82.86 Y100.931 E21.41128
G1 X83.282 Y101.036 E21.42923
G1 X83.718 Y101.036 E21.44722
M204 S3000
G0 F4200 X83.67 Y100.645
M204 S500
;TYPE:WALL-OUTER
G1 F1080 X83.999 Y100.563 E21.46121
G1 X84.298 Y100.405 E21.47516
G1 X84.552 Y100.182 E21.48911
G1 X84.744 Y99.902 E21.50312
G1 X84.865 Y99.586 E21.51708
G1 X84.904 Y99.25 E21.53104
G1 X84.865 Y98.914 E21.545
G1 X84.744 Y98.598 E21.55896
G1 X84.552 Y98.318 E21.57297
G1 X84.298 Y98.095 E21.58692
G1 X83.999 Y97.937 E21.60087
G1 X83.67 Y97.855 E21.61486
G1 X83.33 Y97.855 E21.62889
G1 X83.001 Y97.937 E21.64288
G1 X82.702 Y98.095 E21.65684
G1 X82.448 Y98.318 E21.67078
G1 X82.256 Y98.598 E21.68479
G1 X82.135 Y98.914 E21.69875
G1 X82.096 Y99.25 E21.71271
G1 X82.135 Y99.586 E21.72667
G1 X82.256 Y99.902 E21.74063
G1 X82.448 Y100.182 E21.75464
G1 X82.702 Y100.405 E21.76859
G1 X83.001 Y100.563 E21.78254
G1 X83.33 Y100.645 E21.79653
G1 X83.67 Y100.645 E21.81056
M204 S3000
G0 F4200 X83.864 Y100.597
G0 X83.968 Y101.02
G1 F3000 E16.81056
G0 F4200 X83.767 Y117.933
M204 S500
;TYPE:WALL-INNER
G1 F3000 E21.87293
G1 F1080 X84.283 Y117.805 E21.89486
G1 X84.748 Y117.558 E21.91659
G1 X85.146 Y117.21 E21.93841
G1 X85.447 Y116.771 E21.96037
G1 X85.637 Y116.275 E21.98229
G1 X85.698 Y115.75 E22.00409
G1 X85.637 Y115.225 E22.0259
G1 X85.447 Y114.729 E22.04782
G1 X85.146 Y114.29 E22.06978
G1 X84.748 Y113.942 E22.0916
G1 X84.283 Y113.695 E22.11333
G1 X83.767 Y113.567 E22.13526
G1 X83.233 Y113.567 E22.1573
G1 X82.717 Y113.695 E22.17924
G1 X82.252 Y113.942 E22.20096
G1 X81.854 Y114.29 E22.22278
G1 X81.553 Y114.729 E22.24474
G1 X81.363 Y115.225 E22.26666
