;FLAVOR:Marlin
;TIME:3098
;Filament used: 2.34623m
;Layer height: 0.2
;MINX:44.409
;MINY:92.954
;MINZ:0.25
;MAXX:165.591
;MAXY:126.046
;MAXZ:8.85
;Generated with Cura_SteamEngine 4.7.1
M140 S60
M105
M190 S60
M104 S200
M105
M109 S200
M82 ;absolute extrusion mode
; Script based on an original created by tjjfvi (https://github.com/tjjfvi)
; An up-to-date version of the tjjfvi's original script can be found
; here:  https://csi.t6.fyi/
; Note - This script will only work in Cura V4.2 and above!
; --- Global Settings
; layer_height = 0.2
; smooth_spiralized_contours = True
; magic_mesh_surface_mode = normal
; machine_extruder_count = 1
; --- Single Extruder Settings
; speed_z_hop = 10
; retraction_amount = 5
; retraction_hop = 0.075
; retraction_hop_enabled = True
; retraction_enable = True
; retraction_speed = 50
; retraction_retract_speed = 50
; retraction_prime_speed = 50
; speed_travel = 120

G21 ;metric values
G90 ;absolute positioning
M82 ;set extruder to absolute mode
M107 ;start with the fan off
G28 X0 Y0 ;move X/Y to min endstops
G28 Z0 ;move Z to min endstops
G1 Z15.0 F120 ;move the platform down 15mm
G92 E0 ;zero the extruded length
G1 F200 E3 ;extrude 3mm of feed stock
G92 E0 ;zero the extruded length again
G1 F120
G0 Y20 F120
M117 Printing...
G5
G92 E0
G92 E0
G1 F3000 E-5
;LAYER_COUNT:44
;LAYER:0
M106 S51
M204 S3000
M205 X10 Y10
G1 F600 Z0.325
G0 F4200 X46.3 Y93.423 Z0.325
M204 S500
;TYPE:SKIRT
G1 F600 Z0.25
G1 F3000 E0.06236
G1 F1800 X46.786 Y93.196 E0.0845
G1 X47.3 Y93.044 E0.10661
G1 X47.959 Y92.964 E0.13401
G1 X48.38 Y92.954 E0.15138
G1 X161.295 Y92.954 E4.81063
G1 X161.993 Y92.964 E4.83944
G1 X162.526 Y93.012 E4.86152
G1 X163.047 Y93.138 E4.88364
G1 X163.544 Y93.341 E4.90579
G1 X164.004 Y93.615 E4.92789
G1 X164.419 Y93.954 E4.95
G1 X164.779 Y94.351 E4.97211
G1 X165.076 Y94.798 E4.99426
G1 X165.303 Y95.283 E5.01635
G1 X165.455 Y95.797 E5.03847
G1 X165.536 Y96.459 E5.06599
G1 X165.546 Y96.88 E5.08337
G1 X165.546 Y104.418 E5.39441
G1 X165.591 Y107.421 E5.51834
G1 X165.591 Y111.178 E5.67336
G1 X165.567 Y112.977 E5.7476
G1 X165.578 Y113.346 E5.76284
G1 X165.546 Y114.832 E5.82417
G1 X165.546 Y121.763 E6.11016
G1 X165.536 Y122.49 E6.14016
G1 X165.488 Y123.024 E6.16229
G1 X165.362 Y123.545 E6.18441
G1 X165.16 Y124.042 E6.20654
G1 X164.886 Y124.503 E6.22867
G1 X164.547 Y124.918 E6.25078
G1 X164.15 Y125.278 E6.2729
G1 X163.704 Y125.575 E6.29501
G1 X163.219 Y125.802 E6.3171
G1 X162.705 Y125.955 E6.33923
G1 X162.041 Y126.036 E6.36684
G1 X161.62 Y126.046 E6.38421
G1 X48.711 Y126.046 E11.04322
G1 X48.013 Y126.037 E11.07202
G1 X47.479 Y125.99 E11.09414
G1 X46.958 Y125.864 E11.11626
G1 X46.461 Y125.662 E11.1384
G1 X46 Y125.389 E11.1605
G1 X45.585 Y125.05 E11.18261
G1 X45.224 Y124.654 E11.20473
G1 X44.927 Y124.208 E11.22684
G1 X44.699 Y123.723 E11.24895
G1 X44.546 Y123.209 E11.27108
G1 X44.464 Y122.538 E11.29897
G1 X44.454 Y122.108 E11.31672
G1 X44.454 Y114.582 E11.62727
G1 X44.409 Y111.579 E11.7512
G1 X44.409 Y107.803 E11.90701
G1 X44.433 Y106.023 E11.98046
G1 X44.422 Y105.654 E11.9957
G1 X44.454 Y104.168 E12.05703
G1 X44.454 Y97.17 E12.34579
G1 X44.464 Y96.505 E12.37323
G1 X44.512 Y95.971 E12.39535
G1 X44.639 Y95.45 E12.41748
G1 X44.842 Y94.954 E12.4396
G1 X45.116 Y94.494 E12.46169
G1 X45.456 Y94.079 E12.48383
G1 X45.853 Y93.72 E12.50591
G1 X46.3 Y93.423 E12.52806
M204 S3000
G0 F4200 X46.673 Y93.676
M204 S500
G1 F1800 X47.144 Y93.494 E12.54889
G1 X47.639 Y93.388 E12.56978
G1 X48.29 Y93.352 E12.59669
G1 X161.289 Y93.351 E17.2594
G1 X161.987 Y93.361 E17.28821
G1 X162.49 Y93.408 E17.30905
G1 X162.98 Y93.534 E17.32993
G1 X163.443 Y93.736 E17.35078
G1 X163.869 Y94.008 E17.37163
G1 X164.247 Y94.343 E17.39247
G1 X164.568 Y94.734 E17.41335
G1 X164.823 Y95.171 E17.43422
G1 X165.005 Y95.642 E17.45506
G1 X165.112 Y96.136 E17.47592
G1 X165.148 Y96.79 E17.50294
G1 X165.149 Y104.424 E17.81795
G1 X165.194 Y107.427 E17.94188
G1 X165.194 Y111.172 E18.09641
G1 X165.168 Y113.125 E18.177
G1 X165.181 Y113.338 E18.18581
G1 X165.149 Y114.801 E18.24619
G1 X165.149 Y121.758 E18.53326
G1 X165.139 Y122.485 E18.56326
G1 X165.092 Y122.988 E18.58411
G1 X164.966 Y123.478 E18.60498
G1 X164.765 Y123.942 E18.62585
G1 X164.493 Y124.368 E18.6467
G1 X164.158 Y124.746 E18.66755
G1 X163.767 Y125.067 E18.68842
G1 X163.331 Y125.322 E18.70926
G1 X162.86 Y125.505 E18.73011
G1 X162.366 Y125.612 E18.75097
G1 X161.71 Y125.648 E18.77808
G1 X48.716 Y125.649 E23.44059
G1 X48.018 Y125.64 E23.46939
G1 X47.514 Y125.593 E23.49028
G1 X47.025 Y125.468 E23.51111
G1 X46.561 Y125.267 E23.53197
G1 X46.134 Y124.996 E23.55284
G1 X45.756 Y124.661 E23.57368
G1 X45.435 Y124.271 E23.59453
G1 X45.179 Y123.834 E23.61542
G1 X44.996 Y123.363 E23.63628
G1 X44.889 Y122.869 E23.65713
G1 X44.852 Y122.194 E23.68503
G1 X44.851 Y114.576 E23.99937
G1 X44.806 Y111.573 E24.1233
G1 X44.806 Y107.808 E24.27865
G1 X44.832 Y105.875 E24.35842
G1 X44.819 Y105.662 E24.36723
G1 X44.851 Y104.199 E24.42761
G1 X44.851 Y97.176 E24.7174
G1 X44.861 Y96.511 E24.74485
G1 X44.909 Y96.008 E24.7657
G1 X45.035 Y95.518 E24.78657
G1 X45.237 Y95.055 E24.80742
G1 X45.509 Y94.629 E24.82827
G1 X45.845 Y94.251 E24.84914
G1 X46.236 Y93.931 E24.86999
G1 X46.673 Y93.676 E24.89087
M204 S3000
G1 F3000 E19.89087
G0 F4200 X65.418 Y112.818
M204 S500
;TYPE:SUPPORT
G1 F3000 E24.95323
G1 F1080 X63.575 Y111.734 E25.04146
G1 X63.291 Y111.657 E25.0536
G1 X60.15 Y111.657 E25.18321
G1 X60.15 Y111.45 E25.19175
G1 X64.05 Y111.45 E25.35268
G1 X65.418 Y112.818 E25.43251
M204 S3000
G0 F4200 X66.775 Y112.625
M204 S500
G1 F1080 X67.95 Y111.45 E25.50108
G1 X71.85 Y111.45 E25.662
G1 X71.85 Y111.657 E25.67054
G1 X68.631 Y111.657 E25.80337
G1 X68.358 Y111.729 E25.81502
G1 X66.775 Y112.625 E25.89008
M204 S3000
G1 F3000 E20.89008
G0 F4200 X67.95 Y107.55
M204 S500
G1 F3000 E25.95244
G1 F1080 X67.149 Y106.749 E25.99918
G1 X68.028 Y107.266 E26.04126
G1 X68.312 Y107.343 E26.0534
G1 X71.85 Y107.343 E26.19939
G1 X71.85 Y107.55 E26.20794
G1 X67.95 Y107.55 E26.36886
M204 S3000
G1 F3000 E21.36886
G0 F4200 X64.05 Y107.55
M204 S500
G1 F3000 E26.43123
G1 F1080 X60.15 Y107.55 E26.59215
G1 X60.15 Y107.343 E26.60069
G1 X63.555 Y107.343 E26.7412
G1 X63.828 Y107.271 E26.75285
G1 X64.982 Y106.618 E26.80756
G1 X64.05 Y107.55 E26.86195
M204 S3000
G1 F3000 E21.86195
G0 F4200 X56.25 Y107.55
M204 S500
G1 F3000 E26.92431
G1 F1080 X52.35 Y107.55 E27.08524
G1 X52.143 Y107.343 E27.09732
G1 X56.25 Y107.343 E27.26678
G1 X56.25 Y107.55 E27.27533
M204 S3000
G1 F3000 E22.27533
G0 F4200 X56.25 Y111.657
M204 S500
G1 F3000 E27.33769
G1 F1080 X52.143 Y111.657 E27.50716
G1 X52.35 Y111.45 E27.51924
G1 X56.25 Y111.45 E27.68016
G1 X56.25 Y111.657 E27.6887
M204 S3000
G1 F3000 E22.6887
G0 F4200 X48.657 Y111.657
M204 S500
G1 F3000 E27.75107
G1 F1080 X48.203 Y111.657 E27.7698
G1 X48.203 Y111.45 E27.77834
G1 X48.45 Y111.45 E27.78853
G1 X48.657 Y111.657 E27.80061
M204 S3000
G1 F3000 E22.80061
G0 F4200 X48.657 Y107.343
M204 S500
G1 F3000 E27.86298
G1 F1080 X48.45 Y107.55 E27.87506
G1 X48.203 Y107.55 E27.88525
G1 X48.203 Y107.343 E27.89379
G1 X48.657 Y107.343 E27.91252
M204 S3000
G1 F3000 E22.91252
G0 F4200 X108.9 Y109.5
M204 S500
G1 F3000 E27.97489
G1 F1080 X111.057 Y111.657 E28.10076
G1 X98.943 Y111.657 E28.60062
G1 X101.1 Y109.5 E28.7265
G1 X98.943 Y107.343 E28.85237
G1 X111.057 Y107.343 E29.35223
G1 X108.9 Y109.5 E29.4781
M204 S3000
G1 F3000 E24.4781
G0 F4200 X143.192 Y112.592
M204 S500
G1 F3000 E29.54047
G1 F1080 X141.771 Y111.735 E29.60894
G1 X141.482 Y111.657 E29.62129
G1 X138.15 Y111.657 E29.75878
G1 X138.15 Y111.45 E29.76732
G1 X142.05 Y111.45 E29.92825
G1 X143.192 Y112.592 E29.99489
M204 S3000
G1 F3000 E24.99489
G0 F4200 X144.89 Y112.51
M204 S500
G1 F3000 E30.05725
G1 F1080 X145.95 Y111.45 E30.11911
G1 X149.85 Y111.45 E30.28004
G1 X149.85 Y111.657 E30.28858
G1 X146.577 Y111.657 E30.42363
G1 X146.308 Y111.728 E30.43511
G1 X144.89 Y112.51 E30.50193
M204 S3000
G1 F3000 E25.50193
G0 F4200 X145.95 Y107.55
M204 S500
G1 F3000 E30.5643
G1 F1080 X144.808 Y106.408 E30.63094
G1 X146.229 Y107.265 E30.69941
G1 X146.518 Y107.343 E30.71176
G1 X149.85 Y107.343 E30.84925
G1 X149.85 Y107.55 E30.85779
G1 X145.95 Y107.55 E31.01872
M204 S3000
G1 F3000 E26.01872
G0 F4200 X142.05 Y107.55
M204 S500
G1 F3000 E31.08108
G1 F1080 X138.15 Y107.55 E31.24201
G1 X138.15 Y107.343 E31.25055
G1 X141.423 Y107.343 E31.38561
G1 X141.692 Y107.272 E31.39709
G1 X143.11 Y106.49 E31.46391
G1 X142.05 Y107.55 E31.52576
M204 S3000
G1 F3000 E26.52576
G0 F4200 X153.75 Y107.55
M204 S500
G1 F3000 E31.58813
G1 F1080 X153.75 Y107.343 E31.59667
G1 X157.857 Y107.343 E31.76614
G1 X157.65 Y107.55 E31.77822
G1 X153.75 Y107.55 E31.93914
M204 S3000
G1 F3000 E26.93914
G0 F4200 X153.75 Y111.657
M204 S500
G1 F3000 E32.00151
G1 F1080 X153.75 Y111.45 E32.01005
G1 X157.65 Y111.45 E32.17097
G1 X157.857 Y111.657 E32.18305
G1 X153.75 Y111.657 E32.35252
M204 S3000
G1 F3000 E27.35252
G0 F4200 X161.343 Y111.657
M204 S500
G1 F3000 E32.41488
G1 F1080 X161.55 Y111.45 E32.42696
G1 X161.797 Y111.45 E32.43716
G1 X161.797 Y111.657 E32.4457
G1 X161.343 Y111.657 E32.46443
M204 S3000
G1 F3000 E27.46443
G0 F4200 X161.343 Y107.343
M204 S500
G1 F3000 E32.52679
G1 F1080 X161.797 Y107.343 E32.54553
G1 X161.797 Y107.55 E32.55407
G1 X161.55 Y107.55 E32.56426
G1 X161.343 Y107.343 E32.57634
M204 S3000
G1 F3000 E27.57634
;MESH:MidBottomPlate.stl
G0 F4200 X156.872 Y120.207
M204 S500
;TYPE:WALL-INNER
G1 F3000 E32.6387
G1 F1080 X157.312 Y120.428 E32.65902
G1 X157.793 Y120.536 E32.67936
G1 X158.287 Y120.526 E32.69975
G1 X158.764 Y120.4 E32.72011
G1 X159.199 Y120.16 E32.74061
G1 X159.56 Y119.823 E32.76099
G1 X159.831 Y119.413 E32.78127
G1 X159.995 Y118.95 E32.80153
G1 X160.046 Y118.461 E32.82182
G1 X159.979 Y117.971 E32.84223
G1 X159.792 Y117.51 E32.86276
G1 X159.505 Y117.112 E32.883
G1 X159.128 Y116.793 E32.90338
G1 X158.688 Y116.572 E32.9237
G1 X158.207 Y116.464 E32.94404
G1 X157.712 Y116.474 E32.96447
G1 X157.244 Y116.599 E32.98446
G1 X156.826 Y116.82 E33.00397
G1 X156.441 Y117.175 E33.02558
G1 X156.169 Y117.587 E33.04595
G1 X156.005 Y118.05 E33.06622
G1 X155.954 Y118.539 E33.08651
G1 X156.021 Y119.029 E33.10691
G1 X156.208 Y119.49 E33.12744
G1 X156.495 Y119.888 E33.14769
G1 X156.872 Y120.207 E33.16807
M204 S3000
G0 F4200 X157.092 Y119.873
M204 S500
G1 F1080 X157.447 Y120.051 E33.18445
G1 X157.833 Y120.138 E33.20078
G1 X158.232 Y120.13 E33.21725
G1 X158.615 Y120.029 E33.23359
G1 X158.964 Y119.836 E33.25005
G1 X159.255 Y119.565 E33.26646
G1 X159.473 Y119.235 E33.28278
G1 X159.605 Y118.862 E33.2991
G1 X159.646 Y118.468 E33.31545
G1 X159.592 Y118.074 E33.33186
G1 X159.442 Y117.704 E33.34833
G1 X159.211 Y117.384 E33.36462
G1 X158.908 Y117.127 E33.38101
G1 X158.553 Y116.949 E33.3974
G1 X158.167 Y116.862 E33.41373
G1 X157.768 Y116.87 E33.43019
G1 X157.39 Y116.971 E33.44634
G1 X157.057 Y117.147 E33.46188
G1 X156.746 Y117.434 E33.47934
G1 X156.527 Y117.765 E33.49572
G1 X156.395 Y118.138 E33.51205
G1 X156.354 Y118.532 E33.52839
G1 X156.408 Y118.926 E33.5448
G1 X156.558 Y119.296 E33.56127
G1 X156.789 Y119.616 E33.57756
G1 X157.092 Y119.873 E33.59395
M204 S3000
G0 F4200 X157.309 Y119.545
M204 S500
;TYPE:WALL-OUTER
G1 F1080 X157.579 Y119.68 E33.60641
G1 X157.873 Y119.746 E33.61884
G1 X158.177 Y119.74 E33.63139
G1 X158.468 Y119.663 E33.64381
G1 X158.733 Y119.517 E33.6563
G1 X158.954 Y119.311 E33.66876
G1 X159.12 Y119.059 E33.68121
G1 X159.221 Y118.775 E33.69365
G1 X159.252 Y118.475 E33.7061
G1 X159.211 Y118.176 E33.71855
G1 X159.097 Y117.895 E33.73106
G1 X158.921 Y117.651 E33.74348
G1 X158.691 Y117.455 E33.75595
G1 X158.421 Y117.32 E33.7684
G1 X158.127 Y117.254 E33.78084
G1 X157.823 Y117.26 E33.79338
G1 X157.534 Y117.337 E33.80572
G1 X157.285 Y117.469 E33.81735
G1 X157.046 Y117.689 E33.83076
G1 X156.88 Y117.941 E33.84321
G1 X156.779 Y118.225 E33.85565
G1 X156.748 Y118.525 E33.86809
G1 X156.789 Y118.824 E33.88054
G1 X156.903 Y119.105 E33.89306
G1 X157.079 Y119.349 E33.90547
G1 X157.309 Y119.545 E33.91794
M204 S3000
G0 F4200 X157.488 Y119.634
G0 X157.292 Y120.025
G1 F3000 E28.91794
G0 F4200 X53.199 Y120.16
M204 S500
;TYPE:WALL-INNER
G1 F3000 E33.9803
G1 F1080 X53.56 Y119.823 E34.00068
G1 X53.831 Y119.413 E34.02096
G1 X53.995 Y118.95 E34.04123
G1 X54.046 Y118.461 E34.06152
G1 X53.979 Y117.971 E34.08192
G1 X53.792 Y117.51 E34.10245
G1 X53.505 Y117.112 E34.1227
G1 X53.128 Y116.793 E34.14308
G1 X52.688 Y116.572 E34.16339
G1 X52.207 Y116.464 E34.18374
G1 X51.712 Y116.474 E34.20417
G1 X51.244 Y116.599 E34.22415
G1 X50.826 Y116.82 E34.24366
G1 X50.441 Y117.175 E34.26527
G1 X50.169 Y117.587 E34.28564
G1 X50.005 Y118.05 E34.30591
G1 X49.954 Y118.539 E34.3262
G1 X50.021 Y119.029 E34.34661
G1 X50.208 Y119.49 E34.36713
G1 X50.495 Y119.888 E34.38738
G1 X50.872 Y120.207 E34.40776
G1 X51.312 Y120.428 E34.42808
G1 X51.793 Y120.536 E34.44842
G1 X52.287 Y120.526 E34.46881
G1 X52.764 Y120.4 E34.48917
G1 X53.199 Y120.16 E34.50967
M204 S3000
G0 F4200 X52.964 Y119.836
M204 S500
G1 F1080 X53.255 Y119.565 E34.52607
G1 X53.473 Y119.235 E34.54239
G1 X53.605 Y118.862 E34.55872
G1 X53.646 Y118.468 E34.57507
G1 X53.592 Y118.074 E34.59148
G1 X53.442 Y117.704 E34.60795
G1 X53.211 Y117.384 E34.62423
G1 X52.908 Y117.127 E34.64063
G1 X52.553 Y116.949 E34.65702
G1 X52.167 Y116.862 E34.67334
G1 X51.768 Y116.87 E34.68981
G1 X51.39 Y116.971 E34.70596
G1 X51.057 Y117.147 E34.7215
G1 X50.746 Y117.434 E34.73896
G1 X50.527 Y117.765 E34.75534
G1 X50.395 Y118.138 E34.77166
G1 X50.354 Y118.532 E34.78801
G1 X50.408 Y118.926 E34.80442
G1 X50.558 Y119.296 E34.82089
G1 X50.789 Y119.616 E34.83718
G1 X51.092 Y119.873 E34.85357
G1 X51.447 Y120.051 E34.86996
G1 X51.833 Y120.138 E34.88629
G1 X52.232 Y120.13 E34.90275
G1 X52.615 Y120.029 E34.9191
G1 X52.964 Y119.836 E34.93555
M204 S3000
G0 F4200 X52.733 Y119.517
M204 S500
;TYPE:WALL-OUTER
G1 F1080 X52.954 Y119.311 E34.94802
G1 X53.12 Y119.059 E34.96047
G1 X53.221 Y118.775 E34.97291
G1 X53.252 Y118.475 E34.98536
G1 X53.211 Y118.176 E34.99781
G1 X53.097 Y117.895 E35.01032
G1 X52.921 Y117.651 E35.02274
G1 X52.691 Y117.455 E35.0352
G1 X52.421 Y117.32 E35.04766
G1 X52.127 Y117.254 E35.06009
G1 X51.823 Y117.26 E35.07264
G1 X51.534 Y117.337 E35.08498
G1 X51.285 Y117.469 E35.09661
G1 X51.046 Y117.689 E35.11001
G1 X50.88 Y117.941 E35.12247
G1 X50.779 Y118.225 E35.1349
G1 X50.748 Y118.525 E35.14735
G1 X50.789 Y118.824 E35.1598
G1 X50.903 Y119.105 E35.17232
G1 X51.079 Y119.349 E35.18473
G1 X51.309 Y119.545 E35.1972
G1 X51.579 Y119.68 E35.20965
G1 X51.873 Y119.746 E35.22209
G1 X52.177 Y119.74 E35.23463
G1 X52.468 Y119.663 E35.24706
G1 X52.733 Y119.517 E35.25954
M204 S3000
G0 F4200 X52.879 Y119.381
G0 X53.175 Y119.7
G1 F3000 E30.25954
G0 F4200 X104.793 Y120.536
M204 S500
;TYPE:WALL-INNER
G1 F3000 E35.3219
G1 F1080 X105.287 Y120.526 E35.34229
G1 X105.764 Y120.4 E35.36265
G1 X106.199 Y120.16 E35.38315
G1 X106.56 Y119.823 E35.40353
G1 X106.831 Y119.413 E35.42381
G1 X106.995 Y118.95 E35.44407
G1 X107.046 Y118.461 E35.46436
G1 X106.979 Y117.971 E35.48477
G1 X106.792 Y117.51 E35.5053
G1 X106.505 Y117.112 E35.52554
G1 X106.128 Y116.793 E35.54592
G1 X105.688 Y116.572 E35.56624
G1 X105.207 Y116.464 E35.58658
G1 X104.712 Y116.474 E35.60701
G1 X104.244 Y116.599 E35.627
G1 X103.826 Y116.82 E35.64651
G1 X103.441 Y117.175 E35.66812
G1 X103.169 Y117.587 E35.68849
G1 X103.005 Y118.05 E35.70876
G1 X102.954 Y118.539 E35.72905
G1 X103.021 Y119.029 E35.74945
G1 X103.208 Y119.49 E35.76998
G1 X103.495 Y119.888 E35.79023
G1 X103.872 Y120.207 E35.81061
G1 X104.312 Y120.428 E35.83092
G1 X104.793 Y120.536 E35.85126
M204 S3000
G0 F4200 X104.833 Y120.138
M204 S500
G1 F1080 X105.232 Y120.13 E35.86773
G1 X105.615 Y120.029 E35.88408
G1 X105.964 Y119.836 E35.90053
G1 X106.255 Y119.565 E35.91694
G1 X106.473 Y119.235 E35.93326
G1 X106.605 Y118.862 E35.94959
G1 X106.646 Y118.468 E35.96593
G1 X106.592 Y118.074 E35.98234
G1 X106.442 Y117.704 E35.99882
G1 X106.211 Y117.384 E36.0151
G1 X105.908 Y117.127 E36.0315
G1 X105.553 Y116.949 E36.04788
G1 X105.167 Y116.862 E36.06421
G1 X104.768 Y116.87 E36.08068
G1 X104.39 Y116.971 E36.09682
G1 X104.057 Y117.147 E36.11236
G1 X103.746 Y117.434 E36.12983
G1 X103.527 Y117.765 E36.1462
