;FLAVOR:Marlin
;TIME:8613
;Filament used: 6.71317m
;Layer height: 0.2
;MINX:45.072
;MINY:52.572
;MINZ:0.25
;MAXX:164.928
;MAXY:157.428
;MAXZ:12.85
;Generated with Cura_SteamEngine 4.8.0
M140 S60
M105
M190 S60
M104 S200
M105
M109 S200
M82 ;absolute extrusion mode
G21 ;metric values
G90 ;absolute positioning
M82 ;set extruder to absolute mode
M107 ;start with the fan off
G28 X0 Y0 ;move X/Y to min endstops
G28 Z0 ;move Z to min endstops
G1 Z15.0 F120 ;move the platform down 15mm
G92 E0 ;zero the extruded length
G1 F200 E3 ;extrude 3mm of feed stock
G92 E0 ;zero the extruded length again
G1 F120
G0 Y20 F120
M117 Printing...
G5
G92 E0
G92 E0
G1 F3000 E-5
;LAYER_COUNT:64
;LAYER:0
M106 S51
M204 S3000
M205 X10 Y10
G1 F600 Z0.325
G0 F4200 X46.018 Y53.373 Z0.325
M204 S400
;TYPE:SKIRT
G1 F600 Z0.25
G1 F3000 E0.06236
G1 F1800 X46.4 Y53.071 E0.08246
G1 X46.827 Y52.835 E0.10259
G1 X47.287 Y52.671 E0.12274
G1 X48.05 Y52.572 E0.15449
G1 X161.95 Y52.572 E4.85438
G1 X162.436 Y52.612 E4.8745
G1 X162.909 Y52.731 E4.89463
G1 X163.356 Y52.925 E4.91474
G1 X163.766 Y53.19 E4.93488
G1 X164.127 Y53.518 E4.95501
G1 X164.429 Y53.9 E4.9751
G1 X164.665 Y54.327 E4.99523
G1 X164.829 Y54.787 E5.01538
G1 X164.928 Y55.55 E5.04713
G1 X164.928 Y84.45 E6.23964
G1 X164.888 Y84.936 E6.25977
G1 X164.769 Y85.409 E6.27989
G1 X164.575 Y85.856 E6.3
G1 X164.31 Y86.266 E6.32014
G1 X163.982 Y86.627 E6.34027
G1 X163.6 Y86.929 E6.36036
G1 X163.173 Y87.165 E6.38049
G1 X162.713 Y87.329 E6.40064
G1 X161.95 Y87.428 E6.43239
G1 X48.05 Y87.428 E11.13229
G1 X47.564 Y87.388 E11.15241
G1 X47.091 Y87.269 E11.17254
G1 X46.644 Y87.075 E11.19264
G1 X46.234 Y86.81 E11.21279
G1 X45.873 Y86.482 E11.23291
G1 X45.571 Y86.1 E11.25301
G1 X45.335 Y85.673 E11.27314
G1 X45.171 Y85.213 E11.29329
G1 X45.072 Y84.45 E11.32504
G1 X45.072 Y55.55 E12.51755
G1 X45.112 Y55.064 E12.53767
G1 X45.231 Y54.591 E12.5578
G1 X45.425 Y54.144 E12.5779
G1 X45.69 Y53.734 E12.59805
G1 X46.018 Y53.373 E12.61817
M204 S3000
G0 F4200 X46.407 Y53.56
M204 S400
G1 F1800 X46.781 Y53.303 E12.6369
G1 X47.194 Y53.115 E12.65562
G1 X47.634 Y53.003 E12.67436
G1 X48.05 Y52.969 E12.69158
G1 X161.95 Y52.969 E17.39148
G1 X162.402 Y53.009 E17.4102
G1 X162.84 Y53.127 E17.42892
G1 X163.251 Y53.321 E17.44767
G1 X163.621 Y53.583 E17.46638
G1 X163.94 Y53.907 E17.48514
G1 X164.197 Y54.281 E17.50387
G1 X164.385 Y54.694 E17.52259
G1 X164.497 Y55.134 E17.54133
G1 X164.531 Y55.55 E17.55855
G1 X164.531 Y84.45 E18.75106
G1 X164.491 Y84.902 E18.76978
G1 X164.373 Y85.34 E18.7885
G1 X164.179 Y85.751 E18.80725
G1 X163.917 Y86.121 E18.82596
G1 X163.593 Y86.44 E18.84472
G1 X163.219 Y86.697 E18.86345
G1 X162.806 Y86.885 E18.88217
G1 X162.366 Y86.997 E18.90091
G1 X161.95 Y87.031 E18.91813
G1 X48.05 Y87.031 E23.61803
G1 X47.598 Y86.991 E23.63675
G1 X47.16 Y86.873 E23.65547
G1 X46.749 Y86.679 E23.67422
G1 X46.379 Y86.417 E23.69293
G1 X46.06 Y86.093 E23.71169
G1 X45.803 Y85.719 E23.73042
G1 X45.615 Y85.306 E23.74914
G1 X45.503 Y84.866 E23.76788
G1 X45.469 Y84.45 E23.7851
G1 X45.469 Y55.55 E24.97761
G1 X45.509 Y55.098 E24.99633
G1 X45.627 Y54.66 E25.01505
G1 X45.821 Y54.249 E25.0338
G1 X46.083 Y53.879 E25.05251
G1 X46.407 Y53.56 E25.07127
M204 S3000
G0 F4200 X46.476 Y54.036
M204 S400
G1 F1800 X46.793 Y53.764 E25.08851
G1 X47.155 Y53.558 E25.1057
G1 X47.551 Y53.424 E25.12295
G1 X48.05 Y53.366 E25.14368
G1 X161.95 Y53.366 E29.84357
G1 X162.366 Y53.406 E29.86082
G1 X162.766 Y53.524 E29.87803
G1 X163.137 Y53.716 E29.89526
G1 X163.464 Y53.976 E29.9125
G1 X163.736 Y54.293 E29.92974
G1 X163.942 Y54.655 E29.94692
G1 X164.076 Y55.051 E29.96417
G1 X164.134 Y55.55 E29.9849
G1 X164.134 Y84.45 E31.17741
G1 X164.094 Y84.866 E31.19466
G1 X163.976 Y85.266 E31.21187
G1 X163.784 Y85.637 E31.2291
G1 X163.524 Y85.964 E31.24634
G1 X163.207 Y86.236 E31.26358
G1 X162.845 Y86.442 E31.28077
G1 X162.449 Y86.576 E31.29802
G1 X161.95 Y86.634 E31.31874
G1 X48.05 Y86.634 E36.01864
G1 X47.634 Y86.594 E36.03589
G1 X47.234 Y86.476 E36.05309
G1 X46.863 Y86.284 E36.07033
G1 X46.536 Y86.024 E36.08757
G1 X46.264 Y85.707 E36.10481
G1 X46.058 Y85.345 E36.12199
G1 X45.924 Y84.949 E36.13924
G1 X45.866 Y84.45 E36.15997
G1 X45.866 Y55.55 E37.35248
G1 X45.906 Y55.134 E37.36973
G1 X46.024 Y54.734 E37.38694
G1 X46.216 Y54.363 E37.40417
G1 X46.476 Y54.036 E37.42141
M204 S3000
G0 F4200 X46.866 Y54.211
M204 S400
G1 F1800 X47.174 Y53.992 E37.43701
G1 X47.521 Y53.843 E37.45259
G1 X48.05 Y53.763 E37.47466
G1 X161.95 Y53.763 E42.17456
G1 X162.325 Y53.803 E42.19012
G1 X162.684 Y53.921 E42.20572
G1 X163.01 Y54.111 E42.22129
G1 X163.289 Y54.366 E42.23688
G1 X163.508 Y54.674 E42.25248
G1 X163.657 Y55.021 E42.26806
G1 X163.737 Y55.55 E42.29014
G1 X163.737 Y84.45 E43.48265
G1 X163.697 Y84.825 E43.49821
G1 X163.579 Y85.184 E43.5138
G1 X163.389 Y85.51 E43.52937
G1 X163.134 Y85.789 E43.54497
G1 X162.826 Y86.008 E43.56056
G1 X162.479 Y86.157 E43.57614
G1 X161.95 Y86.237 E43.59822
G1 X48.05 Y86.237 E48.29812
G1 X47.675 Y86.197 E48.31368
G1 X47.316 Y86.079 E48.32927
G1 X46.99 Y85.889 E48.34484
G1 X46.711 Y85.634 E48.36044
G1 X46.492 Y85.326 E48.37603
G1 X46.343 Y84.979 E48.39162
G1 X46.263 Y84.45 E48.41369
G1 X46.263 Y55.55 E49.6062
G1 X46.303 Y55.175 E49.62176
G1 X46.421 Y54.816 E49.63736
G1 X46.611 Y54.49 E49.65293
G1 X46.866 Y54.211 E49.66852
M204 S3000
G0 F4200 X47.005 Y54.633
M204 S400
G1 F1800 X47.253 Y54.411 E49.68226
G1 X47.547 Y54.254 E49.69601
G1 X48.05 Y54.16 E49.71713
G1 X161.95 Y54.16 E54.41702
G1 X162.28 Y54.2 E54.43074
G1 X162.592 Y54.317 E54.44449
G1 X162.867 Y54.505 E54.45823
G1 X163.089 Y54.753 E54.47197
G1 X163.246 Y55.047 E54.48572
G1 X163.34 Y55.55 E54.50684
G1 X163.34 Y84.45 E55.69935
G1 X163.3 Y84.78 E55.71306
G1 X163.183 Y85.092 E55.72681
G1 X162.995 Y85.367 E55.74056
G1 X162.747 Y85.589 E55.75429
G1 X162.453 Y85.746 E55.76805
G1 X161.95 Y85.84 E55.78916
G1 X48.05 Y85.84 E60.48906
G1 X47.72 Y85.8 E60.50277
G1 X47.408 Y85.683 E60.51652
G1 X47.133 Y85.495 E60.53027
G1 X46.911 Y85.247 E60.544
G1 X46.754 Y84.953 E60.55776
G1 X46.66 Y84.45 E60.57887
G1 X46.66 Y55.55 E61.77138
G1 X46.7 Y55.22 E61.7851
G1 X46.817 Y54.908 E61.79885
G1 X47.005 Y54.633 E61.81259
M204 S3000
G0 F4200 X47.396 Y54.803
M204 S400
G1 F1800 X47.632 Y54.649 E61.82422
G1 X48.05 Y54.557 E61.84188
G1 X161.95 Y54.557 E66.54178
G1 X162.228 Y54.597 E66.55337
G1 X162.484 Y54.713 E66.56497
G1 X162.697 Y54.896 E66.57655
G1 X162.851 Y55.132 E66.58818
G1 X162.943 Y55.55 E66.60584
G1 X162.943 Y84.45 E67.79835
G1 X162.903 Y84.728 E67.80994
G1 X162.787 Y84.984 E67.82154
G1 X162.604 Y85.197 E67.83313
G1 X162.368 Y85.351 E67.84475
G1 X161.95 Y85.443 E67.86242
G1 X48.05 Y85.443 E72.56231
G1 X47.772 Y85.403 E72.5739
G1 X47.516 Y85.287 E72.5855
G1 X47.303 Y85.104 E72.59709
G1 X47.149 Y84.868 E72.60871
G1 X47.057 Y84.45 E72.62638
G1 X47.057 Y55.55 E73.81889
G1 X47.097 Y55.272 E73.83048
G1 X47.213 Y55.016 E73.84207
G1 X47.396 Y54.803 E73.85366
M204 S3000
G0 F4200 X47.607 Y55.151
M204 S400
G1 F1800 X47.78 Y55.019 E73.86264
G1 X48.05 Y54.954 E73.8741
G1 X161.95 Y54.954 E78.57399
G1 X162.164 Y54.994 E78.58298
G1 X162.349 Y55.107 E78.59192
G1 X162.481 Y55.28 E78.6009
G1 X162.546 Y55.55 E78.61236
G1 X162.546 Y84.45 E79.80487
G1 X162.506 Y84.664 E79.81386
G1 X162.393 Y84.849 E79.8228
G1 X162.22 Y84.981 E79.83178
G1 X161.95 Y85.046 E79.84324
G1 X48.05 Y85.046 E84.54314
G1 X47.836 Y85.006 E84.55212
G1 X47.651 Y84.893 E84.56106
G1 X47.519 Y84.72 E84.57004
G1 X47.454 Y84.45 E84.5815
G1 X47.454 Y55.55 E85.77401
G1 X47.494 Y55.336 E85.783
G1 X47.607 Y55.151 E85.79194
M204 S3000
G0 F4200 X47.89 Y55.432
M204 S400
G1 F1800 X48.05 Y55.351 E85.79934
G1 X161.95 Y55.351 E90.49924
G1 X162.068 Y55.39 E90.50437
G1 X162.149 Y55.55 E90.51177
G1 X162.149 Y84.45 E91.70428
G1 X162.11 Y84.568 E91.70941
G1 X161.95 Y84.649 E91.71681
G1 X48.05 Y84.649 E96.4167
G1 X47.932 Y84.61 E96.42183
G1 X47.851 Y84.45 E96.42923
G1 X47.851 Y55.55 E97.62174
G1 X47.89 Y55.432 E97.62687
M204 S3000
G1 F3000 E92.62687
G0 F4200 X48.05 Y89.072
M204 S400
G1 F3000 E97.68923
G1 F1800 X161.95 Y89.072 E102.38913
G1 X162.436 Y89.112 E102.40925
G1 X162.909 Y89.231 E102.42938
G1 X163.356 Y89.425 E102.44948
G1 X163.766 Y89.69 E102.46963
G1 X164.127 Y90.018 E102.48975
G1 X164.429 Y90.4 E102.50985
G1 X164.665 Y90.827 E102.52998
G1 X164.829 Y91.287 E102.55013
G1 X164.928 Y92.05 E102.58188
G1 X164.928 Y101.95 E102.99038
G1 X164.888 Y102.436 E103.01051
G1 X164.769 Y102.909 E103.03063
G1 X164.575 Y103.356 E103.05074
G1 X164.31 Y103.766 E103.07088
G1 X163.982 Y104.127 E103.09101
G1 X163.6 Y104.429 E103.1111
G1 X163.173 Y104.665 E103.13123
G1 X162.713 Y104.829 E103.15139
G1 X161.95 Y104.928 E103.18313
G1 X146.606 Y104.928 E103.81628
G1 X146.12 Y104.888 E103.8364
G1 X145.647 Y104.769 E103.85653
G1 X145.067 Y104.499 E103.88293
G1 X144.021 Y103.868 E103.93333
G1 X142.772 Y104.557 E103.99219
G1 X142.327 Y104.757 E104.01232
G1 X141.855 Y104.882 E104.03247
G1 X141.333 Y104.928 E104.05409
G1 X134.536 Y104.928 E104.33456
G1 X134.05 Y104.888 E104.35468
G1 X133.577 Y104.769 E104.37481
G1 X133.13 Y104.575 E104.39492
G1 X132.72 Y104.31 E104.41506
G1 X132.359 Y103.982 E104.43519
G1 X132.057 Y103.6 E104.45528
G1 X131.821 Y103.173 E104.47541
G1 X131.657 Y102.713 E104.49556
G1 X131.572 Y102.233 E104.51568
G1 X131.565 Y101.746 E104.53577
G1 X131.638 Y101.263 E104.55593
G1 X131.786 Y100.807 E104.57571
G1 X132.434 Y99.248 E104.64538
G1 X132.722 Y98.702 E104.67085
G1 X133.225 Y97.928 E104.70894
G1 X116.928 Y97.928 E105.38141
G1 X116.928 Y101.95 E105.54737
G1 X116.888 Y102.436 E105.56749
G1 X116.769 Y102.909 E105.58762
G1 X116.575 Y103.356 E105.60772
G1 X116.31 Y103.766 E105.62787
G1 X115.982 Y104.127 E105.64799
G1 X115.6 Y104.429 E105.66809
G1 X115.173 Y104.665 E105.68822
G1 X114.713 Y104.829 E105.70837
G1 X113.95 Y104.928 E105.74012
G1 X96.05 Y104.928 E106.47873
G1 X95.564 Y104.888 E106.49885
G1 X95.091 Y104.769 E106.51898
G1 X94.644 Y104.575 E106.53909
G1 X94.234 Y104.31 E106.55923
G1 X93.873 Y103.982 E106.57936
G1 X93.571 Y103.6 E106.59945
G1 X93.335 Y103.173 E106.61958
G1 X93.171 Y102.713 E106.63973
G1 X93.072 Y101.95 E106.67148
G1 X93.072 Y97.928 E106.83744
G1 X76.775 Y97.928 E107.50991
G1 X77.277 Y98.7 E107.54791
G1 X77.56 Y99.243 E107.57318
G1 X78.213 Y100.802 E107.64292
G1 X78.363 Y101.266 E107.66304
G1 X78.436 Y101.748 E107.68316
G1 X78.429 Y102.236 E107.7033
G1 X78.343 Y102.716 E107.72342
G1 X78.179 Y103.175 E107.74353
G1 X77.943 Y103.602 E107.76366
G1 X77.64 Y103.984 E107.78378
G1 X77.279 Y104.312 E107.80391
G1 X76.869 Y104.576 E107.82403
G1 X76.422 Y104.77 E107.84414
G1 X75.949 Y104.888 E107.86425
G1 X75.465 Y104.928 E107.88429
G1 X68.402 Y104.928 E108.17574
G1 X67.916 Y104.888 E108.19586
G1 X67.443 Y104.769 E108.21598
G1 X66.891 Y104.516 E108.24104
G1 X65.953 Y103.964 E108.28595
G1 X64.932 Y104.542 E108.33436
G1 X64.49 Y104.747 E108.35447
G1 X64.02 Y104.876 E108.37458
G1 X63.466 Y104.928 E108.39754
G1 X48.05 Y104.928 E109.03365
G1 X47.564 Y104.888 E109.05378
G1 X47.091 Y104.769 E109.0739
G1 X46.644 Y104.575 E109.09401
G1 X46.234 Y104.31 E109.11415
G1 X45.873 Y103.982 E109.13428
G1 X45.571 Y103.6 E109.15437
G1 X45.335 Y103.173 E109.1745
G1 X45.171 Y102.713 E109.19466
G1 X45.072 Y101.95 E109.2264
G1 X45.072 Y92.05 E109.63491
G1 X45.112 Y91.564 E109.65503
G1 X45.231 Y91.091 E109.67516
G1 X45.425 Y90.644 E109.69526
G1 X45.69 Y90.234 E109.71541
G1 X46.018 Y89.873 E109.73554
G1 X46.4 Y89.571 E109.75563
G1 X46.827 Y89.335 E109.77576
G1 X47.287 Y89.171 E109.79591
G1 X48.05 Y89.072 E109.82766
M204 S3000
G0 F4200 X48.05 Y89.469
M204 S400
G1 F1800 X161.95 Y89.469 E114.52756
G1 X162.402 Y89.509 E114.54628
G1 X162.84 Y89.627 E114.565
G1 X163.251 Y89.821 E114.58375
G1 X163.621 Y90.083 E114.60246
G1 X163.94 Y90.407 E114.62122
G1 X164.197 Y90.781 E114.63995
G1 X164.385 Y91.194 E114.65867
G1 X164.497 Y91.634 E114.6774
G1 X164.531 Y92.05 E114.69463
G1 X164.531 Y101.95 E115.10313
G1 X164.491 Y102.402 E115.12186
G1 X164.373 Y102.84 E115.14058
G1 X164.179 Y103.251 E115.15933
G1 X163.917 Y103.621 E115.17804
G1 X163.593 Y103.94 E115.1968
G1 X163.219 Y104.197 E115.21552
G1 X162.806 Y104.385 E115.23425
G1 X162.366 Y104.497 E115.25298
G1 X161.95 Y104.531 E115.27021
G1 X146.606 Y104.531 E115.90335
G1 X146.154 Y104.491 E115.92207
G1 X145.716 Y104.373 E115.94079
G1 X145.272 Y104.16 E115.96111
G1 X144.03 Y103.41 E116.02098
G1 X142.58 Y104.21 E116.08931
G1 X142.165 Y104.393 E116.10803
G1 X141.724 Y104.501 E116.12677
G1 X141.333 Y104.531 E116.14295
G1 X134.536 Y104.531 E116.42341
G1 X134.084 Y104.491 E116.44214
G1 X133.646 Y104.373 E116.46086
G1 X133.235 Y104.179 E116.47961
G1 X132.865 Y103.917 E116.49832
G1 X132.546 Y103.593 E116.51708
G1 X132.289 Y103.219 E116.5358
G1 X132.101 Y102.806 E116.55453
G1 X131.989 Y102.366 E116.57326
G1 X131.955 Y101.913 E116.59201
G1 X132.002 Y101.462 E116.61072
G1 X132.153 Y100.959 E116.63239
G1 X132.801 Y99.4 E116.70205
G1 X133.055 Y98.918 E116.72453
G1 X133.956 Y97.531 E116.79278
G1 X116.531 Y97.531 E117.5118
G1 X116.531 Y101.95 E117.69414
G1 X116.491 Y102.402 E117.71286
G1 X116.373 Y102.84 E117.73158
G1 X116.179 Y103.251 E117.75033
G1 X115.917 Y103.621 E117.76904
G1 X115.593 Y103.94 E117.7878
G1 X115.219 Y104.197 E117.80653
G1 X114.806 Y104.385 E117.82525
G1 X114.366 Y104.497 E117.84399
G1 X113.95 Y104.531 E117.86121
G1 X96.05 Y104.531 E118.59982
G1 X95.598 Y104.491 E118.61855
G1 X95.16 Y104.373 E118.63727
G1 X94.749 Y104.179 E118.65602
G1 X94.379 Y103.917 E118.67473
G1 X94.06 Y103.593 E118.69349
G1 X93.803 Y103.219 E118.71221
G1 X93.615 Y102.806 E118.73094
G1 X93.503 Y102.366 E118.74967
G1 X93.469 Y101.95 E118.7669
G1 X93.469 Y97.531 E118.94924
G1 X76.043 Y97.531 E119.66829
G1 X76.944 Y98.917 E119.73651
G1 X77.198 Y99.407 E119.75928
G1 X77.846 Y100.955 E119.82853
G1 X77.984 Y101.388 E119.84728
G1 X78.044 Y101.838 E119.86601
G1 X78.023 Y102.291 E119.88473
G1 X77.924 Y102.734 E119.90346
G1 X77.749 Y103.153 E119.92219
G1 X77.503 Y103.534 E119.94091
G1 X77.193 Y103.867 E119.95968
G1 X76.831 Y104.14 E119.97839
G1 X76.426 Y104.345 E119.99712
G1 X75.992 Y104.477 E120.01584
G1 X75.465 Y104.531 E120.0377
G1 X68.402 Y104.531 E120.32914
G1 X67.95 Y104.491 E120.34786
G1 X67.512 Y104.373 E120.36658
G1 X67.093 Y104.174 E120.38572
G1 X65.957 Y103.506 E120.4401
G1 X64.737 Y104.196 E120.49794
G1 X64.324 Y104.384 E120.51666
G1 X63.884 Y104.497 E120.53541
G1 X63.466 Y104.531 E120.55271
G1 X48.05 Y104.531 E121.18883
G1 X47.598 Y104.491 E121.20755
G1 X47.16 Y104.373 E121.22627
G1 X46.749 Y104.179 E121.24502
G1 X46.379 Y103.917 E121.26373
G1 X46.06 Y103.593 E121.28249
G1 X45.803 Y103.219 E121.30122
G1 X45.615 Y102.806 E121.31994
G1 X45.503 Y102.366 E121.33867
G1 X45.469 Y101.95 E121.3559
G1 X45.469 Y92.05 E121.7644
G1 X45.509 Y91.598 E121.78313
G1 X45.627 Y91.16 E121.80185
G1 X45.821 Y90.749 E121.8206
G1 X46.083 Y90.379 E121.83931
G1 X46.407 Y90.06 E121.85807
G1 X46.781 Y89.803 E121.87679
G1 X47.194 Y89.615 E121.89552
G1 X47.634 Y89.503 E121.91425
G1 X48.05 Y89.469 E121.93148
M204 S3000
G0 F4200 X48.05 Y89.866
M204 S400
G1 F1800 X161.95 Y89.866 E126.63137
G1 X162.366 Y89.906 E126.64862
G1 X162.766 Y90.024 E126.66583
G1 X163.137 Y90.216 E126.68306
G1 X163.464 Y90.476 E126.7003
G1 X163.736 Y90.793 E126.71754
G1 X163.942 Y91.155 E126.73472
G1 X164.076 Y91.551 E126.75197
G1 X164.134 Y92.05 E126.7727
G1 X164.134 Y101.95 E127.18121
G1 X164.094 Y102.366 E127.19845
G1 X163.976 Y102.766 E127.21566
G1 X163.784 Y103.137 E127.2329
G1 X163.524 Y103.464 E127.25014
G1 X163.207 Y103.736 E127.26737
G1 X162.845 Y103.942 E127.28456
G1 X162.449 Y104.076 E127.30181
G1 X161.95 Y104.134 E127.32254
G1 X146.606 Y104.134 E127.95569
G1 X146.19 Y104.094 E127.97293
G1 X145.79 Y103.976 E127.99014
G1 X145.477 Y103.82 E128.00457
G1 X144.038 Y102.952 E128.07391
G1 X142.388 Y103.862 E128.15167
G1 X142.005 Y104.028 E128.16889
G1 X141.597 Y104.118 E128.18613
G1 X141.333 Y104.134 E128.19704
G1 X134.536 Y104.134 E128.47751
G1 X134.12 Y104.094 E128.49476
G1 X133.72 Y103.976 E128.51196
G1 X133.349 Y103.784 E128.5292
G1 X133.022 Y103.524 E128.54644
G1 X132.75 Y103.207 E128.56368
G1 X132.544 Y102.845 E128.58086
G1 X132.41 Y102.449 E128.59811
