;FLAVOR:Marlin
;TIME:8916
;Filament used: 8.10899m
;Layer height: 0.2
;MINX:43.293
;MINY:82.322
;MINZ:0.25
;MAXX:166.707
;MAXY:169.678
;MAXZ:12.85
;Generated with Cura_SteamEngine 4.7.1
M140 S60
M105
M190 S60
M104 S200
M105
M109 S200
M82 ;absolute extrusion mode
; Script based on an original created by tjjfvi (https://github.com/tjjfvi)
; An up-to-date version of the tjjfvi's original script can be found
; here:  https://csi.t6.fyi/
; Note - This script will only work in Cura V4.2 and above!
; --- Global Settings
; layer_height = 0.2
; smooth_spiralized_contours = True
; magic_mesh_surface_mode = normal
; machine_extruder_count = 1
; --- Single Extruder Settings
; speed_z_hop = 10
; retraction_amount = 5
; retraction_hop = 0.075
; retraction_hop_enabled = True
; retraction_enable = True
; retraction_speed = 50
; retraction_retract_speed = 50
; retraction_prime_speed = 50
; speed_travel = 120

G21 ;metric values
G90 ;absolute positioning
M82 ;set extruder to absolute mode
M107 ;start with the fan off
G28 X0 Y0 ;move X/Y to min endstops
G28 Z0 ;move Z to min endstops
G1 Z15.0 F120 ;move the platform down 15mm
G92 E0 ;zero the extruded length
G1 F200 E3 ;extrude 3mm of feed stock
G92 E0 ;zero the extruded length again
G1 F120
G0 Y20 F120
M117 Printing...
G5
G92 E0
G92 E0
G1 F3000 E-5
;LAYER_COUNT:64
;LAYER:0
M106 S51
M204 S3000
M205 X10 Y10
G1 F600 Z0.325
G0 F4200 X84.82 Y123.707 Z0.325
M204 S500
;TYPE:SKIRT
G1 F600 Z0.25
G1 F3000 E0.06236
G1 F1800 X84.694 Y123.89 E0.07153
G1 X84.276 Y124.424 E0.09951
G1 X83.78 Y124.922 E0.12852
G1 X83.066 Y125.556 E0.16792
G1 X82.534 Y125.976 E0.19589
G1 X82.498 Y126 E0.19767
G1 X83.066 Y126.444 E0.22742
G1 X83.78 Y127.078 E0.26682
G1 X84.26 Y127.558 E0.29483
G1 X84.694 Y128.11 E0.3238
G1 X84.82 Y128.293 E0.33297
G1 X125.18 Y128.293 E1.99836
G1 X125.306 Y128.11 E2.00753
G1 X125.724 Y127.576 E2.03551
G1 X126.22 Y127.078 E2.06451
G1 X126.934 Y126.444 E2.10392
G1 X127.466 Y126.024 E2.13188
G1 X127.502 Y126 E2.13367
G1 X126.934 Y125.556 E2.16342
G1 X126.22 Y124.922 E2.20282
G1 X125.74 Y124.442 E2.23083
G1 X125.306 Y123.89 E2.2598
G1 X125.18 Y123.707 E2.26897
G1 X84.82 Y123.707 E3.93436
M204 S3000
G0 F4200 X84.612 Y123.31
M204 S500
G1 F1800 X84.367 Y123.664 E3.95212
G1 X83.963 Y124.179 E3.97913
G1 X83.517 Y124.625 E4.00516
G1 X82.803 Y125.259 E4.04456
G1 X82.288 Y125.663 E4.07157
G1 X81.729 Y126 E4.0985
G1 X82.293 Y126.341 E4.1257
G1 X82.803 Y126.741 E4.15244
G1 X83.517 Y127.375 E4.19184
G1 X83.979 Y127.839 E4.21886
G1 X84.367 Y128.336 E4.24488
G1 X84.612 Y128.69 E4.26264
G1 X125.388 Y128.69 E5.9452
G1 X125.633 Y128.336 E5.96296
G1 X126.037 Y127.821 E5.98997
G1 X126.483 Y127.375 E6.016
G1 X127.197 Y126.741 E6.0554
G1 X127.712 Y126.337 E6.08241
G1 X128.271 Y126 E6.10934
G1 X127.707 Y125.659 E6.13654
G1 X127.197 Y125.259 E6.16328
G1 X126.483 Y124.625 E6.20268
G1 X126.021 Y124.161 E6.2297
G1 X125.633 Y123.664 E6.25572
G1 X125.388 Y123.31 E6.27348
G1 X84.612 Y123.31 E7.95604
M204 S3000
G0 F4200 X84.041 Y123.439
M204 S500
G1 F1800 X83.651 Y123.933 E7.98201
G1 X83.253 Y124.328 E8.00515
G1 X82.539 Y124.962 E8.04455
G1 X82.043 Y125.35 E8.07053
G1 X81.549 Y125.646 E8.0943
G1 X80.874 Y126 E8.12575
G1 X81.549 Y126.354 E8.1572
G1 X82.087 Y126.681 E8.18318
G1 X82.539 Y127.038 E8.20694
G1 X83.253 Y127.672 E8.24634
G1 X83.697 Y128.119 E8.27234
G1 X84.041 Y128.561 E8.29545
G1 X84.405 Y129.087 E8.32185
G1 X125.595 Y129.087 E10.02148
G1 X125.959 Y128.561 E10.04788
G1 X126.349 Y128.067 E10.07385
G1 X126.747 Y127.672 E10.09699
G1 X127.461 Y127.038 E10.13639
G1 X127.957 Y126.65 E10.16237
G1 X128.451 Y126.354 E10.18614
G1 X129.126 Y126 E10.21759
G1 X128.452 Y125.647 E10.24898
G1 X127.913 Y125.319 E10.27502
G1 X127.461 Y124.962 E10.29878
G1 X126.747 Y124.328 E10.33819
G1 X126.303 Y123.881 E10.36418
G1 X125.959 Y123.439 E10.38729
G1 X125.595 Y122.913 E10.41369
G1 X84.405 Y122.913 E12.11333
G1 X84.041 Y123.439 E12.13972
M204 S3000
G0 F4200 X83.714 Y123.213
M204 S500
G1 F1800 X83.339 Y123.686 E12.16463
G1 X82.99 Y124.031 E12.18488
G1 X82.276 Y124.665 E12.22428
G1 X81.798 Y125.036 E12.24925
G1 X81.364 Y125.295 E12.2701
G1 X80.521 Y125.737 E12.30938
G1 X79.969 Y125.981 E12.33428
G1 X79.899 Y126.002 E12.3373
G1 X80.521 Y126.263 E12.36513
G1 X81.364 Y126.705 E12.40441
G1 X81.88 Y127.02 E12.42935
G1 X82.276 Y127.335 E12.45023
G1 X82.99 Y127.969 E12.48963
G1 X83.414 Y128.399 E12.51455
G1 X83.714 Y128.787 E12.53479
G1 X84.196 Y129.484 E12.56976
G1 X125.804 Y129.484 E14.28664
G1 X126.286 Y128.787 E14.32161
G1 X126.661 Y128.314 E14.34652
G1 X127.01 Y127.969 E14.36677
G1 X127.724 Y127.335 E14.40617
G1 X128.202 Y126.964 E14.43113
G1 X128.636 Y126.705 E14.45199
G1 X129.479 Y126.263 E14.49127
G1 X130.031 Y126.019 E14.51617
G1 X130.1 Y125.998 E14.51915
G1 X129.936 Y125.946 E14.52624
G1 X129.481 Y125.738 E14.54689
G1 X128.636 Y125.295 E14.58626
G1 X128.121 Y124.98 E14.61117
G1 X127.724 Y124.665 E14.63208
G1 X127.01 Y124.031 E14.67148
G1 X126.586 Y123.601 E14.6964
G1 X126.286 Y123.213 E14.71664
G1 X125.804 Y122.516 E14.7516
G1 X84.196 Y122.516 E16.46849
G1 X83.714 Y123.213 E16.50346
M204 S3000
G0 F4200 X83.388 Y122.987
M204 S500
G1 F1800 X83.027 Y123.438 E16.52729
G1 X82.726 Y123.734 E16.54471
G1 X82.012 Y124.368 E16.58411
G1 X81.555 Y124.721 E16.60794
G1 X81.18 Y124.943 E16.62592
G1 X80.337 Y125.385 E16.6652
G1 X79.808 Y125.617 E16.68904
G1 X79.399 Y125.741 E16.70667
G1 X78.474 Y125.969 E16.74598
G1 X78.304 Y125.999 E16.75311
G1 X78.472 Y126.031 E16.76016
G1 X79.398 Y126.259 E16.79951
G1 X79.947 Y126.435 E16.8233
G1 X80.337 Y126.615 E16.84103
G1 X81.18 Y127.057 E16.8803
G1 X81.671 Y127.359 E16.90409
G1 X82.012 Y127.632 E16.92211
G1 X82.726 Y128.266 E16.96151
G1 X83.13 Y128.678 E16.98532
G1 X83.388 Y129.013 E17.00277
G1 X83.925 Y129.79 E17.04175
G1 X83.979 Y129.881 E17.04611
G1 X126.019 Y129.881 E18.78082
G1 X126.075 Y129.79 E18.78523
G1 X126.612 Y129.013 E18.82421
G1 X126.973 Y128.562 E18.84804
G1 X127.274 Y128.266 E18.86546
G1 X127.988 Y127.632 E18.90486
G1 X128.445 Y127.279 E18.92869
G1 X128.82 Y127.057 E18.94667
G1 X129.663 Y126.615 E18.98595
G1 X130.192 Y126.383 E19.00978
G1 X130.602 Y126.259 E19.02746
G1 X131.528 Y126.031 E19.06681
G1 X131.696 Y126.002 E19.07385
G1 X131.53 Y125.97 E19.08082
G1 X130.606 Y125.743 E19.12008
G1 X130.057 Y125.566 E19.14388
G1 X129.665 Y125.386 E19.16168
G1 X128.82 Y124.943 E19.20105
G1 X128.329 Y124.641 E19.22484
G1 X127.988 Y124.368 E19.24286
G1 X127.274 Y123.734 E19.28226
G1 X126.87 Y123.322 E19.30607
G1 X126.612 Y122.987 E19.32352
G1 X126.075 Y122.21 E19.36249
G1 X126.021 Y122.119 E19.36686
G1 X83.981 Y122.119 E21.10157
G1 X83.925 Y122.21 E21.10598
G1 X83.388 Y122.987 E21.14495
M204 S3000
G0 F4200 X83.061 Y122.762
M204 S500
G1 F1800 X82.717 Y123.189 E21.16758
G1 X82.463 Y123.438 E21.18226
G1 X81.749 Y124.072 E21.22166
G1 X81.313 Y124.405 E21.2443
G1 X80.996 Y124.592 E21.25948
G1 X80.153 Y125.034 E21.29876
G1 X79.649 Y125.253 E21.32143
G1 X79.304 Y125.355 E21.33628
G1 X78.379 Y125.583 E21.37559
G1 X77.838 Y125.676 E21.39824
G1 X77.476 Y125.693 E21.41319
G1 X76.525 Y125.693 E21.45244
G1 X75.977 Y125.653 E21.47511
G1 X75.625 Y125.584 E21.48991
G1 X74.701 Y125.357 E21.52917
G1 X74.179 Y125.188 E21.55181
G1 X73.85 Y125.035 E21.56678
G1 X73.005 Y124.592 E21.60615
G1 X72.538 Y124.302 E21.62883
G1 X72.251 Y124.072 E21.64401
G1 X71.537 Y123.438 E21.68341
G1 X71.155 Y123.044 E21.70606
G1 X70.939 Y122.762 E21.72071
G1 X70.402 Y121.985 E21.75969
G1 X70.248 Y121.722 E21.77226
G1 X49.05 Y121.722 E22.64696
G1 X48.502 Y121.682 E22.66964
G1 X47.967 Y121.563 E22.69225
G1 X47.454 Y121.368 E22.7149
G1 X46.974 Y121.1 E22.73758
G1 X46.539 Y120.765 E22.76024
G1 X46.157 Y120.371 E22.78288
G1 X45.837 Y119.925 E22.80553
G1 X45.584 Y119.438 E22.82818
G1 X45.405 Y118.919 E22.85083
G1 X45.303 Y118.38 E22.87347
G1 X45.278 Y117.95 E22.89124
G1 X45.278 Y92.05 E23.95996
G1 X45.318 Y91.502 E23.98263
G1 X45.437 Y90.967 E24.00525
G1 X45.632 Y90.454 E24.02789
G1 X45.9 Y89.974 E24.05058
G1 X46.235 Y89.539 E24.07323
G1 X46.629 Y89.157 E24.09588
G1 X47.075 Y88.837 E24.11853
G1 X47.562 Y88.584 E24.14117
G1 X48.081 Y88.405 E24.16383
G1 X48.62 Y88.303 E24.18646
G1 X49.05 Y88.278 E24.20424
G1 X70.238 Y88.278 E25.07853
G1 X70.402 Y88.015 E25.09131
G1 X70.939 Y87.238 E25.13029
G1 X71.283 Y86.811 E25.15291
G1 X71.537 Y86.562 E25.16759
G1 X72.251 Y85.928 E25.20699
G1 X72.687 Y85.595 E25.22963
G1 X73.004 Y85.408 E25.24482
G1 X73.847 Y84.966 E25.28409
G1 X74.351 Y84.747 E25.30677
G1 X74.696 Y84.645 E25.32161
G1 X75.621 Y84.417 E25.36092
G1 X76.162 Y84.324 E25.38357
G1 X76.524 Y84.307 E25.39853
G1 X77.475 Y84.307 E25.43777
G1 X78.023 Y84.347 E25.46044
G1 X78.375 Y84.416 E25.47524
G1 X79.299 Y84.643 E25.5145
G1 X79.821 Y84.812 E25.53715
G1 X80.15 Y84.965 E25.55212
G1 X80.995 Y85.408 E25.59149
G1 X81.462 Y85.698 E25.61417
G1 X81.749 Y85.928 E25.62934
G1 X82.463 Y86.562 E25.66875
G1 X82.845 Y86.956 E25.69139
G1 X83.061 Y87.238 E25.70605
G1 X83.598 Y88.015 E25.74502
G1 X83.752 Y88.278 E25.7576
G1 X126.238 Y88.278 E27.51071
G1 X126.402 Y88.015 E27.5235
G1 X126.939 Y87.238 E27.56247
G1 X127.283 Y86.811 E27.5851
G1 X127.537 Y86.562 E27.59978
G1 X128.251 Y85.928 E27.63918
G1 X128.687 Y85.595 E27.66182
G1 X129.004 Y85.408 E27.677
G1 X129.847 Y84.966 E27.71628
G1 X130.351 Y84.747 E27.73895
G1 X130.696 Y84.645 E27.7538
G1 X131.621 Y84.417 E27.79311
G1 X132.162 Y84.324 E27.81576
G1 X132.524 Y84.307 E27.83072
G1 X133.475 Y84.307 E27.86996
G1 X134.023 Y84.347 E27.89263
G1 X134.375 Y84.416 E27.90743
G1 X135.299 Y84.643 E27.94669
G1 X135.821 Y84.812 E27.96933
G1 X136.15 Y84.965 E27.9843
G1 X136.995 Y85.408 E28.02367
G1 X137.462 Y85.698 E28.04636
G1 X137.749 Y85.928 E28.06153
G1 X138.463 Y86.562 E28.10093
G1 X138.845 Y86.956 E28.12358
G1 X139.061 Y87.238 E28.13823
G1 X139.598 Y88.015 E28.17721
G1 X139.752 Y88.278 E28.18978
G1 X160.95 Y88.278 E29.06448
G1 X161.498 Y88.318 E29.08716
G1 X162.033 Y88.437 E29.10977
G1 X162.546 Y88.632 E29.13242
G1 X163.026 Y88.9 E29.1551
G1 X163.461 Y89.235 E29.17776
G1 X163.843 Y89.629 E29.2004
G1 X164.163 Y90.075 E29.22305
G1 X164.416 Y90.562 E29.2457
G1 X164.595 Y91.081 E29.26835
G1 X164.697 Y91.62 E29.29099
G1 X164.722 Y92.05 E29.30876
G1 X164.722 Y117.95 E30.37748
G1 X164.682 Y118.498 E30.40015
G1 X164.563 Y119.033 E30.42277
G1 X164.368 Y119.546 E30.44542
G1 X164.1 Y120.026 E30.4681
G1 X163.765 Y120.461 E30.49076
G1 X163.371 Y120.843 E30.5134
G1 X162.925 Y121.163 E30.53605
G1 X162.438 Y121.416 E30.5587
G1 X161.919 Y121.595 E30.58135
G1 X161.38 Y121.697 E30.60398
G1 X160.95 Y121.722 E30.62176
G1 X139.762 Y121.722 E31.49605
G1 X139.598 Y121.985 E31.50884
G1 X139.061 Y122.762 E31.54781
G1 X138.717 Y123.189 E31.57043
G1 X138.463 Y123.438 E31.58511
G1 X137.749 Y124.072 E31.62451
G1 X137.313 Y124.405 E31.64715
G1 X136.996 Y124.592 E31.66234
G1 X136.153 Y125.034 E31.70161
G1 X135.649 Y125.253 E31.72429
G1 X135.304 Y125.355 E31.73913
G1 X134.379 Y125.583 E31.77844
G1 X133.838 Y125.676 E31.8011
G1 X133.476 Y125.693 E31.81605
G1 X132.525 Y125.693 E31.85529
G1 X131.977 Y125.653 E31.87796
G1 X131.625 Y125.584 E31.89276
G1 X130.701 Y125.357 E31.93203
G1 X130.179 Y125.188 E31.95467
G1 X129.85 Y125.035 E31.96964
G1 X129.005 Y124.592 E32.00901
G1 X128.538 Y124.302 E32.03169
G1 X128.251 Y124.072 E32.04687
G1 X127.537 Y123.438 E32.08627
G1 X127.155 Y123.044 E32.10891
G1 X126.939 Y122.762 E32.12357
G1 X126.402 Y121.985 E32.16254
G1 X126.248 Y121.722 E32.17512
G1 X83.762 Y121.722 E33.92823
G1 X83.598 Y121.985 E33.94102
G1 X83.061 Y122.762 E33.98
M204 S3000
G0 F4200 X82.734 Y122.536
M204 S500
G1 F1800 X82.407 Y122.939 E34.00141
G1 X82.199 Y123.141 E34.01337
G1 X81.485 Y123.775 E34.05277
G1 X81.071 Y124.089 E34.07422
G1 X80.811 Y124.24 E34.08662
G1 X79.968 Y124.682 E34.1259
G1 X79.491 Y124.887 E34.14732
G1 X79.209 Y124.97 E34.15945
G1 X78.284 Y125.198 E34.19876
G1 X77.772 Y125.283 E34.22018
G1 X77.476 Y125.296 E34.2324
G1 X76.525 Y125.296 E34.27165
G1 X76.007 Y125.256 E34.29308
G1 X75.72 Y125.199 E34.30516
G1 X74.796 Y124.972 E34.34442
G1 X74.303 Y124.809 E34.36584
G1 X74.034 Y124.683 E34.3781
G1 X73.189 Y124.24 E34.41747
G1 X72.749 Y123.964 E34.4389
G1 X72.515 Y123.775 E34.45131
G1 X71.801 Y123.141 E34.49072
G1 X71.441 Y122.767 E34.51214
G1 X71.266 Y122.536 E34.52409
G1 X70.729 Y121.759 E34.56307
G1 X70.476 Y121.325 E34.5838
G1 X49.05 Y121.325 E35.46791
G1 X48.532 Y121.285 E35.48934
G1 X48.027 Y121.166 E35.51075
G1 X47.546 Y120.971 E35.53217
G1 X47.1 Y120.705 E35.5536
G1 X46.701 Y120.373 E35.57501
G1 X46.357 Y119.984 E35.59644
G1 X46.077 Y119.547 E35.61786
G1 X45.867 Y119.072 E35.63929
G1 X45.732 Y118.57 E35.66074
G1 X45.675 Y117.95 E35.68643
G1 X45.675 Y92.05 E36.75515
G1 X45.715 Y91.532 E36.77659
G1 X45.834 Y91.027 E36.798
G1 X46.029 Y90.546 E36.81941
G1 X46.295 Y90.1 E36.84084
G1 X46.627 Y89.701 E36.86226
G1 X47.016 Y89.357 E36.88369
G1 X47.453 Y89.077 E36.9051
G1 X47.928 Y88.867 E36.92653
G1 X48.43 Y88.732 E36.94798
G1 X49.05 Y88.675 E36.97368
G1 X70.485 Y88.675 E37.85816
G1 X70.729 Y88.241 E37.8787
G1 X71.266 Y87.464 E37.91767
G1 X71.593 Y87.061 E37.93909
G1 X71.801 Y86.859 E37.95105
G1 X72.515 Y86.225 E37.99045
G1 X72.929 Y85.911 E38.01189
G1 X73.189 Y85.76 E38.0243
G1 X74.032 Y85.318 E38.06358
G1 X74.509 Y85.113 E38.085
G1 X74.791 Y85.03 E38.09713
G1 X75.716 Y84.802 E38.13644
G1 X76.228 Y84.717 E38.15786
G1 X76.524 Y84.704 E38.17008
G1 X77.475 Y84.704 E38.20932
G1 X77.993 Y84.744 E38.23076
G1 X78.28 Y84.801 E38.24284
G1 X79.204 Y85.028 E38.2821
G1 X79.697 Y85.191 E38.30352
G1 X79.966 Y85.317 E38.31578
G1 X80.811 Y85.76 E38.35515
G1 X81.251 Y86.036 E38.37658
G1 X81.485 Y86.225 E38.38899
G1 X82.199 Y86.859 E38.42839
G1 X82.559 Y87.233 E38.44981
G1 X82.734 Y87.464 E38.46177
G1 X83.271 Y88.241 E38.50075
G1 X83.524 Y88.675 E38.52147
G1 X126.485 Y88.675 E40.29419
G1 X126.729 Y88.241 E40.31473
G1 X127.266 Y87.464 E40.35371
G1 X127.593 Y87.061 E40.37512
G1 X127.801 Y86.859 E40.38709
G1 X128.515 Y86.225 E40.42649
G1 X128.929 Y85.911 E40.44793
G1 X129.189 Y85.76 E40.46033
G1 X130.032 Y85.318 E40.49961
G1 X130.509 Y85.113 E40.52103
G1 X130.791 Y85.03 E40.53316
G1 X131.716 Y84.802 E40.57247
G1 X132.228 Y84.717 E40.59389
G1 X132.524 Y84.704 E40.60612
G1 X133.475 Y84.704 E40.64536
G1 X133.993 Y84.744 E40.6668
G1 X134.28 Y84.801 E40.67887
G1 X135.204 Y85.028 E40.71813
G1 X135.697 Y85.191 E40.73956
G1 X135.966 Y85.317 E40.75181
G1 X136.811 Y85.76 E40.79118
G1 X137.251 Y86.036 E40.81261
G1 X137.485 Y86.225 E40.82503
G1 X138.199 Y86.859 E40.86443
G1 X138.559 Y87.233 E40.88585
G1 X138.734 Y87.464 E40.89781
G1 X139.271 Y88.241 E40.93678
G1 X139.524 Y88.675 E40.95751
G1 X160.95 Y88.675 E41.84162
G1 X161.468 Y88.715 E41.86306
G1 X161.973 Y88.834 E41.88446
G1 X162.454 Y89.029 E41.90588
G1 X162.9 Y89.295 E41.92731
G1 X163.299 Y89.627 E41.94873
G1 X163.643 Y90.016 E41.97015
G1 X163.923 Y90.453 E41.99157
G1 X164.133 Y90.928 E42.013
G1 X164.268 Y91.43 E42.03445
G1 X164.325 Y92.05 E42.06014
G1 X164.325 Y117.95 E43.12886
G1 X164.285 Y118.468 E43.1503
G1 X164.166 Y118.973 E43.17171
G1 X163.971 Y119.454 E43.19313
G1 X163.705 Y119.9 E43.21455
G1 X163.373 Y120.299 E43.23597
G1 X162.984 Y120.643 E43.2574
G1 X162.547 Y120.923 E43.27882
G1 X162.072 Y121.133 E43.30025
G1 X161.57 Y121.268 E43.3217
G1 X160.95 Y121.325 E43.34739
G1 X139.515 Y121.325 E44.23187
G1 X139.271 Y121.759 E44.25241
G1 X138.734 Y122.536 E44.29139
G1 X138.407 Y122.939 E44.3128
G1 X138.199 Y123.141 E44.32476
G1 X137.485 Y123.775 E44.36416
G1 X137.071 Y124.089 E44.38561
G1 X136.811 Y124.24 E44.39801
G1 X135.968 Y124.682 E44.43729
G1 X135.491 Y124.887 E44.45871
G1 X135.209 Y124.97 E44.47084
G1 X134.284 Y125.198 E44.51015
G1 X133.772 Y125.283 E44.53157
G1 X133.476 Y125.296 E44.54379
G1 X132.525 Y125.296 E44.58304
G1 X132.007 Y125.256 E44.60447
G1 X131.72 Y125.199 E44.61655
G1 X130.796 Y124.972 E44.65581
G1 X130.303 Y124.809 E44.67723
G1 X130.034 Y124.683 E44.68949
G1 X129.189 Y124.24 E44.72886
G1 X128.749 Y123.964 E44.75029
G1 X128.515 Y123.775 E44.7627
G1 X127.801 Y123.141 E44.80211
G1 X127.441 Y122.767 E44.82353
G1 X127.266 Y122.536 E44.83548
G1 X126.729 Y121.759 E44.87446
