; generated by PrusaSlicer 2.3.0+linux-x64 on 2021-04-10 at 17:05:57 UTC


;
;

;
;
; 

; external perimeters extrusion width = 0.45mm
; perimeters extrusion width = 0.45mm
; infill extrusion width = 0.45mm
; solid infill extrusion width = 0.45mm
; top infill extrusion width = 0.40mm
; first layer extrusion width = 0.42mm

M73 P0 R25
M201 X1250 Y1250 Z400 E5000 ; sets maximum accelerations, mm/sec^2
M203 X180 Y180 Z12 E80 ; sets maximum feedrates, mm/sec
M204 P1250 R1250 T1250 ; sets acceleration (P, T) and retract acceleration (R), mm/sec^2
M205 X8.00 Y8.00 Z2.00 E10.00 ; sets the jerk limits, mm/sec
M205 S0 T0 ; sets the minimum extruding and travel feed rate, mm/sec
M107
;TYPE:Custom
G90 ; use absolute coordinates
M83 ; extruder relative mode
M104 S170 ; set extruder temp for bed leveling
M140 S60 ; set bed temp
M109 R170 ; wait for bed leveling temp
M190 S60 ; wait for bed temp
G28 ; home all without mesh bed level
G29 ; mesh bed leveling 
M104 S215 ; set extruder temp
G92 E0.0
G1 Y-2.0 X179 F2400
G1 Z3 F720
M109 S215 ; wait for extruder temp

; intro line
G1 X170 F1000
G1 Z0.2 F720
G1 X110.0 E8.0 F900
G1 X40.0 E10.0 F700
G92 E0.0

M221 S95 ; set flow
G21 ; set units to millimeters
G90 ; use absolute coordinates
M83 ; use relative distances for extrusion
M900 K0.2 ; Filament gcode LA 1.5
; ; Filament gcode LA 1.0
;LAYER_CHANGE
;Z:0.2
;HEIGHT:0.2
;BEFORE_LAYER_CHANGE
G92 E0.0
;0.2


M73 P1 R25
G1 Z0.200 F9000.000
;AFTER_LAYER_CHANGE
;0.2
G1 E-3.20000 F4200.000
G1 Z0.400 F9000.000
G1 X60.407 Y75.236
G1 Z0.200
G1 E3.20000 F2400.000
M204 S800
;TYPE:Skirt
;WIDTH:0.42
G1 F1200.000
G1 X60.927 Y74.879 E0.01977
G1 X61.444 Y74.689 E0.01728
G1 X61.987 Y74.623 E0.01716
G1 X118.004 Y74.623 E1.75635
M73 P1 R24
G1 X118.892 Y74.797 E0.02837
G1 X119.653 Y75.292 E0.02849
G1 X120.172 Y76.034 E0.02837
G1 X120.376 Y76.915 E0.02837
G1 X120.375 Y103.110 E0.82133
G1 X120.263 Y103.727 E0.01965
G1 X119.997 Y104.290 E0.01953
G1 X119.590 Y104.767 E0.01965
G1 X119.073 Y105.121 E0.01965
G1 X118.556 Y105.311 E0.01728
G1 X118.013 Y105.377 E0.01716
G1 X61.958 Y105.377 E1.75755
G1 X61.324 Y105.279 E0.02012
G1 X60.736 Y105.013 E0.02024
G1 X60.243 Y104.601 E0.02012
G1 X59.879 Y104.073 E0.02012
G1 X59.691 Y103.563 E0.01704
G1 X59.623 Y103.024 E0.01704
G1 X59.624 Y76.916 E0.81859
G1 X59.731 Y76.291 E0.01989
G1 X59.997 Y75.720 E0.01977
G1 X60.368 Y75.281 E0.01800
M204 S1250
; printing object revised-bearing.stl id:0 copy 0
G1 E-2.24000 F4200.000
;WIPE_START
G1 F7200.000
G1 X60.927 Y74.879 E-0.38154
G1 X61.444 Y74.689 E-0.30538
G1 X61.847 Y74.640 E-0.22508
;WIPE_END
G1 E-0.04800 F4200.000
G1 Z0.400 F9000.000
G1 X95.213 Y87.236
G1 Z0.200
G1 E3.20000 F2400.000
M204 S800
;TYPE:Perimeter
G1 F1200.000
G1 X100.000 Y84.472 E0.17332
G1 X104.787 Y87.236 E0.17332
G1 X104.787 Y92.764 E0.17332
G1 X100.000 Y95.528 E0.17332
G1 X95.213 Y92.764 E0.17332
G1 X95.213 Y87.296 E0.17143
M204 S1250
G1 X95.590 Y87.454 F9000.000
M204 S800
;TYPE:External perimeter
G1 F1200.000
G1 X100.000 Y84.908 E0.15966
G1 X104.410 Y87.454 E0.15966
G1 X104.410 Y92.546 E0.15966
G1 X100.000 Y95.092 E0.15966
G1 X95.590 Y92.546 E0.15966
G1 X95.590 Y87.514 E0.15778
M204 S1250
G1 X95.390 Y87.107 F9000.000
G1 E-2.24000 F4200.000
;WIPE_START
G1 F7200.000
G1 X97.007 Y86.677 E-0.91200
;WIPE_END
G1 E-0.04800 F4200.000
G1 Z0.400 F9000.000
G1 X112.628 Y81.709
G1 Z0.200
G1 E3.20000 F2400.000
M204 S800
;TYPE:Perimeter
M73 P2 R24
G1 F1200.000
G1 X112.496 Y81.323 E0.01277
G1 X112.457 Y81.000 E0.01022
G1 X112.502 Y80.631 E0.01166
G1 X112.634 Y80.283 E0.01166
G1 X112.851 Y79.969 E0.01197
G1 X113.164 Y79.709 E0.01277
G1 X113.453 Y79.557 E0.01022
G1 X113.814 Y79.468 E0.01166
G1 X114.186 Y79.468 E0.01166
G1 X114.547 Y79.557 E0.01166
G1 X114.876 Y79.730 E0.01166
G1 X115.155 Y79.977 E0.01166
G1 X115.366 Y80.283 E0.01166
G1 X115.498 Y80.631 E0.01166
G1 X115.543 Y81.000 E0.01166
G1 X115.498 Y81.369 E0.01166
G1 X115.366 Y81.717 E0.01166
G1 X115.155 Y82.023 E0.01166
G1 X114.876 Y82.270 E0.01166
G1 X114.547 Y82.443 E0.01166
G1 X114.186 Y82.532 E0.01166
G1 X113.814 Y82.532 E0.01166
G1 X113.453 Y82.443 E0.01166
G1 X113.124 Y82.270 E0.01166
G1 X112.845 Y82.023 E0.01166
G1 X112.662 Y81.758 E0.01009
M204 S1250
G1 X112.973 Y81.544 F9000.000
M204 S800
;TYPE:External perimeter
G1 F1200.000
G1 X112.866 Y81.239 E0.01014
G1 X112.837 Y81.000 E0.00754
G1 X112.871 Y80.722 E0.00879
G1 X112.970 Y80.460 E0.00879
G1 X113.131 Y80.226 E0.00890
G1 X113.375 Y80.024 E0.00990
G1 X113.588 Y79.913 E0.00754
G1 X113.860 Y79.845 E0.00879
G1 X114.140 Y79.845 E0.00879
G1 X114.412 Y79.913 E0.00879
G1 X114.661 Y80.043 E0.00879
G1 X114.871 Y80.229 E0.00879
G1 X115.030 Y80.460 E0.00879
G1 X115.129 Y80.722 E0.00879
G1 X115.163 Y81.000 E0.00879
G1 X115.129 Y81.278 E0.00879
G1 X115.030 Y81.540 E0.00879
G1 X114.871 Y81.771 E0.00879
G1 X114.661 Y81.957 E0.00879
G1 X114.412 Y82.087 E0.00879
G1 X114.140 Y82.155 E0.00879
G1 X113.860 Y82.155 E0.00879
G1 X113.588 Y82.087 E0.00879
G1 X113.339 Y81.957 E0.00879
G1 X113.129 Y81.771 E0.00879
G1 X113.007 Y81.593 E0.00677
M204 S1250
G1 X112.650 Y81.526 F9000.000
G1 E-2.24000 F4200.000
;WIPE_START
G1 F7200.000
G1 X112.866 Y81.239 E-0.21149
G1 X112.837 Y81.000 E-0.13330
G1 X112.871 Y80.722 E-0.15537
G1 X112.970 Y80.460 E-0.15537
G1 X113.131 Y80.226 E-0.15731
G1 X113.269 Y80.112 E-0.09916
;WIPE_END
G1 E-0.04800 F4200.000
G1 Z0.400 F9000.000
G1 X113.814 Y97.468
G1 Z0.200
G1 E3.20000 F2400.000
M204 S800
;TYPE:Perimeter
G1 F1200.000
G1 X114.186 Y97.468 E0.01166
G1 X114.547 Y97.557 E0.01166
G1 X114.876 Y97.730 E0.01166
G1 X115.155 Y97.977 E0.01166
G1 X115.366 Y98.283 E0.01166
G1 X115.498 Y98.631 E0.01166
G1 X115.543 Y99.000 E0.01166
G1 X115.498 Y99.369 E0.01166
G1 X115.366 Y99.717 E0.01166
G1 X115.155 Y100.023 E0.01166
G1 X114.876 Y100.270 E0.01166
G1 X114.547 Y100.443 E0.01166
G1 X114.186 Y100.532 E0.01166
G1 X113.814 Y100.532 E0.01166
G1 X113.453 Y100.443 E0.01166
G1 X113.124 Y100.270 E0.01166
G1 X112.845 Y100.023 E0.01166
G1 X112.628 Y99.709 E0.01197
G1 X112.496 Y99.323 E0.01277
G1 X112.457 Y99.000 E0.01022
G1 X112.502 Y98.631 E0.01166
G1 X112.634 Y98.283 E0.01166
G1 X112.851 Y97.969 E0.01197
G1 X113.164 Y97.709 E0.01277
G1 X113.453 Y97.557 E0.01022
G1 X113.756 Y97.483 E0.00978
M204 S1250
G1 X113.846 Y97.849 F9000.000
M204 S800
;TYPE:External perimeter
G1 F1200.000
G1 X114.140 Y97.845 E0.00922
G1 X114.412 Y97.913 E0.00879
G1 X114.661 Y98.043 E0.00879
G1 X114.871 Y98.229 E0.00879
G1 X115.030 Y98.460 E0.00879
G1 X115.129 Y98.722 E0.00879
G1 X115.163 Y99.000 E0.00879
G1 X115.129 Y99.278 E0.00879
G1 X115.030 Y99.540 E0.00879
G1 X114.871 Y99.771 E0.00879
G1 X114.661 Y99.957 E0.00879
G1 X114.412 Y100.087 E0.00879
G1 X114.140 Y100.155 E0.00879
G1 X113.860 Y100.155 E0.00879
G1 X113.588 Y100.087 E0.00879
G1 X113.339 Y99.957 E0.00879
G1 X113.129 Y99.771 E0.00879
G1 X112.968 Y99.538 E0.00890
G1 X112.866 Y99.239 E0.00990
G1 X112.837 Y99.000 E0.00754
G1 X112.871 Y98.722 E0.00879
G1 X112.970 Y98.460 E0.00879
G1 X113.131 Y98.226 E0.00890
G1 X113.375 Y98.024 E0.00990
G1 X113.588 Y97.913 E0.00754
G1 X113.788 Y97.863 E0.00646
M204 S1250
G1 X113.960 Y97.578 F9000.000
G1 E-2.24000 F4200.000
;WIPE_START
G1 F7200.000
G1 X114.140 Y97.845 E-0.19555
G1 X114.412 Y97.913 E-0.15537
G1 X114.661 Y98.043 E-0.15537
G1 X114.871 Y98.229 E-0.15537
G1 X115.030 Y98.460 E-0.15538
G1 X115.091 Y98.620 E-0.09495
;WIPE_END
G1 E-0.04800 F4200.000
G1 Z0.400 F9000.000
G1 X67.543 Y99.000
G1 Z0.200
G1 E3.20000 F2400.000
M204 S800
;TYPE:Perimeter
G1 F1200.000
G1 X67.498 Y99.369 E0.01166
G1 X67.366 Y99.717 E0.01166
G1 X67.149 Y100.031 E0.01197
G1 X66.836 Y100.291 E0.01277
G1 X66.547 Y100.443 E0.01022
G1 X66.186 Y100.532 E0.01166
G1 X65.814 Y100.532 E0.01166
G1 X65.453 Y100.443 E0.01166
G1 X65.124 Y100.270 E0.01166
G1 X64.845 Y100.023 E0.01166
G1 X64.634 Y99.717 E0.01166
G1 X64.502 Y99.369 E0.01166
G1 X64.457 Y99.000 E0.01166
G1 X64.502 Y98.631 E0.01166
G1 X64.634 Y98.283 E0.01166
G1 X64.851 Y97.969 E0.01197
G1 X65.164 Y97.709 E0.01277
G1 X65.453 Y97.557 E0.01022
G1 X65.824 Y97.466 E0.01197
G1 X66.231 Y97.479 E0.01277
G1 X66.547 Y97.557 E0.01022
G1 X66.876 Y97.730 E0.01166
G1 X67.155 Y97.977 E0.01166
G1 X67.366 Y98.283 E0.01166
G1 X67.498 Y98.631 E0.01166
G1 X67.536 Y98.940 E0.00978
M204 S1250
G1 X67.161 Y98.986 F9000.000
M204 S800
;TYPE:External perimeter
G1 F1200.000
G1 X67.129 Y99.278 E0.00922
G1 X67.030 Y99.540 E0.00879
G1 X66.869 Y99.774 E0.00890
G1 X66.625 Y99.976 E0.00990
G1 X66.412 Y100.087 E0.00754
G1 X66.140 Y100.155 E0.00879
G1 X65.860 Y100.155 E0.00879
G1 X65.588 Y100.087 E0.00879
G1 X65.339 Y99.957 E0.00879
G1 X65.129 Y99.771 E0.00879
G1 X64.970 Y99.540 E0.00879
G1 X64.871 Y99.278 E0.00879
G1 X64.837 Y99.000 E0.00879
G1 X64.871 Y98.722 E0.00879
G1 X64.970 Y98.460 E0.00879
G1 X65.131 Y98.226 E0.00890
G1 X65.375 Y98.024 E0.00990
G1 X65.588 Y97.913 E0.00754
G1 X65.863 Y97.845 E0.00890
G1 X66.179 Y97.855 E0.00990
G1 X66.412 Y97.913 E0.00754
G1 X66.661 Y98.043 E0.00879
G1 X66.871 Y98.229 E0.00879
G1 X67.030 Y98.460 E0.00879
G1 X67.129 Y98.722 E0.00879
G1 X67.154 Y98.926 E0.00646
M204 S1250
G1 X67.417 Y99.131 F9000.000
G1 E-2.24000 F4200.000
;WIPE_START
G1 F7200.000
G1 X67.129 Y99.278 E-0.19556
G1 X67.030 Y99.540 E-0.15537
G1 X66.869 Y99.774 E-0.15731
G1 X66.625 Y99.976 E-0.17501
G1 X66.412 Y100.087 E-0.13330
G1 X66.245 Y100.129 E-0.09545
;WIPE_END
G1 E-0.04800 F4200.000
G1 Z0.400 F9000.000
G1 X66.186 Y82.532
G1 Z0.200
G1 E3.20000 F2400.000
M204 S800
;TYPE:Perimeter
G1 F1200.000
G1 X65.814 Y82.532 E0.01166
G1 X65.453 Y82.443 E0.01166
G1 X65.124 Y82.270 E0.01166
G1 X64.845 Y82.023 E0.01166
G1 X64.634 Y81.717 E0.01166
G1 X64.502 Y81.369 E0.01166
G1 X64.457 Y81.000 E0.01166
G1 X64.502 Y80.631 E0.01166
G1 X64.634 Y80.283 E0.01166
G1 X64.851 Y79.969 E0.01197
G1 X65.164 Y79.709 E0.01277
G1 X65.453 Y79.557 E0.01022
G1 X65.814 Y79.468 E0.01166
G1 X66.186 Y79.468 E0.01166
G1 X66.547 Y79.557 E0.01166
G1 X66.876 Y79.730 E0.01166
G1 X67.155 Y79.977 E0.01166
G1 X67.366 Y80.283 E0.01166
G1 X67.498 Y80.631 E0.01166
G1 X67.543 Y81.000 E0.01166
G1 X67.498 Y81.369 E0.01166
G1 X67.366 Y81.717 E0.01166
G1 X67.149 Y82.031 E0.01197
G1 X66.836 Y82.291 E0.01277
G1 X66.547 Y82.443 E0.01022
G1 X66.244 Y82.517 E0.00978
M204 S1250
G1 X66.154 Y82.151 F9000.000
M204 S800
;TYPE:External perimeter
G1 F1200.000
G1 X65.860 Y82.155 E0.00922
G1 X65.588 Y82.087 E0.00879
G1 X65.339 Y81.957 E0.00879
G1 X65.129 Y81.771 E0.00879
G1 X64.970 Y81.540 E0.00879
G1 X64.871 Y81.278 E0.00879
G1 X64.837 Y81.000 E0.00879
G1 X64.871 Y80.722 E0.00879
G1 X64.970 Y80.460 E0.00879
G1 X65.131 Y80.226 E0.00890
G1 X65.375 Y80.024 E0.00990
G1 X65.588 Y79.913 E0.00754
G1 X65.860 Y79.845 E0.00879
G1 X66.140 Y79.845 E0.00879
G1 X66.412 Y79.913 E0.00879
G1 X66.661 Y80.043 E0.00879
G1 X66.871 Y80.229 E0.00879
G1 X67.030 Y80.460 E0.00879
G1 X67.129 Y80.722 E0.00879
G1 X67.163 Y81.000 E0.00879
G1 X67.129 Y81.278 E0.00879
G1 X67.030 Y81.540 E0.00879
G1 X66.869 Y81.774 E0.00890
G1 X66.625 Y81.976 E0.00990
G1 X66.412 Y82.087 E0.00754
G1 X66.212 Y82.137 E0.00646
M204 S1250
G1 X66.040 Y82.422 F9000.000
G1 E-2.24000 F4200.000
;WIPE_START
G1 F7200.000
G1 X65.860 Y82.155 E-0.19556
G1 X65.588 Y82.087 E-0.15537
G1 X65.339 Y81.957 E-0.15538
G1 X65.129 Y81.771 E-0.15537
G1 X64.970 Y81.540 E-0.15537
G1 X64.909 Y81.380 E-0.09495
;WIPE_END
G1 E-0.04800 F4200.000
G1 Z0.400 F9000.000
G1 X68.213 Y79.213
G1 Z0.200
G1 E3.20000 F2400.000
M204 S800
;TYPE:Perimeter
G1 F1200.000
G1 X92.223 Y79.213 E0.75281
G1 X92.622 Y80.194 E0.03320
G1 X90.805 Y81.966 E0.07960
G1 X89.645 Y83.530 E0.06103
G1 X88.748 Y85.257 E0.06103
G1 X88.138 Y87.105 E0.06103
G1 X87.828 Y89.027 E0.06103
G1 X87.828 Y90.973 E0.06103
G1 X88.138 Y92.895 E0.06103
G1 X88.748 Y94.743 E0.06103
G1 X89.645 Y96.470 E0.06103
G1 X90.805 Y98.034 E0.06103
G1 X92.622 Y99.806 E0.07960
G1 X92.223 Y100.787 E0.03320
G1 X68.213 Y100.787 E0.75281
G1 X68.213 Y79.273 E0.67456
M204 S1250
G1 X68.590 Y79.590 F9000.000
M204 S800
;TYPE:External perimeter
G1 F1200.000
G1 X91.969 Y79.590 E0.73304
G1 X92.177 Y80.101 E0.01730
G1 X90.520 Y81.718 E0.07259
G1 X89.324 Y83.329 E0.06292
G1 X88.400 Y85.110 E0.06292
G1 X87.770 Y87.016 E0.06292
G1 X87.451 Y88.997 E0.06292
G1 X87.451 Y91.003 E0.06292
G1 X87.770 Y92.984 E0.06292
G1 X88.400 Y94.890 E0.06292
G1 X89.324 Y96.671 E0.06292
G1 X90.520 Y98.282 E0.06292
G1 X92.177 Y99.899 E0.07259
G1 X91.969 Y100.410 E0.01730
G1 X68.590 Y100.410 E0.73304
G1 X68.590 Y79.650 E0.65092
M204 S1250
M73 P3 R24
G1 X68.479 Y79.206 F9000.000
G1 E-2.24000 F4200.000
;WIPE_START
G1 F7200.000
G1 X70.236 Y79.646 E-0.91200
;WIPE_END
G1 E-0.04800 F4200.000
G1 Z0.400 F9000.000
G1 X62.787 Y77.787
G1 Z0.200
G1 E3.20000 F2400.000
M204 S800
;TYPE:Perimeter
G1 F1200.000
G1 X117.213 Y77.787 E1.70648
G1 X117.213 Y102.213 E0.76586
G1 X62.787 Y102.213 E1.70648
G1 X62.787 Y77.847 E0.76397
M204 S1250
G1 X62.410 Y77.410 F9000.000
M204 S800
;TYPE:External perimeter
G1 F1200.000
G1 X117.590 Y77.410 E1.73013
G1 X117.590 Y102.590 E0.78950
G1 X62.410 Y102.590 E1.73013
M73 P4 R24
G1 X62.410 Y77.470 E0.78762
M204 S1250
G1 X62.806 Y77.467 F9000.000
G1 E-2.24000 F4200.000
;WIPE_START
G1 F7200.000
G1 X64.056 Y77.468 E-0.91200
;WIPE_END
G1 E-0.04800 F4200.000
G1 Z0.400 F9000.000
G1 X67.858 Y80.646
G1 Z0.200
G1 E3.20000 F2400.000
M204 S800
;TYPE:Gap fill
;WIDTH:0.335587
G1 F1200.000
G1 X67.878 Y81.018 E0.00906
M204 S1250
M204 S800
;WIDTH:0.357184
G1 X67.858 Y81.354 E0.00881
M204 S1250
G1 E-2.24000 F4200.000
;WIPE_START
G1 F7200.000
G1 X67.878 Y81.018 E-0.18685
;WIPE_END
G1 E-0.77315 F4200.000
G1 Z0.400 F9000.000
G1 X67.858 Y98.646
G1 Z0.200
G1 E3.20000 F2400.000
M204 S800
;WIDTH:0.335587
G1 F1200.000
G1 X67.878 Y99.018 E0.00906
M204 S1250
M204 S800
;WIDTH:0.357184
G1 X67.858 Y99.354 E0.00881
M204 S1250
G1 E-2.24000 F4200.000
;WIPE_START
G1 F7200.000
G1 X67.878 Y99.018 E-0.18685
;WIPE_END
G1 E-0.77315 F4200.000
G1 Z0.400 F9000.000
G1 X116.337 Y77.900
G1 Z0.200
G1 E3.20000 F2400.000
M204 S800
;TYPE:Solid infill
;WIDTH:0.420402
G1 F1200.000
G1 X116.930 Y78.494 E0.02634
G1 X116.930 Y79.027 E0.01676
G1 X115.973 Y78.070 E0.04251
G1 X115.439 Y78.070 E0.01676
G1 X116.930 Y79.561 E0.06620
G1 X116.930 Y80.095 E0.01676
G1 X114.905 Y78.070 E0.08990
G1 X114.371 Y78.070 E0.01676
G1 X116.930 Y80.629 E0.11360
G1 X116.930 Y81.163 E0.01676
G1 X113.837 Y78.070 E0.13729
G1 X113.303 Y78.070 E0.01676
G1 X114.484 Y79.251 E0.05241
G1 X114.648 Y79.291 E0.00530
G1 X115.038 Y79.496 E0.01383
G1 X115.368 Y79.788 E0.01383
G1 X115.618 Y80.151 E0.01383
G1 X115.762 Y80.528 E0.01267
G1 X116.930 Y81.697 E0.05187
G1 X116.930 Y82.231 E0.01676
G1 X115.814 Y81.114 E0.04955
G1 X115.775 Y81.437 E0.01022
G1 X115.727 Y81.562 E0.00417
G1 X116.930 Y82.764 E0.05338
G1 X116.930 Y83.298 E0.01676
G1 X115.562 Y81.930 E0.06071
G1 X115.337 Y82.239 E0.01199
G1 X116.930 Y83.832 E0.07070
G1 X116.930 Y84.366 E0.01676
G1 X115.054 Y82.490 E0.08327
G1 X114.708 Y82.678 E0.01236
G1 X116.930 Y84.900 E0.09864
G1 X116.930 Y85.434 E0.01676
G1 X114.293 Y82.796 E0.11706
G1 X114.220 Y82.814 E0.00235
G1 X113.776 Y82.814 E0.01394
G1 X117.100 Y86.137 E0.14753
M204 S1250
G1 E-2.24000 F4200.000
;WIPE_START
G1 F7200.000
G1 X115.936 Y84.973 E-0.91200
;WIPE_END
G1 E-0.04800 F4200.000
G1 Z0.400 F9000.000
G1 X112.600 Y77.900
G1 Z0.200
G1 E3.20000 F2400.000
M204 S800
G1 F1200.000
G1 X113.885 Y79.186 E0.05706
G1 X113.780 Y79.186 E0.00331
G1 X113.436 Y79.270 E0.01111
G1 X112.236 Y78.070 E0.05329
G1 X111.702 Y78.070 E0.01676
G1 X113.071 Y79.439 E0.06076
G1 X112.768 Y79.670 E0.01195
G1 X111.168 Y78.070 E0.07103
G1 X110.634 Y78.070 E0.01676
G1 X112.518 Y79.953 E0.08361
G1 X112.382 Y80.151 E0.00752
G1 X112.326 Y80.296 E0.00488
G1 X110.100 Y78.070 E0.09882
G1 X109.566 Y78.070 E0.01676
G1 X112.207 Y80.711 E0.11723
G1 X112.172 Y81.000 E0.00914
G1 X112.201 Y81.238 E0.00754
G1 X109.033 Y78.070 E0.14065
G1 X108.499 Y78.070 E0.01676
G1 X116.930 Y86.501 E0.37426
G1 X116.930 Y87.035 E0.01676
G1 X107.965 Y78.070 E0.39796
G1 X107.431 Y78.070 E0.01676
G1 X116.930 Y87.569 E0.42165
G1 X116.930 Y88.103 E0.01676
G1 X106.897 Y78.070 E0.44535
G1 X106.363 Y78.070 E0.01676
G1 X116.930 Y88.637 E0.46905
