;FLAVOR:Marlin
;TIME:2048
;Filament used: 1.96002m
;Layer height: 0.2
;MINX:44
;MINY:80.454
;MINZ:0.25
;MAXX:166.046
;MAXY:132.546
;MAXZ:2.85
;Generated with Cura_SteamEngine 4.7.1
M140 S60
M105
M190 S60
M104 S200
M105
M109 S200
M82 ;absolute extrusion mode
; Script based on an original created by tjjfvi (https://github.com/tjjfvi)
; An up-to-date version of the tjjfvi's original script can be found
; here:  https://csi.t6.fyi/
; Note - This script will only work in Cura V4.2 and above!
; --- Global Settings
; layer_height = 0.2
; smooth_spiralized_contours = True
; magic_mesh_surface_mode = normal
; machine_extruder_count = 1
; --- Single Extruder Settings
; speed_z_hop = 10
; retraction_amount = 5
; retraction_hop = 0.075
; retraction_hop_enabled = True
; retraction_enable = True
; retraction_speed = 50
; retraction_retract_speed = 50
; retraction_prime_speed = 50
; speed_travel = 120

G21 ;metric values
G90 ;absolute positioning
M82 ;set extruder to absolute mode
M107 ;start with the fan off
G28 X0 Y0 ;move X/Y to min endstops
G28 Z0 ;move Z to min endstops
G1 Z15.0 F120 ;move the platform down 15mm
G92 E0 ;zero the extruded length
G1 F200 E3 ;extrude 3mm of feed stock
G92 E0 ;zero the extruded length again
G1 F120
G0 Y20 F120
M117 Printing...
G5
G92 E0
G92 E0
G1 F3000 E-5
;LAYER_COUNT:14
;LAYER:0
M106 S51
M204 S3000
M205 X10 Y10
G1 F600 Z0.325
G0 F4200 X60.642 Y90.495 Z0.325
M204 S500
;TYPE:SKIRT
G1 F600 Z0.25
G1 F3000 E0.06236
G1 F1800 X61.118 Y90.249 E0.08447
G1 X61.841 Y90.029 E0.11566
G1 X62.174 Y89.965 E0.12965
G1 X64.839 Y89.413 E0.24195
G1 X67.536 Y88.773 E0.35633
G1 X70.166 Y88.069 E0.46867
G1 X72.794 Y87.287 E0.58181
G1 X75.37 Y86.439 E0.69372
G1 X77.958 Y85.505 E0.80725
G1 X80.452 Y84.526 E0.9178
G1 X82.997 Y83.443 E1.03193
G1 X85.465 Y82.307 E1.14404
G1 X87.901 Y81.103 E1.25616
G1 X88.429 Y80.837 E1.28056
G1 X88.926 Y80.636 E1.30268
G1 X89.447 Y80.511 E1.32479
G1 X90.021 Y80.461 E1.34856
G1 X90.543 Y80.454 E1.37011
G1 X114.34 Y80.454 E2.35205
G1 X115.038 Y80.465 E2.38085
G1 X115.571 Y80.514 E2.40294
G1 X116.231 Y80.689 E2.43112
G1 X117.041 Y80.99 E2.46677
G1 X163.185 Y98.962 E4.51015
G1 X163.788 Y99.208 E4.53702
G1 X164.268 Y99.447 E4.55914
G1 X164.707 Y99.755 E4.58127
G1 X165.095 Y100.124 E4.60337
G1 X165.425 Y100.547 E4.62551
G1 X165.687 Y101.014 E4.6476
G1 X165.878 Y101.516 E4.66976
G1 X165.991 Y102.039 E4.69184
G1 X166.025 Y102.463 E4.70939
G1 X166.046 Y103.5 E4.75219
G1 X166.046 Y109.779 E5.01129
G1 X166.036 Y110.498 E5.04096
G1 X165.988 Y111.032 E5.06308
G1 X165.862 Y111.553 E5.0852
G1 X165.66 Y112.049 E5.1073
G1 X165.386 Y112.51 E5.12943
G1 X165.047 Y112.925 E5.15154
G1 X164.65 Y113.285 E5.17365
G1 X164.204 Y113.582 E5.19576
G1 X163.812 Y113.772 E5.21374
G1 X162.844 Y114.171 E5.25694
G1 X116.883 Y132.072 E7.29221
G1 X116.252 Y132.307 E7.32
G1 X115.737 Y132.456 E7.34212
G1 X115.056 Y132.533 E7.3704
G1 X114.27 Y132.546 E7.40284
G1 X90.676 Y132.546 E8.37641
G1 X89.972 Y132.536 E8.40546
G1 X89.438 Y132.488 E8.42758
G1 X88.917 Y132.362 E8.4497
G1 X88.408 Y132.153 E8.4724
G1 X87.292 Y131.592 E8.52394
G1 X84.864 Y130.412 E8.63534
G1 X82.353 Y129.279 E8.74901
G1 X79.822 Y128.221 E8.8622
G1 X77.266 Y127.238 E8.9752
G1 X74.733 Y126.345 E9.08603
G1 X72.104 Y125.501 E9.19996
G1 X69.518 Y124.75 E9.31108
G1 X66.884 Y124.065 E9.42338
G1 X64.208 Y123.451 E9.53667
G1 X62.105 Y123.029 E9.62518
G1 X61.774 Y122.957 E9.63916
G1 X61.26 Y122.805 E9.66127
G1 X60.774 Y122.578 E9.68341
G1 X60.23 Y122.203 E9.71067
G1 X59.512 Y121.602 E9.74931
G1 X45.71 Y109.639 E10.50298
G1 X45.206 Y109.192 E10.53078
G1 X44.833 Y108.808 E10.55287
G1 X44.52 Y108.372 E10.57501
G1 X44.277 Y107.895 E10.5971
G1 X44.106 Y107.386 E10.61926
G1 X44.014 Y106.859 E10.64134
G1 X44 Y106.323 E10.66346
G1 X44.067 Y105.791 E10.68559
G1 X44.212 Y105.275 E10.7077
G1 X44.432 Y104.786 E10.72983
G1 X44.722 Y104.335 E10.75195
G1 X45.15 Y103.862 E10.77828
G1 X45.522 Y103.523 E10.79904
G1 X59.682 Y91.252 E11.5722
G1 X60.208 Y90.809 E11.60058
G1 X60.642 Y90.495 E11.62268
M204 S3000
G0 F4200 X60.874 Y90.818
M204 S500
G1 F1800 X61.327 Y90.592 E11.64357
G1 X61.916 Y90.418 E11.66892
G1 X62.267 Y90.35 E11.68367
G1 X64.973 Y89.79 E11.79769
G1 X67.627 Y89.16 E11.91025
G1 X70.278 Y88.451 E12.02348
G1 X72.886 Y87.675 E12.13576
G1 X75.514 Y86.81 E12.24992
G1 X78.071 Y85.887 E12.3621
G1 X80.648 Y84.875 E12.47634
G1 X83.141 Y83.813 E12.58815
G1 X85.629 Y82.669 E12.70115
G1 X88.13 Y81.433 E12.81626
G1 X88.606 Y81.193 E12.83826
G1 X89.075 Y81.005 E12.85911
G1 X89.568 Y80.894 E12.87996
G1 X90.139 Y80.855 E12.90358
G1 X90.547 Y80.851 E12.92041
G1 X114.333 Y80.851 E13.9019
G1 X115.031 Y80.862 E13.93071
G1 X115.535 Y80.91 E13.9516
G1 X116.093 Y81.062 E13.97546
G1 X116.897 Y81.36 E14.01085
G1 X163.035 Y99.33 E16.05396
G1 X163.638 Y99.576 E16.08083
G1 X164.09 Y99.803 E16.1017
G1 X164.5 Y100.099 E16.12257
G1 X164.858 Y100.455 E16.1434
G1 X165.156 Y100.864 E16.16428
G1 X165.386 Y101.314 E16.18514
G1 X165.542 Y101.795 E16.206
G1 X165.628 Y102.472 E16.23416
G1 X165.649 Y103.5 E16.27659
G1 X165.649 Y109.773 E16.53543
G1 X165.639 Y110.492 E16.56511
G1 X165.592 Y110.996 E16.58599
G1 X165.466 Y111.485 E16.60683
G1 X165.265 Y111.949 E16.62769
G1 X164.993 Y112.375 E16.64855
G1 X164.658 Y112.754 E16.66942
G1 X164.267 Y113.074 E16.69027
G1 X163.661 Y113.405 E16.71876
G1 X162.7 Y113.801 E16.76165
G1 X116.744 Y131.7 E18.79671
G1 X116.113 Y131.935 E18.82449
G1 X115.627 Y132.073 E18.84534
G1 X115.05 Y132.136 E18.86929
G1 X114.264 Y132.149 E18.90172
G1 X90.682 Y132.149 E19.8748
G1 X89.978 Y132.139 E19.90385
G1 X89.474 Y132.092 E19.92474
G1 X88.985 Y131.966 E19.94557
G1 X88.586 Y131.798 E19.96344
G1 X87.47 Y131.237 E20.01498
G1 X85.01 Y130.042 E20.12783
G1 X82.535 Y128.925 E20.23987
G1 X79.982 Y127.858 E20.35405
G1 X77.393 Y126.862 E20.46851
G1 X74.85 Y125.965 E20.57978
G1 X72.232 Y125.125 E20.69323
G1 X69.615 Y124.365 E20.80568
G1 X66.968 Y123.677 E20.91854
G1 X64.304 Y123.065 E21.03132
G1 X62.183 Y122.64 E21.12058
G1 X61.858 Y122.569 E21.13431
G1 X61.374 Y122.424 E21.15516
G1 X60.919 Y122.204 E21.17601
G1 X60.484 Y121.898 E21.19796
G1 X59.772 Y121.302 E21.23627
G1 X45.973 Y109.342 E21.98977
G1 X45.469 Y108.895 E22.01757
G1 X45.119 Y108.531 E22.03841
G1 X44.83 Y108.116 E22.05927
G1 X44.61 Y107.661 E22.08013
G1 X44.465 Y107.177 E22.10098
G1 X44.398 Y106.676 E22.12183
G1 X44.41 Y106.17 E22.14272
G1 X44.502 Y105.673 E22.16358
G1 X44.671 Y105.197 E22.18442
G1 X44.913 Y104.753 E22.20528
G1 X45.222 Y104.353 E22.22614
G1 X45.647 Y103.944 E22.25048
G1 X45.812 Y103.797 E22.2596
G1 X59.937 Y91.555 E23.03088
G1 X60.463 Y91.112 E23.05926
G1 X60.874 Y90.818 E23.08011
M204 S3000
G1 F3000 E18.08011
;MESH:side-test.stl
G0 F4200 X64.008 Y110.472
M204 S500
;TYPE:WALL-INNER
G1 F3000 E23.14247
G1 F1080 X64.914 Y109.995 E23.18472
G1 X65.68 Y109.317 E23.22693
G1 X66.262 Y108.474 E23.2692
G1 X66.626 Y107.517 E23.31145
G1 X66.631 Y107.469 E23.31344
G1 X66.748 Y106.5 E23.35372
G1 X66.626 Y105.483 E23.39598
G1 X66.262 Y104.526 E23.43823
G1 X65.68 Y103.683 E23.4805
G1 X65.644 Y103.652 E23.48246
G1 X64.914 Y103.005 E23.52271
G1 X64.008 Y102.528 E23.56496
G1 X63.013 Y102.282 E23.60726
G1 X61.987 Y102.282 E23.64959
G1 X60.992 Y102.528 E23.69189
G1 X60.086 Y103.005 E23.73413
G1 X59.32 Y103.683 E23.77635
G1 X58.738 Y104.526 E23.81861
G1 X58.374 Y105.483 E23.86086
G1 X58.369 Y105.531 E23.86286
G1 X58.252 Y106.5 E23.90313
G1 X58.374 Y107.517 E23.9454
G1 X58.738 Y108.474 E23.98764
G1 X59.32 Y109.317 E24.02991
G1 X59.356 Y109.348 E24.03187
G1 X60.086 Y109.995 E24.07213
G1 X60.992 Y110.472 E24.11437
G1 X61.987 Y110.718 E24.15667
G1 X63.013 Y110.718 E24.199
G1 X64.008 Y110.472 E24.2413
M204 S3000
G0 F4200 X63.866 Y110.098
M204 S500
G1 F1080 X64.687 Y109.666 E24.27958
G1 X65.381 Y109.052 E24.31781
G1 X65.908 Y108.288 E24.35611
G1 X66.238 Y107.421 E24.39439
G1 X66.243 Y107.373 E24.39638
G1 X66.348 Y106.5 E24.43266
G1 X66.238 Y105.579 E24.47094
G1 X65.908 Y104.712 E24.50922
G1 X65.381 Y103.948 E24.54752
G1 X64.687 Y103.334 E24.58575
G1 X63.866 Y102.902 E24.62403
G1 X62.965 Y102.679 E24.66233
G1 X62.035 Y102.679 E24.70071
G1 X61.134 Y102.902 E24.73901
G1 X60.313 Y103.334 E24.77729
G1 X59.619 Y103.948 E24.81552
G1 X59.092 Y104.712 E24.85382
G1 X58.762 Y105.579 E24.8921
G1 X58.757 Y105.627 E24.89409
G1 X58.652 Y106.5 E24.93037
G1 X58.762 Y107.421 E24.96865
G1 X59.092 Y108.288 E25.00693
G1 X59.619 Y109.052 E25.04522
G1 X60.313 Y109.666 E25.08346
G1 X61.134 Y110.098 E25.12174
G1 X62.035 Y110.321 E25.16004
G1 X62.965 Y110.321 E25.19842
G1 X63.866 Y110.098 E25.23672
M204 S3000
G0 F4200 X63.724 Y109.724
M204 S500
G1 F1080 X64.46 Y109.337 E25.27103
G1 X65.082 Y108.787 E25.30529
G1 X65.554 Y108.102 E25.33961
G1 X65.85 Y107.325 E25.37392
G1 X65.948 Y106.5 E25.40821
G1 X65.85 Y105.675 E25.44249
G1 X65.554 Y104.898 E25.4768
G1 X65.082 Y104.213 E25.51112
G1 X64.46 Y103.663 E25.54538
G1 X63.724 Y103.276 E25.5797
G1 X62.917 Y103.076 E25.614
G1 X62.083 Y103.076 E25.64842
G1 X61.276 Y103.276 E25.68272
G1 X60.54 Y103.663 E25.71703
G1 X59.918 Y104.213 E25.7513
G1 X59.446 Y104.898 E25.78562
G1 X59.15 Y105.675 E25.81993
G1 X59.052 Y106.5 E25.85421
G1 X59.15 Y107.325 E25.88849
G1 X59.446 Y108.102 E25.9228
G1 X59.918 Y108.787 E25.95713
G1 X60.54 Y109.337 E25.99139
G1 X61.276 Y109.724 E26.0257
G1 X62.083 Y109.924 E26.06001
G1 X62.917 Y109.924 E26.09442
G1 X63.724 Y109.724 E26.12873
M204 S3000
G0 F4200 X63.584 Y109.356
M204 S500
;TYPE:WALL-OUTER
G1 F1080 X64.236 Y109.013 E26.15913
G1 X64.787 Y108.526 E26.18947
G1 X65.205 Y107.919 E26.21988
G1 X65.467 Y107.231 E26.25026
G1 X65.554 Y106.5 E26.28064
G1 X65.467 Y105.769 E26.31101
G1 X65.205 Y105.081 E26.34139
G1 X64.787 Y104.474 E26.3718
G1 X64.236 Y103.987 E26.40215
G1 X63.584 Y103.644 E26.43255
G1 X62.869 Y103.467 E26.46294
G1 X62.131 Y103.467 E26.49339
G1 X61.416 Y103.644 E26.52379
G1 X60.764 Y103.987 E26.55419
G1 X60.213 Y104.474 E26.58453
G1 X59.795 Y105.081 E26.61494
G1 X59.533 Y105.769 E26.64532
G1 X59.446 Y106.5 E26.6757
G1 X59.533 Y107.231 E26.70607
G1 X59.795 Y107.919 E26.73645
G1 X60.213 Y108.526 E26.76686
G1 X60.764 Y109.013 E26.79721
G1 X61.416 Y109.356 E26.82761
G1 X62.131 Y109.533 E26.858
G1 X62.869 Y109.533 E26.88845
G1 X63.584 Y109.356 E26.91885
M204 S3000
G0 F4200 X63.761 Y109.263
G0 X63.963 Y109.649
G1 F3000 E21.91885
G0 F4200 X122.998 Y109.062
M204 S500
;TYPE:WALL-INNER
G1 F3000 E26.98121
G1 F1080 X120.39 Y109.062 E27.08882
G1 X118.672 Y110.78 E27.18908
G1 X118.53 Y110.922 E27.19736
G1 X103.786 Y125.666 E28.05775
G1 X104.529 Y127.438 E28.13704
G1 X114.706 Y127.438 E28.55698
G1 X155.878 Y111.404 E30.38015
G1 X155.847 Y111.245 E30.38684
G1 X155.418 Y109.062 E30.47864
G1 X140.874 Y109.062 E31.07877
G1 X140.874 Y103.938 E31.29021
G1 X155.418 Y103.938 E31.89034
G1 X155.847 Y101.755 E31.98214
G1 X155.878 Y101.596 E31.98883
G1 X114.706 Y85.562 E33.81201
G1 X104.529 Y85.562 E34.23194
G1 X103.786 Y87.334 E34.31123
G1 X118.53 Y102.078 E35.17162
G1 X118.672 Y102.22 E35.1799
G1 X120.39 Y103.938 E35.28016
G1 X122.998 Y103.938 E35.38777
G1 X122.998 Y109.062 E35.59921
M204 S3000
G0 F4200 X123.395 Y109.166
M204 S500
G1 F1080 X140.477 Y109.166 E36.30407
G1 X140.477 Y103.834 E36.52408
G1 X123.395 Y103.834 E37.22894
G1 X123.395 Y109.166 E37.44896
M204 S3000
G0 F4200 X123.792 Y108.769
M204 S500
G1 F1080 X140.08 Y108.769 E38.12106
G1 X140.08 Y104.231 E38.30831
G1 X123.792 Y104.231 E38.98041
G1 X123.792 Y108.769 E39.16766
M204 S3000
G0 F4200 X124.183 Y108.378
M204 S500
;TYPE:WALL-OUTER
G1 F1080 X139.689 Y108.378 E39.80749
G1 X139.689 Y104.622 E39.96248
G1 X124.183 Y104.622 E40.60231
G1 X124.183 Y108.378 E40.75729
M204 S3000
G0 F4200 X124.383 Y108.378
G0 X124.383 Y108.814
G1 F3000 E35.75729
G0 F4200 X120.554 Y103.541
M204 S500
;TYPE:WALL-INNER
G1 F3000 E40.81965
G1 F1080 X123.395 Y103.541 E40.93688
G1 X140.477 Y103.541 E41.45841
G1 X155.091 Y103.541 E42.06143
G1 X155.424 Y101.845 E42.13275
G1 X114.631 Y85.959 E43.93914
G1 X104.793 Y85.959 E44.34509
G1 X104.255 Y87.242 E44.4025
G1 X120.554 Y103.541 E45.35363
M204 S3000
G0 F4200 X120.718 Y103.144
M204 S500
G1 F1080 X154.764 Y103.144 E46.75848
G1 X154.97 Y102.094 E46.80263
G1 X114.556 Y86.356 E48.59223
G1 X105.057 Y86.356 E48.98419
G1 X104.724 Y87.15 E49.01972
G1 X120.718 Y103.144 E49.95305
M204 S3000
G0 F4200 X120.88 Y102.753
M204 S500
;TYPE:WALL-OUTER
G1 F1080 X154.442 Y102.753 E51.33793
G1 X154.523 Y102.34 E51.3553
G1 X114.483 Y86.747 E53.12835
G1 X105.388 Y86.747 E53.50364
G1 X105.317 Y86.747 E53.50657
G1 X105.186 Y87.059 E53.52053
G1 X105.236 Y87.109 E53.52345
G1 X120.88 Y102.753 E54.43636
M204 S3000
G0 F4200 X121.08 Y102.753
G0 X121.08 Y103.189
G1 F3000 E49.43636
G0 F4200 X117.699 Y103.938
M204 S500
;TYPE:WALL-INNER
G1 F3000 E54.49872
G1 F1080 X118.364 Y102.352 E54.56969
G1 X118.442 Y102.166 E54.57563
G1 X103.698 Y87.422 E54.84505
G1 X101.838 Y85.562 E54.95359
G1 X90.648 Y85.562 E55.41533
G1 X81.184 Y95.026 E55.9676
G1 X80.953 Y95.257 E55.98108
G1 X79.062 Y97.148 E56.09143
G1 X79.062 Y103.938 E56.37161
G1 X87.998 Y103.938 E56.74034
G1 X87.998 Y109.062 E56.95177
G1 X79.062 Y109.062 E57.3205
G1 X79.062 Y115.852 E57.60068
G1 X80.952 Y117.742 E57.71097
G1 X81.183 Y117.973 E57.72445
G1 X90.648 Y127.438 E58.27678
G1 X101.838 Y127.438 E58.73852
G1 X103.698 Y125.578 E58.84706
G1 X118.442 Y110.834 E59.11647
G1 X118.364 Y110.648 E59.12242
G1 X117.699 Y109.062 E59.19338
G1 X105.874 Y109.062 E59.68132
G1 X105.874 Y103.938 E59.89276
G1 X117.699 Y103.938 E60.3807
M204 S3000
G0 F4200 X117.435 Y103.541
M204 S500
G1 F1080 X117.973 Y102.258 E60.4381
G1 X101.674 Y85.959 E61.38923
G1 X90.812 Y85.959 E61.83744
G1 X79.459 Y97.312 E62.49994
G1 X79.459 Y103.541 E62.75697
G1 X88.395 Y103.541 E63.1257
G1 X105.477 Y103.541 E63.83056
G1 X117.435 Y103.541 E64.32399
M204 S3000
G0 F4200 X117.171 Y103.144
M204 S500
G1 F1080 X117.504 Y102.35 E64.35952
G1 X101.51 Y86.356 E65.29285
G1 X90.976 Y86.356 E65.72752
G1 X79.856 Y97.476 E66.37643
G1 X79.856 Y103.144 E66.61031
G1 X117.171 Y103.144 E68.15005
M204 S3000
G0 F4200 X116.911 Y102.753
M204 S500
;TYPE:WALL-OUTER
G1 F1080 X117.042 Y102.441 E68.16402
G1 X116.992 Y102.391 E68.16693
G1 X101.348 Y86.747 E69.07984
G1 X91.138 Y86.747 E69.50114
G1 X80.247 Y97.638 E70.13669
G1 X80.247 Y102.753 E70.34775
G1 X116.84 Y102.753 E71.8577
G1 X116.911 Y102.753 E71.86063
M204 S3000
G0 F4200 X116.988 Y102.569
G0 X117.39 Y102.738
G1 F3000 E66.86063
G0 F4200 X105.477 Y109.166
M204 S500
;TYPE:WALL-INNER
G1 F3000 E71.92299
G1 F1080 X105.477 Y103.834 E72.14301
G1 X88.395 Y103.834 E72.66453
G1 X88.395 Y109.166 E72.88455
G1 X105.477 Y109.166 E73.58941
M204 S3000
G0 F4200 X105.08 Y108.769
M204 S500
G1 F1080 X105.08 Y104.231 E73.77666
G1 X88.792 Y104.231 E74.44876
G1 X88.792 Y108.769 E74.63601
G1 X105.08 Y108.769 E75.30811
M204 S3000
G0 F4200 X104.689 Y108.378
M204 S500
;TYPE:WALL-OUTER
G1 F1080 X104.689 Y104.622 E75.4631
G1 X89.183 Y104.622 E76.10293
G1 X89.183 Y108.378 E76.25791
G1 X104.689 Y108.378 E76.89774
M204 S3000
G0 F4200 X104.689 Y108.178
G0 X105.125 Y108.178
G1 F3000 E71.89774
G0 F4200 X101.674 Y127.041
M204 S500
;TYPE:WALL-INNER
G1 F3000 E76.9601
G1 F1080 X117.973 Y110.742 E77.91124
G1 X117.435 Y109.459 E77.96864
G1 X105.477 Y109.459 E78.46207
G1 X88.395 Y109.459 E78.98359
G1 X79.459 Y109.459 E79.35232
G1 X79.459 Y115.688 E79.60935
G1 X90.812 Y127.041 E80.27186
G1 X101.674 Y127.041 E80.72006
M204 S3000
G0 F4200 X101.51 Y126.644
M204 S500
G1 F1080 X117.504 Y110.65 E81.6534
G1 X117.171 Y109.856 E81.68892
G1 X79.856 Y109.856 E83.22867
G1 X79.856 Y115.524 E83.46255
G1 X90.976 Y126.644 E84.11146
G1 X101.51 Y126.644 E84.54612
M204 S3000
G0 F4200 X101.348 Y126.253
M204 S500
;TYPE:WALL-OUTER
G1 F1080 X116.992 Y110.609 E85.45903
G1 X117.042 Y110.559 E85.46195
G1 X116.911 Y110.247 E85.47591
G1 X116.84 Y110.247 E85.47884
G1 X80.247 Y110.247 E86.98879
G1 X80.247 Y115.362 E87.19986
G1 X91.138 Y126.253 E87.8354
G1 X101.348 Y126.253 E88.2567
M204 S3000
G0 F4200 X101.489 Y126.112
G0 X101.797 Y126.42
G1 F3000 E83.2567
G0 F4200 X104.793 Y127.041
M204 S500
;TYPE:WALL-INNER
G1 F3000 E88.31906
G1 F1080 X114.631 Y127.041 E88.72501
G1 X155.424 Y111.155 E90.5314
