;FLAVOR:Marlin
;TIME:11552
;Filament used: 10.8941m
;Layer height: 0.2
;MINX:5.2
;MINY:35.2
;MINZ:0.25
;MAXX:204.8
;MAXY:174.8
;MAXZ:2.85
;Generated with Cura_SteamEngine 4.9.0
M140 S60
M105
M190 S60
M104 S200
M105
M109 S200
M82 ;absolute extrusion mode
G21 ;metric values
G90 ;absolute positioning
M82 ;set extruder to absolute mode
M107 ;start with the fan off
G28 X0 Y0 ;move X/Y to min endstops
G28 Z0 ;move Z to min endstops
G1 Z15.0 F120 ;move the platform down 15mm
G92 E0 ;zero the extruded length
G1 F200 E3 ;extrude 3mm of feed stock
G92 E0 ;zero the extruded length again
G1 F120
G0 Y20 F120
M117 Printing...
G5
G92 E0
G92 E0
G1 F3000 E-5
;LAYER_COUNT:14
;LAYER:0
M106 S51
M204 S3000
M205 X10 Y10
G1 F600 Z0.325
;MESH:SpiderBase-BasePlate.stl
G0 F4200 X196.271 Y67.432 Z0.325
M204 S400
;TYPE:WALL-INNER
G1 F600 Z0.25
G1 F3000 E0.06236
G1 F1080 X196.715 Y67.711 E0.084
G1 X197.294 Y67.889 E0.109
G1 X197.841 Y67.905 E0.13158
G1 X198.396 Y67.772 E0.15513
G1 X198.915 Y67.484 E0.17962
G1 X199.277 Y67.144 E0.20011
G1 X199.585 Y66.648 E0.2242
G1 X199.742 Y66.136 E0.2463
G1 X199.77 Y65.609 E0.26808
G1 X199.649 Y65.047 E0.2918
G1 X199.38 Y64.524 E0.31607
G1 X198.976 Y64.096 E0.34035
G1 X198.464 Y63.789 E0.36499
G1 X197.958 Y63.646 E0.38668
G1 X197.42 Y63.63 E0.40889
G1 X196.927 Y63.737 E0.42971
G1 X196.492 Y63.946 E0.44962
G1 X196.085 Y64.272 E0.47114
G1 X195.769 Y64.691 E0.49279
G1 X195.557 Y65.193 E0.51528
G1 X195.479 Y65.822 E0.54143
G1 X195.588 Y66.444 E0.56749
G1 X195.869 Y67 E0.5932
G1 X196.271 Y67.432 E0.61755
M204 S3000
G0 F4200 X196.522 Y67.128
M204 S400
;TYPE:WALL-OUTER
G1 F1080 X196.879 Y67.352 E0.63494
G1 X197.359 Y67.5 E0.65566
G1 X197.8 Y67.513 E0.67387
G1 X198.253 Y67.404 E0.69309
G1 X198.683 Y67.166 E0.71337
G1 X198.972 Y66.894 E0.72975
G1 X199.226 Y66.485 E0.74962
G1 X199.354 Y66.067 E0.76766
G1 X199.377 Y65.64 E0.7853
G1 X199.278 Y65.18 E0.80472
G1 X199.058 Y64.752 E0.82457
G1 X198.729 Y64.404 E0.84433
G1 X198.307 Y64.151 E0.86464
G1 X197.898 Y64.035 E0.88218
G1 X197.456 Y64.022 E0.90043
G1 X197.055 Y64.109 E0.91736
G1 X196.702 Y64.279 E0.93352
G1 X196.368 Y64.547 E0.95119
G1 X196.11 Y64.888 E0.96884
G1 X195.938 Y65.295 E0.98707
G1 X195.874 Y65.812 E1.00857
G1 X195.963 Y66.319 E1.02981
G1 X196.193 Y66.774 E1.05084
G1 X196.522 Y67.128 E1.07079
M204 S3000
G0 F4200 X196.691 Y67.234
G0 X196.459 Y67.603
G1 F3000 E-3.92921
G0 F4200 X162.193 Y168.838
M204 S400
;TYPE:WALL-INNER
G1 F3000 E1.13315
G1 F1080 X162.512 Y169.256 E1.15485
G1 X162.943 Y169.593 E1.17742
G1 X163.428 Y169.807 E1.1993
G1 X164.032 Y169.897 E1.22449
G1 X164.494 Y169.849 E1.24366
G1 X165.062 Y169.641 E1.26862
G1 X165.572 Y169.256 E1.29499
G1 X165.907 Y168.813 E1.31791
G1 X166.113 Y168.315 E1.34014
G1 X166.188 Y167.7 E1.36571
G1 X166.115 Y167.188 E1.38705
G1 X165.892 Y166.661 E1.41066
G1 X165.569 Y166.24 E1.43256
G1 X165.072 Y165.864 E1.45827
G1 X164.484 Y165.649 E1.48411
G1 X163.93 Y165.604 E1.50704
G1 X163.341 Y165.718 E1.5318
G1 X162.808 Y165.992 E1.55653
G1 X162.374 Y166.397 E1.58102
G1 X162.18 Y166.682 E1.59525
G1 X161.974 Y167.172 E1.61718
G1 X161.895 Y167.701 E1.63925
G1 X161.966 Y168.308 E1.66447
G1 X162.193 Y168.838 E1.68826
M204 S3000
G0 F4200 X162.533 Y168.64
M204 S400
;TYPE:WALL-OUTER
G1 F1080 X162.792 Y168.979 E1.70586
G1 X163.145 Y169.255 E1.72435
G1 X163.538 Y169.428 E1.74207
G1 X164.041 Y169.503 E1.76306
G1 X164.405 Y169.465 E1.77816
G1 X164.873 Y169.294 E1.79872
G1 X165.293 Y168.977 E1.82043
G1 X165.565 Y168.617 E1.83905
G1 X165.731 Y168.215 E1.85699
G1 X165.794 Y167.704 E1.87824
G1 X165.735 Y167.294 E1.89533
G1 X165.551 Y166.859 E1.91482
G1 X165.291 Y166.52 E1.93245
G1 X164.883 Y166.211 E1.95357
G1 X164.4 Y166.034 E1.9748
G1 X163.952 Y165.998 E1.99334
G1 X163.47 Y166.091 E2.0136
G1 X163.035 Y166.315 E2.03379
G1 X162.673 Y166.653 E2.05422
G1 X162.525 Y166.87 E2.06506
G1 X162.353 Y167.278 E2.08333
G1 X162.289 Y167.707 E2.10123
G1 X162.348 Y168.206 E2.12196
G1 X162.533 Y168.64 E2.14143
M204 S3000
G0 F4200 X162.654 Y168.799
G0 X162.308 Y169.063
G1 F3000 E-2.85857
G0 F4200 X168.406 Y161.334
M204 S400
;TYPE:WALL-INNER
G1 F3000 E2.20379
G1 F1080 X168.962 Y161.428 E2.22706
G1 X191.173 Y145.877 E3.34587
G1 X191.267 Y145.321 E3.36914
G1 X167.943 Y112.009 E5.04714
G1 X167.643 Y111.856 E5.06104
G1 X134.802 Y111.856 E6.41617
G1 X134.308 Y112.226 E6.44163
G1 X134.394 Y112.758 E6.46387
G1 X168.406 Y161.334 E8.91077
M204 S3000
G0 F4200 X168.633 Y160.976
M204 S400
;TYPE:WALL-OUTER
G1 F1080 X168.869 Y161.016 E8.92065
G1 X190.751 Y145.695 E10.0229
G1 X190.815 Y145.65 E10.02612
G1 X190.855 Y145.414 E10.036
G1 X190.81 Y145.35 E10.03923
G1 X167.678 Y112.313 E11.70339
G1 X167.549 Y112.247 E11.70937
G1 X134.932 Y112.247 E13.05526
G1 X134.732 Y112.397 E13.06557
G1 X134.766 Y112.607 E13.07435
G1 X168.633 Y160.976 E15.51082
M204 S3000
G0 F4200 X168.83 Y161.009
G0 X168.757 Y161.439
G1 F3000 E10.51082
G0 F4200 X195.723 Y145.227
M204 S400
;TYPE:WALL-INNER
G1 F3000 E15.57319
G1 F1080 X196.088 Y145.732 E15.5989
G1 X196.544 Y146.085 E15.62269
G1 X197.107 Y146.317 E15.64782
G1 X197.729 Y146.379 E15.67361
G1 X198.323 Y146.265 E15.69857
G1 X198.766 Y146.052 E15.71885
G1 X199.19 Y145.703 E15.74151
G1 X199.546 Y145.201 E15.76691
G1 X199.739 Y144.62 E15.79217
G1 X199.77 Y144.075 E15.81469
G1 X199.648 Y143.511 E15.83851
G1 X199.38 Y142.99 E15.86268
G1 X198.979 Y142.565 E15.88679
G1 X198.537 Y142.288 E15.90832
G1 X197.958 Y142.111 E15.9333
G1 X197.412 Y142.095 E15.95584
G1 X196.856 Y142.228 E15.97943
G1 X196.321 Y142.526 E16.0047
G1 X195.877 Y142.984 E16.03102
G1 X195.56 Y143.645 E16.06127
G1 X195.48 Y144.182 E16.08367
G1 X195.535 Y144.718 E16.1059
G1 X195.723 Y145.227 E16.12829
M204 S3000
G0 F4200 X196.071 Y145.041
M204 S400
;TYPE:WALL-OUTER
G1 F1080 X196.372 Y145.457 E16.14948
G1 X196.742 Y145.744 E16.1688
G1 X197.203 Y145.934 E16.18938
G1 X197.711 Y145.984 E16.21044
G1 X198.199 Y145.891 E16.23094
G1 X198.554 Y145.72 E16.2472
G1 X198.901 Y145.434 E16.26576
G1 X199.193 Y145.022 E16.28659
G1 X199.352 Y144.546 E16.3073
G1 X199.377 Y144.106 E16.32549
G1 X199.277 Y143.644 E16.34499
G1 X199.058 Y143.218 E16.36476
G1 X198.729 Y142.87 E16.38452
G1 X198.373 Y142.647 E16.40185
G1 X197.894 Y142.5 E16.42253
G1 X197.453 Y142.487 E16.44073
G1 X197 Y142.596 E16.45996
G1 X196.562 Y142.84 E16.48065
G1 X196.202 Y143.211 E16.50198
G1 X195.938 Y143.761 E16.52715
G1 X195.874 Y144.191 E16.54509
G1 X195.919 Y144.629 E16.56326
G1 X196.071 Y145.041 E16.58138
M204 S3000
G0 F4200 X196.188 Y145.203
G0 X195.835 Y145.457
G1 F3000 E11.58138
G0 F4200 X196.588 Y133.057
M204 S400
;TYPE:WALL-INNER
G1 F3000 E16.64374
G1 F1080 X197.247 Y133.265 E16.67226
G1 X197.644 Y132.714 E16.70028
G1 X197.644 Y77.28 E18.98767
G1 X197.23 Y76.727 E19.01618
G1 X196.583 Y76.951 E19.04443
G1 X177.094 Y104.784 E20.44647
G1 X177.094 Y105.216 E20.4643
G1 X196.588 Y133.057 E21.86673
M204 S3000
G0 F4200 X196.832 Y132.724
M204 S400
;TYPE:WALL-OUTER
G1 F1080 X197.095 Y132.807 E21.87811
G1 X197.144 Y132.739 E21.88156
G1 X197.253 Y132.588 E21.88925
G1 X197.253 Y77.41 E24.16608
G1 X197.139 Y77.258 E24.17392
G1 X197.088 Y77.19 E24.17743
G1 X196.83 Y77.279 E24.18869
G1 X196.781 Y77.349 E24.19221
G1 X177.485 Y104.907 E25.58039
G1 X177.485 Y105.093 E25.58807
G1 X196.784 Y132.655 E26.97645
G1 X196.832 Y132.724 E26.97992
M204 S3000
G0 F4200 X197.023 Y132.784
G0 X196.891 Y133.2
G1 F3000 E21.97992
G0 F4200 X179.452 Y121.578
M204 S400
;TYPE:WALL-INNER
G1 F3000 E27.04228
G1 F1080 X179.983 Y121.761 E27.06546
G1 X180.531 Y121.804 E27.08814
G1 X181.121 Y121.69 E27.11294
G1 X181.653 Y121.416 E27.13763
G1 X182.097 Y121.001 E27.16271
G1 X182.409 Y120.465 E27.1883
G1 X182.548 Y119.955 E27.21011
G1 X182.544 Y119.34 E27.23549
G1 X182.37 Y118.758 E27.26055
G1 X182.05 Y118.26 E27.28498
G1 X181.697 Y117.934 E27.30481
G1 X181.266 Y117.685 E27.32535
G1 X180.767 Y117.539 E27.3468
G1 X180.214 Y117.521 E27.36963
G1 X179.72 Y117.627 E27.39048
G1 X179.288 Y117.832 E27.41021
G1 X178.788 Y118.258 E27.43731
G1 X178.461 Y118.775 E27.46256
G1 X178.292 Y119.359 E27.48764
G1 X178.295 Y119.969 E27.51281
G1 X178.464 Y120.549 E27.53774
G1 X178.782 Y121.047 E27.56212
G1 X178.967 Y121.239 E27.57312
G1 X179.452 Y121.578 E27.59754
M204 S3000
G0 F4200 X179.631 Y121.226
M204 S400
;TYPE:WALL-OUTER
G1 F1080 X180.063 Y121.375 E27.6164
G1 X180.509 Y121.41 E27.63486
G1 X180.992 Y121.317 E27.65515
G1 X181.426 Y121.093 E27.67531
G1 X181.788 Y120.755 E27.69574
G1 X182.045 Y120.313 E27.71684
G1 X182.157 Y119.904 E27.73434
G1 X182.153 Y119.399 E27.75518
G1 X182.011 Y118.923 E27.77567
G1 X181.748 Y118.513 E27.79577
G1 X181.464 Y118.251 E27.81172
G1 X181.111 Y118.047 E27.82854
G1 X180.705 Y117.928 E27.846
G1 X180.249 Y117.913 E27.86482
G1 X179.847 Y118 E27.8818
G1 X179.502 Y118.163 E27.89754
G1 X179.087 Y118.517 E27.92005
G1 X178.821 Y118.937 E27.94056
G1 X178.683 Y119.413 E27.96101
G1 X178.686 Y119.912 E27.9816
G1 X178.824 Y120.386 E28.00197
G1 X179.091 Y120.804 E28.02244
G1 X179.222 Y120.94 E28.03023
G1 X179.631 Y121.226 E28.05083
M204 S3000
G0 F4200 X179.82 Y121.291
G0 X179.677 Y121.704
G1 F3000 E23.05083
G0 F4200 X179.3 Y92.174
M204 S400
;TYPE:WALL-INNER
G1 F3000 E28.11319
G1 F1080 X179.806 Y92.399 E28.13604
G1 X180.409 Y92.489 E28.1612
G1 X180.873 Y92.441 E28.18045
G1 X181.436 Y92.232 E28.20523
G1 X181.862 Y91.933 E28.2267
G1 X182.228 Y91.501 E28.25006
G1 X182.488 Y90.925 E28.27614
G1 X182.566 Y90.292 E28.30246
G1 X182.493 Y89.78 E28.3238
G1 X182.268 Y89.249 E28.3476
G1 X181.89 Y88.775 E28.37261
G1 X181.472 Y88.469 E28.39399
G1 X181.03 Y88.284 E28.41376
G1 X180.521 Y88.196 E28.43507
G1 X179.971 Y88.241 E28.45785
G1 X179.401 Y88.452 E28.48293
G1 X178.945 Y88.779 E28.50608
G1 X178.556 Y89.274 E28.53206
G1 X178.351 Y89.764 E28.55397
G1 X178.273 Y90.293 E28.57604
G1 X178.344 Y90.899 E28.60122
G1 X178.569 Y91.432 E28.62509
G1 X178.889 Y91.847 E28.64671
G1 X179.3 Y92.174 E28.66838
M204 S3000
G0 F4200 X179.504 Y91.837
M204 S400
;TYPE:WALL-OUTER
G1 F1080 X179.916 Y92.02 E28.68699
G1 X180.418 Y92.095 E28.70793
G1 X180.783 Y92.057 E28.72307
G1 X181.253 Y91.883 E28.74375
G1 X181.596 Y91.642 E28.76105
G1 X181.894 Y91.29 E28.78008
G1 X182.107 Y90.818 E28.80145
G1 X182.172 Y90.296 E28.82315
G1 X182.113 Y89.886 E28.84025
G1 X181.929 Y89.451 E28.85974
G1 X181.617 Y89.06 E28.88038
G1 X181.278 Y88.812 E28.89771
G1 X180.92 Y88.662 E28.91373
G1 X180.503 Y88.59 E28.93119
G1 X180.056 Y88.626 E28.94969
G1 X179.586 Y88.8 E28.97037
G1 X179.218 Y89.064 E28.98906
G1 X178.896 Y89.474 E29.01057
G1 X178.731 Y89.87 E29.02827
G1 X178.667 Y90.299 E29.04617
G1 X178.726 Y90.798 E29.06691
G1 X178.91 Y91.233 E29.08639
G1 X179.17 Y91.571 E29.10399
G1 X179.504 Y91.837 E29.12161
M204 S3000
G0 F4200 X179.687 Y91.918
G0 X179.509 Y92.317
G1 F3000 E24.12161
G0 F4200 X134.863 Y98.144
M204 S400
;TYPE:WALL-INNER
G1 F3000 E29.18397
G1 F1080 X167.643 Y98.144 E30.53658
G1 X167.943 Y97.991 E30.55048
G1 X191.267 Y64.679 E32.22848
G1 X191.173 Y64.123 E32.25175
G1 X168.962 Y48.572 E33.37056
G1 X168.406 Y48.666 E33.39383
G1 X134.359 Y97.292 E35.84325
G1 X134.379 Y97.908 E35.86868
G1 X134.863 Y98.144 E35.8909
M204 S3000
G0 F4200 X134.953 Y97.753
M204 S400
;TYPE:WALL-OUTER
G1 F1080 X167.549 Y97.753 E37.23592
G1 X167.678 Y97.687 E37.2419
G1 X190.81 Y64.65 E38.90606
G1 X190.855 Y64.586 E38.90929
G1 X190.815 Y64.35 E38.91917
G1 X190.751 Y64.305 E38.9224
G1 X168.869 Y48.984 E40.02464
G1 X168.633 Y49.024 E40.03452
G1 X134.754 Y97.41 E42.47185
G1 X134.762 Y97.66 E42.48217
G1 X134.953 Y97.753 E42.49094
M204 S3000
G0 F4200 X135.153 Y97.753
G0 X135.153 Y98.189
G1 F3000 E37.49094
G0 F4200 X84.594 Y42.145
M204 S400
;TYPE:WALL-INNER
G1 F3000 E42.5533
G1 F1080 X85.051 Y42.076 E42.57237
G1 X85.624 Y41.831 E42.59808
G1 X86.097 Y41.44 E42.62341
G1 X86.423 Y40.958 E42.64742
G1 X86.615 Y40.371 E42.6729
G1 X86.642 Y39.837 E42.69497
G1 X86.521 Y39.276 E42.71865
G1 X86.238 Y38.737 E42.74377
G1 X85.8 Y38.287 E42.76968
G1 X85.261 Y37.992 E42.79503
G1 X84.699 Y37.861 E42.81884
G1 X84.094 Y37.89 E42.84384
G1 X83.577 Y38.062 E42.86632
G1 X83.066 Y38.403 E42.89167
G1 X82.743 Y38.765 E42.91169
G1 X82.465 Y39.308 E42.93686
G1 X82.353 Y39.942 E42.96343
G1 X82.403 Y40.461 E42.98494
G1 X82.594 Y40.991 E43.00819
G1 X82.94 Y41.478 E43.03284
G1 X83.405 Y41.846 E43.05731
G1 X83.98 Y42.084 E43.08299
G1 X84.594 Y42.145 E43.10845
M204 S3000
G0 F4200 X84.584 Y41.751
M204 S400
;TYPE:WALL-OUTER
G1 F1080 X84.943 Y41.697 E43.12343
G1 X85.418 Y41.494 E43.14474
G1 X85.804 Y41.175 E43.1654
G1 X86.068 Y40.784 E43.18487
G1 X86.227 Y40.299 E43.20593
G1 X86.249 Y39.869 E43.2237
G1 X86.15 Y39.411 E43.24303
G1 X85.918 Y38.969 E43.26363
G1 X85.561 Y38.602 E43.28476
G1 X85.12 Y38.361 E43.3055
G1 X84.663 Y38.254 E43.32486
G1 X84.166 Y38.278 E43.34539
G1 X83.75 Y38.416 E43.36348
G1 X83.325 Y38.7 E43.38457
G1 X83.068 Y38.988 E43.4005
G1 X82.84 Y39.434 E43.42117
G1 X82.747 Y39.958 E43.44313
G1 X82.787 Y40.374 E43.46037
G1 X82.944 Y40.808 E43.47942
G1 X83.227 Y41.206 E43.49957
G1 X83.605 Y41.506 E43.51948
G1 X84.076 Y41.701 E43.54052
G1 X84.584 Y41.751 E43.56158
M204 S3000
G0 F4200 X84.781 Y41.722
G0 X84.844 Y42.153
G1 F3000 E38.56158
G0 F4200 X124.98 Y42.084
M204 S400
;TYPE:WALL-INNER
G1 F3000 E43.62394
G1 F1080 X125.594 Y42.145 E43.6494
G1 X126.051 Y42.076 E43.66847
G1 X126.624 Y41.831 E43.69419
G1 X127.097 Y41.44 E43.71951
G1 X127.423 Y40.958 E43.74352
G1 X127.615 Y40.371 E43.76901
G1 X127.642 Y39.837 E43.79107
G1 X127.521 Y39.276 E43.81475
G1 X127.238 Y38.737 E43.83987
G1 X126.8 Y38.287 E43.86578
G1 X126.261 Y37.992 E43.89114
G1 X125.699 Y37.861 E43.91495
G1 X125.094 Y37.89 E43.93994
G1 X124.577 Y38.062 E43.96242
G1 X124.066 Y38.403 E43.98777
G1 X123.743 Y38.765 E44.00779
G1 X123.465 Y39.308 E44.03296
G1 X123.353 Y39.942 E44.05953
G1 X123.403 Y40.461 E44.08104
G1 X123.594 Y40.991 E44.10429
G1 X123.94 Y41.478 E44.12894
G1 X124.405 Y41.846 E44.15341
G1 X124.98 Y42.084 E44.17909
M204 S3000
G0 F4200 X125.076 Y41.701
M204 S400
;TYPE:WALL-OUTER
G1 F1080 X125.584 Y41.751 E44.20015
G1 X125.943 Y41.697 E44.21513
G1 X126.418 Y41.494 E44.23645
G1 X126.804 Y41.175 E44.25711
G1 X127.068 Y40.784 E44.27658
G1 X127.227 Y40.299 E44.29764
G1 X127.249 Y39.869 E44.31541
G1 X127.15 Y39.411 E44.33474
G1 X126.918 Y38.969 E44.35534
G1 X126.561 Y38.602 E44.37646
G1 X126.12 Y38.361 E44.3972
G1 X125.663 Y38.254 E44.41657
G1 X125.166 Y38.278 E44.4371
G1 X124.75 Y38.416 E44.45519
G1 X124.325 Y38.7 E44.47628
G1 X124.068 Y38.988 E44.49221
G1 X123.84 Y39.434 E44.51287
G1 X123.747 Y39.958 E44.53483
G1 X123.787 Y40.374 E44.55208
G1 X123.944 Y40.808 E44.57112
G1 X124.227 Y41.206 E44.59127
G1 X124.605 Y41.506 E44.61119
G1 X125.076 Y41.701 E44.63222
M204 S3000
G0 F4200 X125.275 Y41.72
G0 X125.232 Y42.154
G1 F3000 E39.63222
G0 F4200 X163.41 Y44.304
M204 S400
;TYPE:WALL-INNER
G1 F3000 E44.69459
G1 F1080 X164.034 Y44.397 E44.72062
G1 X164.493 Y44.35 E44.73966
G1 X165.062 Y44.142 E44.76466
G1 X165.572 Y43.757 E44.79102
G1 X165.907 Y43.314 E44.81394
G1 X166.113 Y42.816 E44.83618
G1 X166.188 Y42.201 E44.86174
G1 X166.115 Y41.689 E44.88308
G1 X165.886 Y41.15 E44.90725
G1 X165.482 Y40.656 E44.93358
G1 X165.052 Y40.356 E44.95522
G1 X164.484 Y40.149 E44.98016
G1 X163.93 Y40.105 E45.00309
G1 X163.341 Y40.219 E45.02785
G1 X162.808 Y40.493 E45.05258
G1 X162.367 Y40.905 E45.07748
G1 X162.082 Y41.373 E45.10009
G1 X161.914 Y41.95 E45.12489
G1 X161.917 Y42.561 E45.1501
G1 X162.086 Y43.141 E45.17503
G1 X162.413 Y43.653 E45.2001
G1 X162.851 Y44.038 E45.22416
G1 X163.41 Y44.304 E45.2497
M204 S3000
G0 F4200 X163.525 Y43.926
M204 S400
;TYPE:WALL-OUTER
G1 F1080 X164.043 Y44.003 E45.27131
G1 X164.405 Y43.966 E45.28633
G1 X164.873 Y43.795 E45.30689
G1 X165.293 Y43.478 E45.3286
G1 X165.565 Y43.118 E45.34722
G1 X165.731 Y42.716 E45.36517
G1 X165.794 Y42.205 E45.38641
G1 X165.735 Y41.795 E45.4035
G1 X165.548 Y41.354 E45.42327
G1 X165.214 Y40.946 E45.44503
G1 X164.87 Y40.706 E45.46233
G1 X164.4 Y40.535 E45.48297
G1 X163.952 Y40.499 E45.50152
G1 X163.47 Y40.592 E45.52177
G1 X163.035 Y40.816 E45.54196
G1 X162.673 Y41.154 E45.5624
G1 X162.443 Y41.532 E45.58066
G1 X162.305 Y42.005 E45.60099
G1 X162.308 Y42.504 E45.62158
