;FLAVOR:Marlin
;TIME:2651
;Filament used: 2.29719m
;Layer height: 0.2
;MINX:73.454
;MINY:88.454
;MINZ:0.25
;MAXX:136.546
;MAXY:153.546
;MAXZ:14.85
;Generated with Cura_SteamEngine 4.7.1
M140 S60
M105
M190 S60
M104 S200
M105
M109 S200
M82 ;absolute extrusion mode
; Script based on an original created by tjjfvi (https://github.com/tjjfvi)
; An up-to-date version of the tjjfvi's original script can be found
; here:  https://csi.t6.fyi/
; Note - This script will only work in Cura V4.2 and above!
; --- Global Settings
; layer_height = 0.2
; smooth_spiralized_contours = True
; magic_mesh_surface_mode = normal
; machine_extruder_count = 1
; --- Single Extruder Settings
; speed_z_hop = 10
; retraction_amount = 5
; retraction_hop = 0.075
; retraction_hop_enabled = True
; retraction_enable = True
; retraction_speed = 50
; retraction_retract_speed = 50
; retraction_prime_speed = 50
; speed_travel = 120

G21 ;metric values
G90 ;absolute positioning
M82 ;set extruder to absolute mode
M107 ;start with the fan off
G28 X0 Y0 ;move X/Y to min endstops
G28 Z0 ;move Z to min endstops
G1 Z15.0 F120 ;move the platform down 15mm
G92 E0 ;zero the extruded length
G1 F200 E3 ;extrude 3mm of feed stock
G92 E0 ;zero the extruded length again
G1 F120
G0 Y20 F120
M117 Printing...
G5
G92 E0
G92 E0
G1 F3000 E-5
;LAYER_COUNT:74
;LAYER:0
M106 S51
M204 S3000
M205 X10 Y10
G1 F600 Z0.325
G0 F4200 X74.848 Y89.223 Z0.325
M204 S500
;TYPE:SKIRT
G1 F600 Z0.25
G1 F3000 E0.06236
G1 F1800 X75.294 Y88.926 E0.08447
G1 X75.78 Y88.698 E0.10662
G1 X76.293 Y88.545 E0.12871
G1 X76.958 Y88.464 E0.15636
G1 X77.38 Y88.454 E0.17377
G1 X132.295 Y88.454 E2.43975
G1 X132.993 Y88.464 E2.46856
G1 X133.526 Y88.512 E2.49064
G1 X134.047 Y88.638 E2.51276
G1 X134.544 Y88.841 E2.53491
G1 X135.004 Y89.115 E2.557
G1 X135.419 Y89.454 E2.57911
G1 X135.779 Y89.851 E2.60123
G1 X136.076 Y90.298 E2.62337
G1 X136.303 Y90.783 E2.64547
G1 X136.455 Y91.297 E2.66759
G1 X136.536 Y91.959 E2.69511
G1 X136.546 Y92.38 E2.71248
G1 X136.546 Y117.278 E3.73986
G1 X136.535 Y118.007 E3.76994
G1 X136.492 Y118.51 E3.79077
G1 X136.337 Y119.495 E3.83192
G1 X136.178 Y120.429 E3.87101
G1 X135.796 Y123.113 E3.98288
G1 X135.49 Y125.822 E4.09537
G1 X135.26 Y128.542 E4.20801
G1 X135.108 Y131.237 E4.31939
G1 X135.031 Y133.997 E4.43332
G1 X135.036 Y136.933 E4.55447
G1 X135.027 Y137.193 E4.56521
G1 X134.958 Y138.158 E4.60513
G1 X134.89 Y138.933 E4.63723
G1 X134.825 Y139.579 E4.66402
G1 X134.735 Y140.093 E4.68555
G1 X134.508 Y140.997 E4.72401
G1 X134.309 Y141.737 E4.75563
G1 X134.128 Y142.377 E4.78308
G1 X133.951 Y142.865 E4.8045
G1 X133.575 Y143.705 E4.84247
G1 X133.253 Y144.397 E4.87397
G1 X132.962 Y145.001 E4.90163
G1 X132.701 Y145.454 E4.9232
G1 X132.176 Y146.23 E4.96186
G1 X131.771 Y146.807 E4.99095
G1 X131.341 Y147.405 E5.02135
G1 X131.004 Y147.808 E5.04302
G1 X130.402 Y148.429 E5.07871
G1 X129.812 Y149.018 E5.11311
G1 X129.343 Y149.473 E5.14007
G1 X128.952 Y149.802 E5.16116
G1 X128.237 Y150.32 E5.19759
G1 X127.571 Y150.787 E5.23116
G1 X127.003 Y151.172 E5.25947
G1 X126.558 Y151.429 E5.28068
G1 X125.761 Y151.816 E5.31723
G1 X125.087 Y152.13 E5.34792
G1 X124.417 Y152.431 E5.37822
G1 X123.93 Y152.609 E5.39962
G1 X123.054 Y152.858 E5.4372
G1 X122.306 Y153.059 E5.46916
G1 X121.666 Y153.222 E5.49641
G1 X121.147 Y153.314 E5.51816
G1 X120.258 Y153.405 E5.55503
G1 X119.41 Y153.479 E5.59016
G1 X118.8 Y153.524 E5.6154
G1 X118.589 Y153.534 E5.62411
G1 X117.794 Y153.546 E5.65692
G1 X79.205 Y153.546 E7.24923
G1 X78.507 Y153.536 E7.27804
G1 X77.974 Y153.488 E7.30012
G1 X77.453 Y153.362 E7.32224
G1 X76.956 Y153.159 E7.34439
G1 X76.496 Y152.885 E7.36648
G1 X76.081 Y152.546 E7.3886
G1 X75.721 Y152.149 E7.41071
G1 X75.424 Y151.702 E7.43285
G1 X75.197 Y151.217 E7.45495
G1 X75.045 Y150.703 E7.47707
G1 X74.964 Y150.037 E7.50475
G1 X74.954 Y149.608 E7.52246
G1 X74.954 Y135.199 E8.11702
G1 X74.915 Y132.418 E8.23179
G1 X74.799 Y129.687 E8.34458
G1 X74.606 Y126.963 E8.45726
G1 X74.34 Y124.283 E8.56839
G1 X73.99 Y121.552 E8.682
G1 X73.546 Y118.735 E8.79968
G1 X73.464 Y118.04 E8.82855
G1 X73.454 Y117.62 E8.84589
G1 X73.454 Y92.675 E9.8752
G1 X73.463 Y92.01 E9.90265
G1 X73.511 Y91.476 E9.92477
G1 X73.637 Y90.955 E9.94689
G1 X73.839 Y90.459 E9.96899
G1 X74.112 Y89.998 E9.99109
G1 X74.451 Y89.583 E10.01321
G1 X74.848 Y89.223 E10.03532
M204 S3000
G0 F4200 X75.231 Y89.434
M204 S500
G1 F1800 X75.668 Y89.178 E10.05622
G1 X76.139 Y88.995 E10.07707
G1 X76.633 Y88.889 E10.09792
G1 X77.29 Y88.852 E10.12507
G1 X132.289 Y88.851 E12.39451
G1 X132.987 Y88.861 E12.42332
G1 X133.49 Y88.908 E12.44416
G1 X133.98 Y89.034 E12.46504
G1 X134.443 Y89.236 E12.48588
G1 X134.869 Y89.508 E12.50674
G1 X135.247 Y89.843 E12.52758
G1 X135.568 Y90.234 E12.54846
G1 X135.823 Y90.671 E12.56933
G1 X136.005 Y91.142 E12.59017
G1 X136.112 Y91.636 E12.61103
G1 X136.148 Y92.29 E12.63805
G1 X136.149 Y117.272 E13.66889
G1 X136.138 Y118.001 E13.69898
G1 X136.099 Y118.449 E13.71753
G1 X135.945 Y119.428 E13.75843
G1 X135.789 Y120.343 E13.79673
G1 X135.404 Y123.048 E13.90947
G1 X135.096 Y125.779 E14.02288
G1 X134.864 Y128.52 E14.13638
G1 X134.711 Y131.24 E14.2488
G1 X134.634 Y133.987 E14.36219
G1 X134.639 Y136.934 E14.4838
G1 X134.631 Y137.165 E14.49333
G1 X134.563 Y138.124 E14.533
G1 X134.495 Y138.893 E14.56486
G1 X134.43 Y139.539 E14.59165
G1 X134.35 Y139.997 E14.61083
G1 X134.125 Y140.894 E14.64899
G1 X133.927 Y141.629 E14.6804
G1 X133.746 Y142.269 E14.70785
G1 X133.589 Y142.703 E14.72689
G1 X133.215 Y143.538 E14.76465
G1 X132.895 Y144.224 E14.79588
G1 X132.604 Y144.828 E14.82355
G1 X132.372 Y145.231 E14.84273
G1 X131.851 Y146.002 E14.88113
G1 X131.448 Y146.576 E14.91007
G1 X131.018 Y147.174 E14.94046
G1 X130.718 Y147.532 E14.95974
G1 X130.121 Y148.148 E14.99513
G1 X129.536 Y148.733 E15.02927
G1 X129.067 Y149.188 E15.05623
G1 X128.719 Y149.48 E15.07498
G1 X128.009 Y149.995 E15.11117
G1 X127.348 Y150.458 E15.14447
G1 X126.78 Y150.843 E15.17279
G1 X126.385 Y151.072 E15.19163
G1 X125.594 Y151.456 E15.22791
G1 X124.924 Y151.768 E15.2584
G1 X124.254 Y152.069 E15.28871
G1 X123.821 Y152.227 E15.30773
G1 X122.951 Y152.475 E15.34506
G1 X122.208 Y152.674 E15.3768
G1 X121.568 Y152.837 E15.40405
G1 X121.107 Y152.919 E15.42337
G1 X120.224 Y153.01 E15.46
G1 X119.38 Y153.083 E15.49496
G1 X118.77 Y153.128 E15.5202
G1 X118.583 Y153.137 E15.52792
G1 X117.788 Y153.149 E15.56073
G1 X79.211 Y153.149 E17.15255
G1 X78.513 Y153.139 E17.18135
G1 X78.01 Y153.092 E17.2022
G1 X77.52 Y152.966 E17.22307
G1 X77.057 Y152.764 E17.24392
G1 X76.631 Y152.492 E17.26477
G1 X76.253 Y152.157 E17.28562
G1 X75.932 Y151.766 E17.30649
G1 X75.677 Y151.329 E17.32737
G1 X75.495 Y150.858 E17.3482
G1 X75.388 Y150.364 E17.36906
G1 X75.352 Y149.695 E17.39671
G1 X75.351 Y135.193 E17.99511
G1 X75.311 Y132.395 E18.11057
G1 X75.196 Y129.678 E18.22279
G1 X75.001 Y126.928 E18.33655
G1 X74.734 Y124.229 E18.44846
G1 X74.385 Y121.51 E18.56157
G1 X73.933 Y118.639 E18.6815
G1 X73.861 Y118.029 E18.70685
G1 X73.851 Y117.62 E18.72373
G1 X73.851 Y92.681 E19.75279
G1 X73.86 Y92.016 E19.78024
G1 X73.907 Y91.512 E19.80112
G1 X74.032 Y91.023 E19.82195
G1 X74.234 Y90.559 E19.84283
G1 X74.505 Y90.133 E19.86367
G1 X74.84 Y89.754 E19.88454
G1 X75.231 Y89.434 E19.90539
M204 S3000
G1 F3000 E14.90539
;MESH:HipBasePlateWithPin.stl
G0 F4200 X81.218 Y97.81
M204 S500
;TYPE:WALL-INNER
G1 F3000 E19.96775
G1 F1080 X82.035 Y97.498 E20.00384
G1 X82.57 Y96.897 E20.03704
G1 X82.614 Y96.847 E20.03979
G1 X82.822 Y96 E20.07577
G1 X82.614 Y95.153 E20.11176
G1 X82.57 Y95.103 E20.11451
G1 X82.035 Y94.502 E20.14771
G1 X81.219 Y94.19 E20.18376
G1 X80.42 Y94.289 E20.21698
G1 X79.944 Y94.537 E20.23913
G1 X79.452 Y95.072 E20.26912
G1 X79.231 Y95.616 E20.29335
G1 X79.231 Y96.434 E20.3271
G1 X79.635 Y97.208 E20.36313
G1 X80.354 Y97.702 E20.39913
G1 X81.218 Y97.81 E20.43506
M204 S3000
G0 F4200 X81.169 Y97.404
M204 S500
G1 F1080 X81.803 Y97.162 E20.46306
G1 X82.252 Y96.657 E20.49094
G1 X82.413 Y96 E20.51885
G1 X82.252 Y95.343 E20.54677
G1 X81.803 Y94.838 E20.57465
G1 X81.17 Y94.596 E20.60261
G1 X80.54 Y94.674 E20.62881
G1 X80.189 Y94.857 E20.64514
G1 X79.793 Y95.288 E20.66929
G1 X79.628 Y95.694 E20.68738
G1 X79.628 Y96.337 E20.71391
G1 X79.941 Y96.937 E20.74183
G1 X80.499 Y97.32 E20.76976
G1 X81.169 Y97.404 E20.79762
M204 S3000
G0 F4200 X81.121 Y97.004
M204 S500
;TYPE:WALL-OUTER
G1 F1080 X81.574 Y96.831 E20.81763
G1 X81.895 Y96.47 E20.83756
G1 X82.01 Y96 E20.85753
G1 X81.895 Y95.53 E20.8775
G1 X81.574 Y95.169 E20.89743
G1 X81.121 Y94.996 E20.91744
G1 X80.658 Y95.053 E20.93669
G1 X80.431 Y95.172 E20.94726
G1 X80.129 Y95.501 E20.96569
G1 X80.019 Y95.771 E20.97772
G1 X80.019 Y96.241 E20.99712
G1 X80.243 Y96.67 E21.01709
G1 X80.642 Y96.944 E21.03706
G1 X81.121 Y97.004 E21.05698
M204 S3000
G0 F4200 X81.308 Y96.933
G0 X81.462 Y97.341
G1 F3000 E16.05698
G0 F4200 X81.218 Y115.81
M204 S500
;TYPE:WALL-INNER
G1 F3000 E21.11934
G1 F1080 X82.035 Y115.498 E21.15543
G1 X82.57 Y114.897 E21.18863
G1 X82.614 Y114.847 E21.19138
G1 X82.822 Y114 E21.22737
G1 X82.614 Y113.153 E21.26335
G1 X82.57 Y113.103 E21.2661
G1 X82.035 Y112.502 E21.2993
G1 X81.219 Y112.19 E21.33535
G1 X80.42 Y112.289 E21.36857
G1 X79.944 Y112.537 E21.39072
G1 X79.452 Y113.072 E21.42071
G1 X79.231 Y113.616 E21.44494
G1 X79.231 Y114.434 E21.47869
G1 X79.635 Y115.208 E21.51472
G1 X80.354 Y115.702 E21.55072
G1 X81.218 Y115.81 E21.58665
M204 S3000
G0 F4200 X81.169 Y115.404
M204 S500
G1 F1080 X81.803 Y115.162 E21.61465
G1 X82.252 Y114.657 E21.64253
G1 X82.413 Y114 E21.67044
G1 X82.252 Y113.343 E21.69836
G1 X81.803 Y112.838 E21.72624
G1 X81.17 Y112.596 E21.7542
G1 X80.54 Y112.674 E21.7804
G1 X80.189 Y112.857 E21.79673
G1 X79.793 Y113.288 E21.82088
G1 X79.628 Y113.694 E21.83897
G1 X79.628 Y114.337 E21.8655
G1 X79.941 Y114.937 E21.89342
G1 X80.499 Y115.32 E21.92135
G1 X81.169 Y115.404 E21.94921
M204 S3000
G0 F4200 X81.121 Y115.004
M204 S500
;TYPE:WALL-OUTER
G1 F1080 X81.574 Y114.831 E21.96922
G1 X81.895 Y114.47 E21.98915
G1 X82.01 Y114 E22.00912
G1 X81.895 Y113.53 E22.02909
G1 X81.574 Y113.169 E22.04902
G1 X81.121 Y112.996 E22.06903
G1 X80.658 Y113.053 E22.08828
G1 X80.431 Y113.172 E22.09885
G1 X80.129 Y113.501 E22.11728
G1 X80.019 Y113.771 E22.12931
G1 X80.019 Y114.241 E22.14871
G1 X80.243 Y114.67 E22.16868
G1 X80.642 Y114.944 E22.18865
G1 X81.121 Y115.004 E22.20857
M204 S3000
G0 F4200 X81.308 Y114.933
G0 X81.462 Y115.341
G1 F3000 E17.20857
G0 F4200 X128.354 Y115.702
M204 S500
;TYPE:WALL-INNER
G1 F3000 E22.27093
G1 F1080 X129.218 Y115.81 E22.30686
G1 X130.035 Y115.498 E22.34295
G1 X130.614 Y114.847 E22.3789
G1 X130.822 Y114 E22.41488
G1 X130.614 Y113.153 E22.45087
G1 X130.035 Y112.502 E22.48682
G1 X129.219 Y112.19 E22.52287
G1 X128.42 Y112.289 E22.55609
G1 X127.944 Y112.537 E22.57824
G1 X127.452 Y113.072 E22.60823
G1 X127.231 Y113.616 E22.63246
G1 X127.231 Y114.434 E22.66621
G1 X127.635 Y115.208 E22.70224
G1 X128.354 Y115.702 E22.73824
M204 S3000
G0 F4200 X128.499 Y115.32
M204 S500
G1 F1080 X129.169 Y115.404 E22.7661
G1 X129.803 Y115.162 E22.7941
G1 X130.252 Y114.657 E22.82198
G1 X130.413 Y114 E22.8499
G1 X130.252 Y113.343 E22.87781
G1 X129.803 Y112.838 E22.90569
G1 X129.17 Y112.596 E22.93366
G1 X128.54 Y112.674 E22.95985
G1 X128.189 Y112.857 E22.97618
G1 X127.793 Y113.288 E23.00034
G1 X127.628 Y113.694 E23.01842
G1 X127.628 Y114.337 E23.04495
G1 X127.941 Y114.937 E23.07288
G1 X128.499 Y115.32 E23.1008
M204 S3000
G0 F4200 X128.642 Y114.944
M204 S500
;TYPE:WALL-OUTER
G1 F1080 X129.121 Y115.004 E23.12072
G1 X129.574 Y114.831 E23.14073
G1 X129.895 Y114.47 E23.16066
G1 X130.01 Y114 E23.18063
G1 X129.895 Y113.53 E23.2006
G1 X129.574 Y113.169 E23.22053
G1 X129.121 Y112.996 E23.24054
G1 X128.658 Y113.053 E23.25979
G1 X128.431 Y113.172 E23.27036
G1 X128.129 Y113.501 E23.28879
G1 X128.019 Y113.771 E23.30082
G1 X128.019 Y114.241 E23.32022
G1 X128.243 Y114.67 E23.34019
G1 X128.642 Y114.944 E23.36016
M204 S3000
G0 F4200 X128.84 Y114.968
G0 X128.785 Y115.401
G1 F3000 E18.36016
G0 F4200 X128.354 Y97.702
M204 S500
;TYPE:WALL-INNER
G1 F3000 E23.42252
G1 F1080 X129.218 Y97.81 E23.45845
G1 X130.035 Y97.498 E23.49454
G1 X130.614 Y96.847 E23.53049
G1 X130.822 Y96 E23.56647
G1 X130.614 Y95.153 E23.60246
G1 X130.035 Y94.502 E23.63841
G1 X129.219 Y94.19 E23.67446
G1 X128.42 Y94.289 E23.70768
G1 X127.944 Y94.537 E23.72983
G1 X127.452 Y95.072 E23.75982
G1 X127.231 Y95.616 E23.78405
G1 X127.231 Y96.434 E23.8178
G1 X127.635 Y97.208 E23.85383
G1 X128.354 Y97.702 E23.88983
M204 S3000
G0 F4200 X128.499 Y97.32
M204 S500
G1 F1080 X129.169 Y97.404 E23.91769
G1 X129.803 Y97.162 E23.94569
G1 X130.252 Y96.657 E23.97358
G1 X130.413 Y96 E24.00149
G1 X130.252 Y95.343 E24.0294
G1 X129.803 Y94.838 E24.05728
G1 X129.17 Y94.596 E24.08525
G1 X128.54 Y94.674 E24.11144
G1 X128.189 Y94.857 E24.12777
G1 X127.793 Y95.288 E24.15193
G1 X127.628 Y95.694 E24.17001
G1 X127.628 Y96.337 E24.19654
G1 X127.941 Y96.937 E24.22447
G1 X128.499 Y97.32 E24.25239
M204 S3000
G0 F4200 X128.642 Y96.944
M204 S500
;TYPE:WALL-OUTER
G1 F1080 X129.121 Y97.004 E24.27231
G1 X129.574 Y96.831 E24.29232
G1 X129.895 Y96.47 E24.31225
G1 X130.01 Y96 E24.33222
G1 X129.895 Y95.53 E24.35219
G1 X129.574 Y95.169 E24.37212
G1 X129.121 Y94.996 E24.39213
G1 X128.658 Y95.053 E24.41138
G1 X128.431 Y95.172 E24.42195
G1 X128.129 Y95.501 E24.44038
G1 X128.019 Y95.771 E24.45241
G1 X128.019 Y96.241 E24.47181
G1 X128.243 Y96.67 E24.49178
G1 X128.642 Y96.944 E24.51175
M204 S3000
G0 F4200 X128.84 Y96.968
G0 X128.785 Y97.401
G1 F3000 E19.51175
G0 F4200 X110.951 Y105.015
M204 S500
;TYPE:WALL-INNER
G1 F3000 E24.57411
G1 F1080 X110.892 Y105.509 E24.59464
G1 X110.841 Y105.925 E24.61193
G1 X110.837 Y105.954 E24.61314
G1 X111.07 Y105.954 E24.61927
G1 X111.075 Y105.988 E24.62069
G1 X111.415 Y106.881 E24.66012
G1 X111.969 Y107.684 E24.70037
G1 X112.005 Y107.715 E24.70233
G1 X112.7 Y108.331 E24.74066
G1 X113.563 Y108.785 E24.78089
G1 X114.511 Y109.019 E24.82118
G1 X115.489 Y109.019 E24.86154
G1 X116.437 Y108.785 E24.90183
G1 X117.3 Y108.331 E24.94207
G1 X118.031 Y107.684 E24.98235
G1 X118.585 Y106.881 E25.02261
G1 X118.932 Y105.969 E25.06287
G1 X118.937 Y105.92 E25.0649
G1 X119.03 Y105.147 E25.09703
G1 X119.054 Y105.011 E25.10273
G1 X119.049 Y104.982 E25.10394
G1 X119.108 Y104.491 E25.12435
G1 X119.159 Y104.075 E25.14164
G1 X119.163 Y104.046 E25.14285
G1 X118.93 Y104.046 E25.14898
G1 X118.925 Y104.012 E25.1504
G1 X118.585 Y103.119 E25.18983
G1 X118.031 Y102.316 E25.23008
G1 X117.995 Y102.285 E25.23204
G1 X117.3 Y101.669 E25.27036
G1 X116.437 Y101.215 E25.3106
G1 X115.489 Y100.981 E25.35089
G1 X114.511 Y100.981 E25.39125
G1 X113.563 Y101.215 E25.43154
G1 X112.7 Y101.669 E25.47178
G1 X111.969 Y102.316 E25.51206
G1 X111.415 Y103.119 E25.55231
G1 X111.086 Y103.986 E25.59058
G1 X111.068 Y104.032 E25.59262
G1 X111.063 Y104.08 E25.59461
G1 X110.972 Y104.839 E25.62615
G1 X110.947 Y104.995 E25.63267
G1 X110.951 Y105.015 E25.63351
M204 S3000
G0 F4200 X111.35 Y104.99
M204 S500
G1 F1080 X111.352 Y105.001 E25.63397
G1 X111.287 Y105.541 E25.65641
G1 X111.285 Y105.557 E25.65708
G1 X111.418 Y105.557 E25.66024
G1 X111.444 Y105.776 E25.66934
G1 X111.461 Y105.886 E25.67394
G1 X111.769 Y106.695 E25.70966
G1 X112.268 Y107.419 E25.74594
G1 X112.927 Y108.002 E25.78225
G1 X113.705 Y108.411 E25.81851
G1 X114.559 Y108.622 E25.85481
G1 X115.441 Y108.622 E25.89121
G1 X116.295 Y108.411 E25.92751
G1 X117.073 Y108.002 E25.96377
G1 X117.732 Y107.419 E26.00008
G1 X118.231 Y106.695 E26.03636
G1 X118.544 Y105.873 E26.07266
G1 X118.636 Y105.1 E26.10478
G1 X118.651 Y105.011 E26.1085
G1 X118.648 Y104.993 E26.10926
G1 X118.713 Y104.459 E26.13145
G1 X118.715 Y104.443 E26.13212
G1 X118.582 Y104.443 E26.13528
G1 X118.556 Y104.224 E26.14438
G1 X118.539 Y104.114 E26.14898
G1 X118.231 Y103.305 E26.1847
G1 X117.732 Y102.581 E26.22098
G1 X117.073 Y101.998 E26.25729
G1 X116.295 Y101.589 E26.29355
G1 X115.441 Y101.378 E26.32985
G1 X114.559 Y101.378 E26.36625
G1 X113.705 Y101.589 E26.40255
G1 X112.927 Y101.998 E26.43881
G1 X112.268 Y102.581 E26.47512
G1 X111.769 Y103.305 E26.5114
G1 X111.456 Y104.127 E26.5477
G1 X111.364 Y104.901 E26.57986
G1 X111.35 Y104.99 E26.58358
