;FLAVOR:Marlin
;TIME:2029
;Filament used: 1.75219m
;Layer height: 0.2
;MINX:61.454
;MINY:85.954
;MINZ:0.25
;MAXX:148.546
;MAXY:125.3
;MAXZ:12.85
;Generated with Cura_SteamEngine 4.7.1
M140 S60
M105
M190 S60
M104 S200
M105
M109 S200
M82 ;absolute extrusion mode
; Script based on an original created by tjjfvi (https://github.com/tjjfvi)
; An up-to-date version of the tjjfvi's original script can be found
; here:  https://csi.t6.fyi/
; Note - This script will only work in Cura V4.2 and above!
; --- Global Settings
; layer_height = 0.2
; smooth_spiralized_contours = True
; magic_mesh_surface_mode = normal
; machine_extruder_count = 1
; --- Single Extruder Settings
; speed_z_hop = 10
; retraction_amount = 5
; retraction_hop = 0.075
; retraction_hop_enabled = True
; retraction_enable = True
; retraction_speed = 50
; retraction_retract_speed = 50
; retraction_prime_speed = 50
; speed_travel = 120

G21 ;metric values
G90 ;absolute positioning
M82 ;set extruder to absolute mode
M107 ;start with the fan off
G28 X0 Y0 ;move X/Y to min endstops
G28 Z0 ;move Z to min endstops
G1 Z15.0 F120 ;move the platform down 15mm
G92 E0 ;zero the extruded length
G1 F200 E3 ;extrude 3mm of feed stock
G92 E0 ;zero the extruded length again
G1 F120
G0 Y20 F120
M117 Printing...
G5
G92 E0
G92 E0
G1 F3000 E-5
;LAYER_COUNT:64
;LAYER:0
M106 S51
M204 S3000
M205 X10 Y10
G1 F600 Z0.325
G0 F4200 X86.314 Y87.199 Z0.325
M204 S500
;TYPE:SKIRT
G1 F600 Z0.25
G1 F3000 E0.06236
G1 F1800 X86.697 Y86.824 E0.08448
G1 X87.131 Y86.509 E0.10661
G1 X87.608 Y86.263 E0.12875
G1 X88.115 Y86.091 E0.15085
G1 X88.642 Y85.995 E0.17295
G1 X88.941 Y85.977 E0.18531
G1 X90.074 Y85.954 E0.23207
G1 X144.295 Y85.954 E2.46941
G1 X144.993 Y85.964 E2.49822
G1 X145.526 Y86.012 E2.5203
G1 X146.047 Y86.138 E2.54242
G1 X146.544 Y86.341 E2.56457
G1 X147.004 Y86.615 E2.58666
G1 X147.419 Y86.954 E2.60877
G1 X147.779 Y87.351 E2.63089
G1 X148.076 Y87.798 E2.65303
G1 X148.303 Y88.283 E2.67513
G1 X148.455 Y88.797 E2.69725
G1 X148.536 Y89.458 E2.72473
G1 X148.546 Y89.876 E2.74198
G1 X148.546 Y119.759 E3.97505
G1 X148.537 Y120.486 E4.00505
G1 X148.49 Y121.019 E4.02713
G1 X148.365 Y121.541 E4.04928
G1 X148.163 Y122.037 E4.07138
G1 X147.89 Y122.498 E4.09349
G1 X147.552 Y122.914 E4.1156
G1 X147.155 Y123.275 E4.13774
G1 X146.709 Y123.572 E4.15985
G1 X146.224 Y123.8 E4.18197
G1 X145.711 Y123.954 E4.20407
G1 X145.042 Y124.036 E4.23188
G1 X144.62 Y124.046 E4.2493
G1 X118.076 Y124.046 E5.34459
G1 X115.295 Y124.085 E5.45936
G1 X112.565 Y124.201 E5.57211
G1 X109.841 Y124.394 E5.68479
G1 X107.161 Y124.66 E5.79592
G1 X104.446 Y125.007 E5.90886
G1 X104.053 Y125.069 E5.92528
G1 X102.749 Y125.255 E5.97963
G1 X102.023 Y125.299 E6.00964
G1 X98.4 Y125.3 E6.15914
G1 X97.682 Y125.289 E6.18877
G1 X97.331 Y125.266 E6.20329
G1 X94.564 Y124.952 E6.3182
G1 X91.841 Y124.72 E6.43096
G1 X89.152 Y124.567 E6.5421
G1 X86.385 Y124.489 E6.65632
G1 X83.69 Y124.489 E6.76752
G1 X80.923 Y124.567 E6.88175
G1 X78.231 Y124.72 E6.99301
G1 X75.484 Y124.953 E7.10676
G1 X74.055 Y125.107 E7.16607
G1 X72.65 Y125.268 E7.22442
G1 X72.023 Y125.299 E7.25033
G1 X68.404 Y125.3 E7.39966
G1 X67.698 Y125.29 E7.4288
G1 X67.164 Y125.242 E7.45092
G1 X66.643 Y125.116 E7.47304
G1 X66.22 Y124.949 E7.4918
G1 X65.145 Y124.444 E7.54081
G1 X64.519 Y124.161 E7.56916
G1 X63.533 Y123.699 E7.61409
G1 X63.066 Y123.436 E7.63621
G1 X62.643 Y123.107 E7.65832
G1 X62.274 Y122.718 E7.68044
G1 X61.967 Y122.279 E7.70255
G1 X61.728 Y121.799 E7.72467
G1 X61.564 Y121.289 E7.74678
G1 X61.464 Y120.541 E7.77792
G1 X61.454 Y120.114 E7.79554
G1 X61.454 Y118.175 E7.87555
G1 X61.464 Y117.473 E7.90452
G1 X61.512 Y116.939 E7.92664
G1 X61.638 Y116.418 E7.94876
G1 X61.841 Y115.922 E7.97088
G1 X62.115 Y115.461 E7.99301
G1 X62.296 Y115.224 E8.00531
G1 X62.806 Y114.612 E8.03818
G1 X85.837 Y87.742 E9.49848
G1 X86.314 Y87.199 E9.5283
M204 S3000
G0 F4200 X86.613 Y87.461
M204 S500
G1 F1800 X86.975 Y87.109 E9.54914
G1 X87.389 Y86.818 E9.57002
G1 X87.843 Y86.596 E9.59087
G1 X88.326 Y86.448 E9.61171
G1 X88.949 Y86.374 E9.6376
G1 X90.074 Y86.351 E9.68403
G1 X144.289 Y86.351 E11.92113
G1 X144.987 Y86.361 E11.94993
G1 X145.49 Y86.408 E11.97078
G1 X145.98 Y86.534 E11.99165
G1 X146.443 Y86.736 E12.0125
G1 X146.869 Y87.008 E12.03335
G1 X147.247 Y87.343 E12.05419
G1 X147.568 Y87.734 E12.07507
G1 X147.823 Y88.171 E12.09595
G1 X148.005 Y88.642 E12.11678
G1 X148.112 Y89.136 E12.13764
G1 X148.148 Y89.785 E12.16446
G1 X148.149 Y119.754 E13.40108
G1 X148.14 Y120.481 E13.43108
G1 X148.094 Y120.984 E13.45192
G1 X147.969 Y121.474 E13.47279
G1 X147.768 Y121.938 E13.49366
G1 X147.497 Y122.364 E13.51449
G1 X147.162 Y122.743 E13.53536
G1 X146.772 Y123.064 E13.5562
G1 X146.336 Y123.32 E13.57707
G1 X145.865 Y123.504 E13.59793
G1 X145.371 Y123.611 E13.61879
G1 X144.71 Y123.648 E13.64611
G1 X118.07 Y123.649 E14.74536
G1 X115.273 Y123.689 E14.86079
G1 X112.556 Y123.804 E14.973
G1 X109.806 Y123.999 E15.08676
G1 X107.107 Y124.266 E15.19867
G1 X104.403 Y124.612 E15.31116
G1 X103.997 Y124.676 E15.32812
G1 X102.693 Y124.862 E15.38247
G1 X102.012 Y124.902 E15.41062
G1 X98.406 Y124.903 E15.55942
G1 X97.688 Y124.892 E15.58905
G1 X97.376 Y124.872 E15.60195
G1 X94.572 Y124.553 E15.7184
G1 X91.899 Y124.326 E15.82909
G1 X89.148 Y124.17 E15.94279
G1 X86.397 Y124.092 E16.05635
G1 X83.678 Y124.092 E16.16854
G1 X80.927 Y124.17 E16.28211
G1 X78.208 Y124.324 E16.39448
G1 X75.456 Y124.557 E16.50844
G1 X73.988 Y124.715 E16.56937
G1 X72.605 Y124.873 E16.62681
G1 X72.012 Y124.902 E16.6513
G1 X68.41 Y124.903 E16.79994
G1 X67.704 Y124.893 E16.82907
G1 X67.2 Y124.846 E16.84996
G1 X66.711 Y124.72 E16.87079
G1 X66.389 Y124.589 E16.88514
G1 X65.358 Y124.105 E16.93214
G1 X64.688 Y123.802 E16.96248
G1 X63.702 Y123.34 E17.00741
G1 X63.262 Y123.09 E17.02829
G1 X62.868 Y122.774 E17.04913
G1 X62.528 Y122.399 E17.07002
G1 X62.251 Y121.976 E17.09088
G1 X62.045 Y121.515 E17.11172
G1 X61.914 Y121.027 E17.13257
G1 X61.852 Y120.201 E17.16675
G1 X61.851 Y118.18 E17.25014
G1 X61.861 Y117.478 E17.27911
G1 X61.908 Y116.975 E17.29995
G1 X62.034 Y116.486 E17.32079
G1 X62.236 Y116.022 E17.34167
G1 X62.601 Y115.478 E17.3687
G1 X63.107 Y114.87 E17.40134
G1 X86.136 Y88.004 E18.86146
G1 X86.613 Y87.461 E18.89128
M204 S3000
G1 F3000 E13.89128
G0 F4200 X102.054 Y121.506
M204 S500
;TYPE:SUPPORT
G1 F3000 E18.95365
G1 F1080 X97.946 Y121.506 E19.12316
G1 X97.946 Y121.343 E19.12988
G1 X102.054 Y121.343 E19.29939
G1 X102.054 Y121.506 E19.30612
M204 S3000
G1 F3000 E14.30612
G0 F4200 X69.188 Y121.506
M204 S500
G1 F3000 E19.36848
G1 F1080 X67.946 Y121.506 E19.41973
G1 X67.946 Y121.343 E19.42645
G1 X69.351 Y121.343 E19.48443
G1 X69.188 Y121.506 E19.49394
M204 S3000
G1 F3000 E14.49394
;MESH:TestStand.stl
G0 F4200 X93.287 Y95.526
M204 S500
;TYPE:WALL-INNER
G1 F3000 E19.5563
G1 F1080 X93.764 Y95.4 E19.57666
G1 X94.199 Y95.16 E19.59716
G1 X94.56 Y94.823 E19.61754
G1 X94.831 Y94.413 E19.63782
G1 X94.995 Y93.95 E19.65809
G1 X95.046 Y93.461 E19.67838
G1 X94.979 Y92.971 E19.69878
G1 X94.792 Y92.51 E19.71931
G1 X94.505 Y92.112 E19.73956
G1 X94.128 Y91.793 E19.75994
G1 X93.688 Y91.572 E19.78025
G1 X93.207 Y91.464 E19.80059
G1 X92.713 Y91.474 E19.82098
G1 X92.236 Y91.6 E19.84134
G1 X91.801 Y91.84 E19.86184
G1 X91.44 Y92.177 E19.88222
G1 X91.169 Y92.587 E19.9025
G1 X91.005 Y93.05 E19.92277
G1 X90.954 Y93.539 E19.94305
G1 X91.021 Y94.029 E19.96346
G1 X91.208 Y94.49 E19.98399
G1 X91.49 Y94.879 E20.00381
G1 X91.844 Y95.193 E20.02334
G1 X92.312 Y95.428 E20.04495
G1 X92.793 Y95.536 E20.06529
G1 X93.287 Y95.526 E20.08568
M204 S3000
G0 F4200 X93.232 Y95.13
M204 S500
G1 F1080 X93.615 Y95.029 E20.10202
G1 X93.964 Y94.836 E20.11848
G1 X94.255 Y94.565 E20.13489
G1 X94.473 Y94.235 E20.15121
G1 X94.605 Y93.862 E20.16753
G1 X94.646 Y93.468 E20.18388
G1 X94.592 Y93.074 E20.20029
G1 X94.442 Y92.704 E20.21676
G1 X94.211 Y92.384 E20.23305
G1 X93.908 Y92.127 E20.24944
G1 X93.553 Y91.949 E20.26583
G1 X93.167 Y91.862 E20.28216
G1 X92.768 Y91.87 E20.29863
G1 X92.385 Y91.971 E20.31497
G1 X92.036 Y92.164 E20.33143
G1 X91.745 Y92.435 E20.34783
G1 X91.527 Y92.765 E20.36415
G1 X91.395 Y93.138 E20.38048
G1 X91.354 Y93.532 E20.39683
G1 X91.408 Y93.926 E20.41324
G1 X91.558 Y94.296 E20.42971
G1 X91.786 Y94.611 E20.44576
G1 X92.068 Y94.861 E20.46131
G1 X92.447 Y95.051 E20.4788
G1 X92.833 Y95.138 E20.49513
G1 X93.232 Y95.13 E20.51159
M204 S3000
G0 F4200 X93.177 Y94.74
M204 S500
;TYPE:WALL-OUTER
G1 F1080 X93.468 Y94.663 E20.52402
G1 X93.733 Y94.517 E20.5365
G1 X93.954 Y94.311 E20.54897
G1 X94.12 Y94.059 E20.56142
G1 X94.221 Y93.775 E20.57386
G1 X94.252 Y93.475 E20.5863
G1 X94.211 Y93.176 E20.59875
G1 X94.097 Y92.895 E20.61127
G1 X93.921 Y92.651 E20.62368
G1 X93.691 Y92.455 E20.63615
G1 X93.421 Y92.32 E20.64861
G1 X93.127 Y92.254 E20.66104
G1 X92.823 Y92.26 E20.67359
G1 X92.532 Y92.337 E20.68601
G1 X92.267 Y92.483 E20.69849
G1 X92.046 Y92.689 E20.71096
G1 X91.88 Y92.941 E20.72341
G1 X91.779 Y93.225 E20.73585
G1 X91.748 Y93.525 E20.74829
G1 X91.789 Y93.824 E20.76075
G1 X91.903 Y94.105 E20.77326
G1 X92.078 Y94.347 E20.78558
G1 X92.289 Y94.535 E20.79724
G1 X92.579 Y94.68 E20.81062
G1 X92.873 Y94.746 E20.82306
G1 X93.177 Y94.74 E20.8356
M204 S3000
G0 F4200 X93.37 Y94.689
G0 X93.48 Y95.11
G1 F3000 E15.8356
G0 F4200 X140.312 Y95.428
M204 S500
;TYPE:WALL-INNER
G1 F3000 E20.89796
G1 F1080 X140.793 Y95.536 E20.91831
G1 X141.287 Y95.526 E20.93869
G1 X141.764 Y95.4 E20.95905
G1 X142.199 Y95.16 E20.97955
G1 X142.56 Y94.823 E20.99993
G1 X142.831 Y94.413 E21.02021
G1 X142.995 Y93.95 E21.04048
G1 X143.046 Y93.461 E21.06077
G1 X142.979 Y92.971 E21.08117
G1 X142.792 Y92.51 E21.1017
G1 X142.505 Y92.112 E21.12195
G1 X142.128 Y91.793 E21.14233
G1 X141.688 Y91.572 E21.16264
G1 X141.207 Y91.464 E21.18298
G1 X140.713 Y91.474 E21.20337
G1 X140.236 Y91.6 E21.22373
G1 X139.801 Y91.84 E21.24423
G1 X139.44 Y92.177 E21.26461
G1 X139.169 Y92.587 E21.28489
G1 X139.005 Y93.05 E21.30516
G1 X138.954 Y93.539 E21.32544
G1 X139.021 Y94.029 E21.34585
G1 X139.208 Y94.49 E21.36638
G1 X139.49 Y94.879 E21.3862
G1 X139.844 Y95.193 E21.40573
G1 X140.312 Y95.428 E21.42734
M204 S3000
G0 F4200 X140.447 Y95.051
M204 S500
G1 F1080 X140.833 Y95.138 E21.44367
G1 X141.232 Y95.13 E21.46013
G1 X141.615 Y95.029 E21.47648
G1 X141.964 Y94.836 E21.49293
G1 X142.255 Y94.565 E21.50934
G1 X142.473 Y94.235 E21.52566
G1 X142.605 Y93.862 E21.54199
G1 X142.646 Y93.468 E21.55833
G1 X142.592 Y93.074 E21.57474
G1 X142.442 Y92.704 E21.59122
G1 X142.211 Y92.384 E21.6075
G1 X141.908 Y92.127 E21.6239
G1 X141.553 Y91.949 E21.64029
G1 X141.167 Y91.862 E21.65661
G1 X140.768 Y91.87 E21.67308
G1 X140.385 Y91.971 E21.68942
G1 X140.036 Y92.164 E21.70588
G1 X139.745 Y92.435 E21.72229
G1 X139.527 Y92.765 E21.73861
G1 X139.395 Y93.138 E21.75493
G1 X139.354 Y93.532 E21.77128
G1 X139.408 Y93.926 E21.78769
G1 X139.558 Y94.296 E21.80416
G1 X139.786 Y94.611 E21.82021
G1 X140.068 Y94.861 E21.83576
G1 X140.447 Y95.051 E21.85325
M204 S3000
G0 F4200 X140.579 Y94.68
M204 S500
;TYPE:WALL-OUTER
G1 F1080 X140.873 Y94.746 E21.86569
G1 X141.177 Y94.74 E21.87823
G1 X141.468 Y94.663 E21.89066
G1 X141.733 Y94.517 E21.90314
G1 X141.954 Y94.311 E21.91561
G1 X142.12 Y94.059 E21.92806
G1 X142.221 Y93.775 E21.9405
G1 X142.252 Y93.475 E21.95294
G1 X142.211 Y93.176 E21.96539
G1 X142.097 Y92.895 E21.97791
G1 X141.921 Y92.651 E21.99032
G1 X141.691 Y92.455 E22.00279
G1 X141.421 Y92.32 E22.01525
G1 X141.127 Y92.254 E22.02768
G1 X140.823 Y92.26 E22.04023
G1 X140.532 Y92.337 E22.05265
G1 X140.267 Y92.483 E22.06513
G1 X140.046 Y92.689 E22.0776
G1 X139.88 Y92.941 E22.09005
G1 X139.779 Y93.225 E22.10249
G1 X139.748 Y93.525 E22.11493
G1 X139.789 Y93.824 E22.12739
G1 X139.903 Y94.105 E22.1399
G1 X140.078 Y94.347 E22.15222
G1 X140.289 Y94.535 E22.16388
G1 X140.579 Y94.68 E22.17726
M204 S3000
G0 F4200 X140.774 Y94.723
G0 X140.678 Y95.148
G1 F3000 E17.17726
G0 F4200 X140.312 Y115.428
M204 S500
;TYPE:WALL-INNER
G1 F3000 E22.23962
G1 F1080 X140.793 Y115.536 E22.25997
G1 X141.287 Y115.526 E22.28035
G1 X141.764 Y115.4 E22.30071
G1 X142.199 Y115.16 E22.32121
G1 X142.56 Y114.823 E22.34159
G1 X142.831 Y114.413 E22.36187
G1 X142.995 Y113.95 E22.38214
G1 X143.046 Y113.461 E22.40243
G1 X142.979 Y112.971 E22.42283
G1 X142.792 Y112.51 E22.44336
G1 X142.505 Y112.112 E22.46361
G1 X142.128 Y111.793 E22.48399
G1 X141.688 Y111.572 E22.5043
G1 X141.207 Y111.464 E22.52464
G1 X140.713 Y111.474 E22.54503
G1 X140.236 Y111.6 E22.56539
G1 X139.801 Y111.84 E22.58589
G1 X139.44 Y112.177 E22.60627
G1 X139.169 Y112.587 E22.62655
G1 X139.005 Y113.05 E22.64682
G1 X138.954 Y113.539 E22.6671
G1 X139.021 Y114.029 E22.68751
G1 X139.208 Y114.49 E22.70804
G1 X139.49 Y114.879 E22.72786
G1 X139.844 Y115.193 E22.74739
G1 X140.312 Y115.428 E22.769
M204 S3000
G0 F4200 X140.447 Y115.051
M204 S500
G1 F1080 X140.833 Y115.138 E22.78533
G1 X141.232 Y115.13 E22.80179
G1 X141.615 Y115.029 E22.81814
G1 X141.964 Y114.836 E22.83459
G1 X142.255 Y114.565 E22.851
G1 X142.473 Y114.235 E22.86732
G1 X142.605 Y113.862 E22.88365
G1 X142.646 Y113.468 E22.89999
G1 X142.592 Y113.074 E22.9164
G1 X142.442 Y112.704 E22.93288
G1 X142.211 Y112.384 E22.94916
G1 X141.908 Y112.127 E22.96556
G1 X141.553 Y111.949 E22.98194
G1 X141.167 Y111.862 E22.99827
G1 X140.768 Y111.87 E23.01474
G1 X140.385 Y111.971 E23.03108
G1 X140.036 Y112.164 E23.04754
G1 X139.745 Y112.435 E23.06395
G1 X139.527 Y112.765 E23.08027
G1 X139.395 Y113.138 E23.09659
G1 X139.354 Y113.532 E23.11294
G1 X139.408 Y113.926 E23.12935
G1 X139.558 Y114.296 E23.14582
G1 X139.786 Y114.611 E23.16187
G1 X140.068 Y114.861 E23.17742
G1 X140.447 Y115.051 E23.19491
M204 S3000
G0 F4200 X140.579 Y114.68
M204 S500
;TYPE:WALL-OUTER
G1 F1080 X140.873 Y114.746 E23.20735
G1 X141.177 Y114.74 E23.21989
G1 X141.468 Y114.663 E23.23231
G1 X141.733 Y114.517 E23.2448
G1 X141.954 Y114.311 E23.25727
G1 X142.12 Y114.059 E23.26972
G1 X142.221 Y113.775 E23.28216
G1 X142.252 Y113.475 E23.2946
G1 X142.211 Y113.176 E23.30705
G1 X142.097 Y112.895 E23.31957
G1 X141.921 Y112.651 E23.33198
G1 X141.691 Y112.455 E23.34445
G1 X141.421 Y112.32 E23.35691
G1 X141.127 Y112.254 E23.36934
G1 X140.823 Y112.26 E23.38189
G1 X140.532 Y112.337 E23.39431
G1 X140.267 Y112.483 E23.40679
G1 X140.046 Y112.689 E23.41926
G1 X139.88 Y112.941 E23.43171
G1 X139.779 Y113.225 E23.44415
G1 X139.748 Y113.525 E23.45659
G1 X139.789 Y113.824 E23.46905
G1 X139.903 Y114.105 E23.48156
G1 X140.078 Y114.347 E23.49388
G1 X140.289 Y114.535 E23.50554
G1 X140.579 Y114.68 E23.51892
M204 S3000
G0 F4200 X140.774 Y114.723
G0 X140.678 Y115.148
G1 F3000 E18.51892
G0 F4200 X116.623 Y116.541
M204 S500
;TYPE:WALL-INNER
G1 F3000 E23.58128
G1 F1080 X138.041 Y116.541 E24.46506
G1 X138.041 Y91.776 E25.48695
G1 X137.782 Y91.681 E25.49833
G1 X136.941 Y91.37 E25.53533
G1 X136.681 Y91.273 E25.54678
G1 X116.059 Y115.332 E26.85432
G1 X116.623 Y116.541 E26.90937
M204 S3000
G0 F4200 X116.876 Y116.144
M204 S500
G1 F1080 X137.644 Y116.144 E27.76632
G1 X137.644 Y92.052 E28.76044
G1 X136.803 Y91.741 E28.79744
G1 X116.527 Y115.396 E30.08303
G1 X116.876 Y116.144 E30.11709
M204 S3000
G0 F4200 X117.125 Y115.753
M204 S500
;TYPE:WALL-OUTER
G1 F1080 X117.204 Y115.753 E30.12035
G1 X137.253 Y115.753 E30.94764
G1 X137.253 Y92.386 E31.91184
G1 X137.253 Y92.324 E31.9144
G1 X136.923 Y92.202 E31.92891
G1 X136.883 Y92.249 E31.93146
G1 X117.039 Y115.4 E33.18966
G1 X116.988 Y115.459 E33.19287
G1 X117.125 Y115.753 E33.20626
M204 S3000
G0 F4200 X117.204 Y115.753
G0 X117.325 Y115.753
G0 X117.325 Y116.189
G1 F3000 E28.20626
G0 F4200 X97.059 Y116.63
M204 S500
;TYPE:WALL-INNER
G1 F3000 E33.26862
G1 F1080 X97.319 Y116.727 E33.28007
G1 X117.941 Y92.668 E34.58761
G1 X117.377 Y91.459 E34.64266
G1 X95.959 Y91.459 E35.52643
G1 X95.959 Y116.224 E36.54832
G1 X96.218 Y116.319 E36.5597
G1 X97.059 Y116.63 E36.5967
M204 S3000
G0 F4200 X97.197 Y116.259
M204 S500
G1 F1080 X117.473 Y92.604 E37.88229
G1 X117.124 Y91.856 E37.91635
G1 X96.356 Y91.856 E38.77331
G1 X96.356 Y115.948 E39.76742
G1 X97.197 Y116.259 E39.80442
M204 S3000
G0 F4200 X97.077 Y115.798
M204 S500
;TYPE:WALL-OUTER
G1 F1080 X97.117 Y115.751 E39.80697
G1 X116.961 Y92.6 E41.06517
