;FLAVOR:Marlin
;TIME:2637
;Filament used: 2.97593m
;Layer height: 0.3
;MINX:61.454
;MINY:85.954
;MINZ:0.25
;MAXX:148.546
;MAXY:160.046
;MAXZ:12.85
;Generated with Cura_SteamEngine 4.7.1
M140 S60
M105
M190 S60
M104 S200
M105
M109 S200
M82 ;absolute extrusion mode
; Script based on an original created by tjjfvi (https://github.com/tjjfvi)
; An up-to-date version of the tjjfvi's original script can be found
; here:  https://csi.t6.fyi/
; Note - This script will only work in Cura V4.2 and above!
; --- Global Settings
; layer_height = 0.3
; smooth_spiralized_contours = True
; magic_mesh_surface_mode = normal
; machine_extruder_count = 1
; --- Single Extruder Settings
; speed_z_hop = 10
; retraction_amount = 5
; retraction_hop = 0.075
; retraction_hop_enabled = True
; retraction_enable = True
; retraction_speed = 50
; retraction_retract_speed = 50
; retraction_prime_speed = 50
; speed_travel = 120

G21 ;metric values
G90 ;absolute positioning
M82 ;set extruder to absolute mode
M107 ;start with the fan off
G28 X0 Y0 ;move X/Y to min endstops
G28 Z0 ;move Z to min endstops
G1 Z15.0 F120 ;move the platform down 15mm
G92 E0 ;zero the extruded length
G1 F200 E3 ;extrude 3mm of feed stock
G92 E0 ;zero the extruded length again
G1 F120
G0 Y20 F120
M117 Printing...
G5
G92 E0
G92 E0
G1 F3000 E-5
;LAYER_COUNT:43
;LAYER:0
M106 S51
M204 S3000
M205 X10 Y10
G1 F600 Z0.325
G0 F4200 X86.314 Y87.199 Z0.325
M204 S500
;TYPE:SKIRT
G1 F600 Z0.25
G1 F3000 E0.06236
G1 F1800 X86.697 Y86.824 E0.08448
G1 X87.131 Y86.509 E0.10661
G1 X87.608 Y86.263 E0.12875
G1 X88.115 Y86.091 E0.15085
G1 X88.642 Y85.995 E0.17295
G1 X88.941 Y85.977 E0.18531
G1 X90.074 Y85.954 E0.23207
G1 X144.295 Y85.954 E2.46941
G1 X144.993 Y85.964 E2.49822
G1 X145.526 Y86.012 E2.5203
G1 X146.047 Y86.138 E2.54242
G1 X146.544 Y86.341 E2.56457
G1 X147.004 Y86.615 E2.58666
G1 X147.419 Y86.954 E2.60877
G1 X147.779 Y87.351 E2.63089
G1 X148.076 Y87.798 E2.65303
G1 X148.303 Y88.283 E2.67513
G1 X148.455 Y88.797 E2.69725
G1 X148.536 Y89.458 E2.72473
G1 X148.546 Y89.876 E2.74198
G1 X148.546 Y119.775 E3.97571
G1 X148.518 Y121.751 E4.05726
G1 X148.518 Y124.501 E4.17073
G1 X148.546 Y125.863 E4.22694
G1 X148.546 Y155.759 E5.46055
G1 X148.537 Y156.486 E5.49055
G1 X148.49 Y157.019 E5.51263
G1 X148.365 Y157.541 E5.53478
G1 X148.163 Y158.037 E5.55688
G1 X147.89 Y158.498 E5.57899
G1 X147.552 Y158.914 E5.6011
G1 X147.155 Y159.275 E5.62325
G1 X146.709 Y159.572 E5.64536
G1 X146.224 Y159.8 E5.66747
G1 X145.711 Y159.954 E5.68957
G1 X145.042 Y160.036 E5.71738
G1 X144.62 Y160.046 E5.7348
G1 X89.678 Y160.046 E8.00189
G1 X88.991 Y160.036 E8.03024
G1 X88.457 Y159.988 E8.05237
G1 X87.936 Y159.861 E8.07449
G1 X87.44 Y159.659 E8.09659
G1 X86.979 Y159.385 E8.11872
G1 X86.564 Y159.045 E8.14086
G1 X86.361 Y158.835 E8.15291
G1 X85.613 Y157.996 E8.19929
G1 X62.781 Y131.359 E9.64694
G1 X62.299 Y130.781 E9.678
G1 X61.988 Y130.345 E9.7001
G1 X61.744 Y129.867 E9.72224
G1 X61.575 Y129.359 E9.74433
G1 X61.482 Y128.831 E9.76645
G1 X61.465 Y128.532 E9.77881
G1 X61.454 Y127.803 E9.8089
G1 X61.454 Y126.218 E9.8743
G1 X61.482 Y124.249 E9.95555
G1 X61.482 Y121.499 E10.06903
G1 X61.454 Y120.137 E10.12524
G1 X61.454 Y118.175 E10.2062
G1 X61.464 Y117.473 E10.23517
G1 X61.512 Y116.939 E10.25729
G1 X61.638 Y116.418 E10.27941
G1 X61.841 Y115.922 E10.30153
G1 X62.115 Y115.461 E10.32365
G1 X62.296 Y115.224 E10.33596
G1 X62.806 Y114.612 E10.36883
G1 X85.837 Y87.742 E11.82913
G1 X86.314 Y87.199 E11.85895
M204 S3000
G0 F4200 X86.613 Y87.461
M204 S500
G1 F1800 X86.975 Y87.109 E11.87978
G1 X87.389 Y86.818 E11.90066
G1 X87.843 Y86.596 E11.92152
G1 X88.326 Y86.448 E11.94236
G1 X88.949 Y86.374 E11.96825
G1 X90.074 Y86.351 E12.01468
G1 X144.289 Y86.351 E14.25177
G1 X144.987 Y86.361 E14.28058
G1 X145.49 Y86.408 E14.30143
G1 X145.98 Y86.534 E14.3223
G1 X146.443 Y86.736 E14.34315
G1 X146.869 Y87.008 E14.364
G1 X147.247 Y87.343 E14.38484
G1 X147.568 Y87.734 E14.40572
G1 X147.823 Y88.171 E14.4266
G1 X148.005 Y88.642 E14.44743
G1 X148.112 Y89.136 E14.46829
G1 X148.148 Y89.785 E14.49511
G1 X148.149 Y119.769 E15.73235
G1 X148.121 Y121.745 E15.81389
G1 X148.121 Y124.528 E15.92873
G1 X148.149 Y125.863 E15.98383
G1 X148.149 Y155.754 E17.21723
G1 X148.14 Y156.481 E17.24723
G1 X148.094 Y156.984 E17.26807
G1 X147.969 Y157.474 E17.28894
G1 X147.768 Y157.938 E17.30981
G1 X147.497 Y158.364 E17.33064
G1 X147.162 Y158.743 E17.35151
G1 X146.772 Y159.064 E17.37235
G1 X146.336 Y159.32 E17.39322
G1 X145.865 Y159.504 E17.41408
G1 X145.371 Y159.611 E17.43494
G1 X144.71 Y159.648 E17.46226
G1 X89.683 Y159.649 E19.73286
G1 X88.996 Y159.639 E19.76121
G1 X88.493 Y159.591 E19.78206
G1 X88.004 Y159.465 E19.80289
G1 X87.54 Y159.264 E19.82376
G1 X87.114 Y158.992 E19.84462
G1 X86.657 Y158.571 E19.87025
G1 X85.914 Y157.738 E19.91631
G1 X63.086 Y131.105 E21.36373
G1 X62.604 Y130.527 E21.39479
G1 X62.312 Y130.114 E21.41566
G1 X62.089 Y129.661 E21.43649
G1 X61.939 Y129.178 E21.45736
G1 X61.862 Y128.526 E21.48445
G1 X61.851 Y127.797 E21.51454
G1 X61.851 Y126.224 E21.57944
G1 X61.879 Y124.255 E21.6607
G1 X61.879 Y121.472 E21.77553
G1 X61.851 Y120.137 E21.83063
G1 X61.851 Y118.18 E21.91139
G1 X61.861 Y117.478 E21.94035
G1 X61.908 Y116.975 E21.9612
G1 X62.034 Y116.486 E21.98204
G1 X62.236 Y116.022 E22.00292
G1 X62.601 Y115.478 E22.02995
G1 X63.107 Y114.87 E22.06259
G1 X86.136 Y88.004 E23.52271
G1 X86.613 Y87.461 E23.55253
M204 S3000
G1 F3000 E18.55253
;MESH:test-stand.stl(1)
G0 F4200 X93.232 Y95.13
M204 S500
;TYPE:WALL-INNER
G1 F3000 E23.61489
G1 F1080 X93.615 Y95.029 E23.63124
G1 X93.964 Y94.836 E23.64769
G1 X94.255 Y94.565 E23.6641
G1 X94.473 Y94.235 E23.68042
G1 X94.605 Y93.862 E23.69675
G1 X94.646 Y93.468 E23.71309
G1 X94.592 Y93.074 E23.7295
G1 X94.442 Y92.704 E23.74598
G1 X94.211 Y92.384 E23.76226
G1 X93.908 Y92.127 E23.77866
G1 X93.553 Y91.949 E23.79504
G1 X93.167 Y91.862 E23.81137
G1 X92.768 Y91.87 E23.82784
G1 X92.385 Y91.971 E23.84418
G1 X92.036 Y92.164 E23.86064
G1 X91.745 Y92.435 E23.87705
G1 X91.527 Y92.765 E23.89337
G1 X91.395 Y93.138 E23.90969
G1 X91.354 Y93.532 E23.92604
G1 X91.408 Y93.926 E23.94245
G1 X91.558 Y94.296 E23.95892
G1 X91.786 Y94.611 E23.97497
G1 X92.068 Y94.861 E23.99052
G1 X92.447 Y95.051 E24.00801
G1 X92.833 Y95.138 E24.02434
G1 X93.232 Y95.13 E24.04081
M204 S3000
G0 F4200 X93.177 Y94.74
M204 S500
;TYPE:WALL-OUTER
G1 F1080 X93.468 Y94.663 E24.05323
G1 X93.733 Y94.517 E24.06571
G1 X93.954 Y94.311 E24.07818
G1 X94.12 Y94.059 E24.09063
G1 X94.221 Y93.775 E24.10307
G1 X94.252 Y93.475 E24.11551
G1 X94.211 Y93.176 E24.12797
G1 X94.097 Y92.895 E24.14048
G1 X93.921 Y92.651 E24.15289
G1 X93.691 Y92.455 E24.16536
G1 X93.421 Y92.32 E24.17782
G1 X93.127 Y92.254 E24.19025
G1 X92.823 Y92.26 E24.2028
G1 X92.532 Y92.337 E24.21522
G1 X92.267 Y92.483 E24.2277
G1 X92.046 Y92.689 E24.24017
G1 X91.88 Y92.941 E24.25262
G1 X91.779 Y93.225 E24.26506
G1 X91.748 Y93.525 E24.27751
G1 X91.789 Y93.824 E24.28996
G1 X91.903 Y94.105 E24.30247
G1 X92.078 Y94.347 E24.31479
G1 X92.289 Y94.535 E24.32646
G1 X92.579 Y94.68 E24.33983
G1 X92.873 Y94.746 E24.35227
G1 X93.177 Y94.74 E24.36481
M204 S3000
G0 F4200 X93.37 Y94.689
G0 X93.48 Y95.11
G1 F3000 E19.36481
G0 F4200 X140.447 Y95.051
M204 S500
;TYPE:WALL-INNER
G1 F3000 E24.42718
G1 F1080 X140.833 Y95.138 E24.4435
G1 X141.232 Y95.13 E24.45997
G1 X141.615 Y95.029 E24.47632
G1 X141.964 Y94.836 E24.49277
G1 X142.255 Y94.565 E24.50918
G1 X142.473 Y94.235 E24.5255
G1 X142.605 Y93.862 E24.54183
G1 X142.646 Y93.468 E24.55817
G1 X142.592 Y93.074 E24.57458
G1 X142.442 Y92.704 E24.59106
G1 X142.211 Y92.384 E24.60734
G1 X141.908 Y92.127 E24.62374
G1 X141.553 Y91.949 E24.64012
G1 X141.167 Y91.862 E24.65645
G1 X140.768 Y91.87 E24.67292
G1 X140.385 Y91.971 E24.68926
G1 X140.036 Y92.164 E24.70572
G1 X139.745 Y92.435 E24.72213
G1 X139.527 Y92.765 E24.73845
G1 X139.395 Y93.138 E24.75477
G1 X139.354 Y93.532 E24.77112
G1 X139.408 Y93.926 E24.78753
G1 X139.558 Y94.296 E24.804
G1 X139.786 Y94.611 E24.82005
G1 X140.068 Y94.861 E24.8356
G1 X140.447 Y95.051 E24.85309
M204 S3000
G0 F4200 X140.579 Y94.68
M204 S500
;TYPE:WALL-OUTER
G1 F1080 X140.873 Y94.746 E24.86553
G1 X141.177 Y94.74 E24.87807
G1 X141.468 Y94.663 E24.89049
G1 X141.733 Y94.517 E24.90298
G1 X141.954 Y94.311 E24.91544
G1 X142.12 Y94.059 E24.9279
G1 X142.221 Y93.775 E24.94033
G1 X142.252 Y93.475 E24.95278
G1 X142.211 Y93.176 E24.96523
G1 X142.097 Y92.895 E24.97774
G1 X141.921 Y92.651 E24.99016
G1 X141.691 Y92.455 E25.00263
G1 X141.421 Y92.32 E25.01508
G1 X141.127 Y92.254 E25.02752
G1 X140.823 Y92.26 E25.04006
G1 X140.532 Y92.337 E25.05248
G1 X140.267 Y92.483 E25.06497
G1 X140.046 Y92.689 E25.07744
G1 X139.88 Y92.941 E25.08989
G1 X139.779 Y93.225 E25.10233
G1 X139.748 Y93.525 E25.11477
G1 X139.789 Y93.824 E25.12722
G1 X139.903 Y94.105 E25.13974
G1 X140.078 Y94.347 E25.15206
G1 X140.289 Y94.535 E25.16372
G1 X140.579 Y94.68 E25.1771
M204 S3000
G0 F4200 X140.774 Y94.723
G0 X140.678 Y95.148
G1 F3000 E20.1771
G0 F4200 X140.447 Y115.051
M204 S500
;TYPE:WALL-INNER
G1 F3000 E25.23946
G1 F1080 X140.833 Y115.138 E25.25579
G1 X141.232 Y115.13 E25.27226
G1 X141.615 Y115.029 E25.2886
G1 X141.964 Y114.836 E25.30506
G1 X142.255 Y114.565 E25.32147
G1 X142.473 Y114.235 E25.33778
G1 X142.605 Y113.862 E25.35411
G1 X142.646 Y113.468 E25.37046
G1 X142.592 Y113.074 E25.38687
G1 X142.442 Y112.704 E25.40334
G1 X142.211 Y112.384 E25.41963
G1 X141.908 Y112.127 E25.43602
G1 X141.553 Y111.949 E25.45241
G1 X141.167 Y111.862 E25.46873
G1 X140.768 Y111.87 E25.4852
G1 X140.385 Y111.971 E25.50155
G1 X140.036 Y112.164 E25.518
G1 X139.745 Y112.435 E25.53441
G1 X139.527 Y112.765 E25.55073
G1 X139.395 Y113.138 E25.56706
G1 X139.354 Y113.532 E25.5834
G1 X139.408 Y113.926 E25.59981
G1 X139.558 Y114.296 E25.61629
G1 X139.786 Y114.611 E25.63233
G1 X140.068 Y114.861 E25.64788
G1 X140.447 Y115.051 E25.66538
M204 S3000
G0 F4200 X140.579 Y114.68
M204 S500
;TYPE:WALL-OUTER
G1 F1080 X140.873 Y114.746 E25.67781
G1 X141.177 Y114.74 E25.69036
G1 X141.468 Y114.663 E25.70278
G1 X141.733 Y114.517 E25.71526
G1 X141.954 Y114.311 E25.72773
G1 X142.12 Y114.059 E25.74018
G1 X142.221 Y113.775 E25.75262
G1 X142.252 Y113.475 E25.76506
G1 X142.211 Y113.176 E25.77752
G1 X142.097 Y112.895 E25.79003
G1 X141.921 Y112.651 E25.80244
G1 X141.691 Y112.455 E25.81491
G1 X141.421 Y112.32 E25.82737
G1 X141.127 Y112.254 E25.8398
G1 X140.823 Y112.26 E25.85235
G1 X140.532 Y112.337 E25.86477
G1 X140.267 Y112.483 E25.87725
G1 X140.046 Y112.689 E25.88972
G1 X139.88 Y112.941 E25.90217
G1 X139.779 Y113.225 E25.91461
G1 X139.748 Y113.525 E25.92705
G1 X139.789 Y113.824 E25.93951
G1 X139.903 Y114.105 E25.95202
G1 X140.078 Y114.347 E25.96434
G1 X140.289 Y114.535 E25.97601
G1 X140.579 Y114.68 E25.98938
M204 S3000
G0 F4200 X140.774 Y114.723
G0 X140.678 Y115.148
G1 F3000 E20.98938
G0 F4200 X116.876 Y116.144
M204 S500
;TYPE:WALL-INNER
G1 F3000 E26.05175
G1 F1080 X137.644 Y116.144 E26.9087
G1 X137.644 Y92.052 E27.90282
G1 X136.803 Y91.741 E27.93982
G1 X116.527 Y115.396 E29.22541
G1 X116.876 Y116.144 E29.25947
M204 S3000
G0 F4200 X117.125 Y115.753
M204 S500
;TYPE:WALL-OUTER
G1 F1080 X117.204 Y115.753 E29.26273
G1 X137.253 Y115.753 E30.09002
G1 X137.253 Y92.386 E31.05422
G1 X137.253 Y92.324 E31.05677
G1 X136.923 Y92.202 E31.07129
G1 X136.883 Y92.249 E31.07384
G1 X117.039 Y115.4 E32.33204
G1 X116.988 Y115.459 E32.33525
G1 X117.125 Y115.753 E32.34864
M204 S3000
G0 F4200 X117.204 Y115.753
G0 X117.325 Y115.753
G0 X117.325 Y116.189
G1 F3000 E27.34864
G0 F4200 X97.197 Y116.259
M204 S500
;TYPE:WALL-INNER
G1 F3000 E32.411
G1 F1080 X117.473 Y92.604 E33.69659
G1 X117.124 Y91.856 E33.73065
G1 X96.356 Y91.856 E34.5876
G1 X96.356 Y115.948 E35.58172
G1 X97.197 Y116.259 E35.61872
M204 S3000
G0 F4200 X97.077 Y115.798
M204 S500
;TYPE:WALL-OUTER
G1 F1080 X97.117 Y115.751 E35.62127
G1 X116.961 Y92.6 E36.87946
G1 X117.012 Y92.541 E36.88268
G1 X116.875 Y92.247 E36.89606
G1 X116.796 Y92.247 E36.89932
G1 X96.747 Y92.247 E37.72661
G1 X96.747 Y115.614 E38.69081
G1 X96.747 Y115.676 E38.69337
G1 X97.077 Y115.798 E38.70789
M204 S3000
G0 F4200 X97.117 Y115.751
G0 X97.207 Y115.646
G0 X97.538 Y115.93
G1 F3000 E33.70789
G0 F4200 X100.541 Y116.144
M204 S500
;TYPE:WALL-INNER
G1 F3000 E38.77025
G1 F1080 X113.63 Y116.144 E39.31035
G1 X133.808 Y92.604 E40.5897
G1 X133.459 Y91.856 E40.62376
G1 X120.37 Y91.856 E41.16386
G1 X100.192 Y115.396 E42.44321
G1 X100.541 Y116.144 E42.47727
M204 S3000
G0 F4200 X100.79 Y115.753
M204 S500
;TYPE:WALL-OUTER
G1 F1080 X100.869 Y115.753 E42.48053
G1 X113.45 Y115.753 E42.99966
G1 X133.296 Y92.6 E44.25797
G1 X133.347 Y92.541 E44.26119
G1 X133.21 Y92.247 E44.27458
G1 X133.131 Y92.247 E44.27784
G1 X120.55 Y92.247 E44.79697
G1 X100.704 Y115.4 E46.05528
G1 X100.653 Y115.459 E46.0585
G1 X100.79 Y115.753 E46.07189
M204 S3000
G0 F4200 X100.869 Y115.753
G0 X100.99 Y115.753
G0 X100.99 Y116.189
G1 F3000 E41.07189
G0 F4200 X144.356 Y119.856
M204 S500
;TYPE:WALL-INNER
G1 F3000 E46.13425
G1 F1080 X65.644 Y119.856 E49.38217
G1 X65.644 Y117.738 E49.46957
G1 X89.296 Y90.144 E50.96922
G1 X144.356 Y90.144 E53.24118
G1 X144.356 Y119.856 E54.46719
M204 S3000
G0 F4200 X144.747 Y120.247
M204 S500
;TYPE:WALL-OUTER
G1 F1080 X65.253 Y120.247 E57.74738
G1 X65.253 Y117.594 E57.85686
G1 X89.116 Y89.753 E59.36991
G1 X144.747 Y89.753 E61.66543
G1 X144.747 Y120.247 E62.92372
M204 S3000
G0 F4200 X144.547 Y120.247
G0 X144.311 Y119.811
G0 X143.964 Y119.464
M204 S500
;TYPE:SKIN
G1 F1080 X66.036 Y119.464 E66.22839
G1 X66.036 Y117.882 E66.29547
G1 X89.476 Y90.536 E67.82284
G1 X143.964 Y90.536 E70.1335
G1 X143.964 Y119.464 E71.36024
M204 S3000
G1 F3000 E66.36024
G0 F4200 X141.762 Y115.395
M204 S500
G1 F3000 E71.4226
G1 F1080 X142.196 Y115.155 E71.44363
G1 X142.556 Y114.82 E71.46448
G1 X142.827 Y114.411 E71.48529
G1 X142.991 Y113.949 E71.50608
G1 X143.04 Y113.462 E71.52684
G1 X142.974 Y112.973 E71.54776
G1 X142.788 Y112.512 E71.56884
G1 X142.5 Y112.116 E71.58961
G1 X142.126 Y111.798 E71.61043
G1 X141.686 Y111.577 E71.63131
G1 X141.207 Y111.47 E71.65212
G1 X140.713 Y111.48 E71.67307
G1 X140.238 Y111.605 E71.6939
G1 X139.804 Y111.845 E71.71493
G1 X139.444 Y112.18 E71.73579
G1 X139.173 Y112.589 E71.75659
G1 X139.009 Y113.051 E71.77738
G1 X138.96 Y113.538 E71.79814
G1 X139.026 Y114.027 E71.81906
G1 X139.213 Y114.488 E71.84016
G1 X139.493 Y114.876 E71.86045
G1 X139.846 Y115.188 E71.88043
G1 X140.314 Y115.423 E71.90264
G1 X140.793 Y115.53 E71.92345
G1 X141.287 Y115.52 E71.9444
G1 X141.762 Y115.395 E71.96523
M204 S3000
G1 F3000 E66.96523
G0 F4200 X138.036 Y116.536
M204 S500
G1 F3000 E72.0276
G1 F1080 X138.036 Y91.779 E73.07746
G1 X136.683 Y91.278 E73.13864
G1 X116.065 Y115.333 E74.48217
G1 X116.626 Y116.536 E74.53846
G1 X138.036 Y116.536 E75.44638
M204 S3000
G1 F3000 E70.44638
G0 F4200 X141.287 Y95.52
M204 S500
G1 F3000 E75.50875
G1 F1080 X141.762 Y95.395 E75.52957
G1 X142.196 Y95.155 E75.55061
G1 X142.556 Y94.82 E75.57146
G1 X142.827 Y94.411 E75.59227
G1 X142.991 Y93.949 E75.61306
G1 X143.04 Y93.462 E75.63381
G1 X142.974 Y92.973 E75.65474
G1 X142.788 Y92.512 E75.67582
G1 X142.5 Y92.116 E75.69658
G1 X142.126 Y91.798 E75.7174
G1 X141.686 Y91.577 E75.73828
G1 X141.207 Y91.47 E75.75909
G1 X140.713 Y91.48 E75.78005
G1 X140.238 Y91.605 E75.80088
G1 X139.804 Y91.845 E75.82191
G1 X139.444 Y92.18 E75.84276
G1 X139.173 Y92.589 E75.86357
G1 X139.009 Y93.051 E75.88436
G1 X138.96 Y93.538 E75.90511
G1 X139.026 Y94.027 E75.92604
G1 X139.213 Y94.488 E75.94713
G1 X139.493 Y94.876 E75.96743
G1 X139.846 Y95.188 E75.9874
G1 X140.314 Y95.423 E76.00961
G1 X140.793 Y95.53 E76.03042
G1 X141.287 Y95.52 E76.05138
M204 S3000
G1 F3000 E71.05138
G0 F4200 X134.27 Y92.667
M204 S500
G1 F3000 E76.11374
G1 F1080 X133.709 Y91.464 E76.17003
G1 X120.19 Y91.464 E76.74333
G1 X99.73 Y115.333 E78.0765
G1 X100.291 Y116.536 E78.13279
G1 X113.81 Y116.536 E78.70609
G1 X134.27 Y92.667 E80.03926
M204 S3000
G1 F3000 E75.03926
G0 F4200 X117.935 Y92.667
M204 S500
G1 F3000 E80.10163
G1 F1080 X117.374 Y91.464 E80.15792
G1 X95.964 Y91.464 E81.06584
G1 X95.964 Y116.221 E82.11571
G1 X97.317 Y116.722 E82.17689
G1 X117.935 Y92.667 E83.52041
M204 S3000
G1 F3000 E78.52041
