;FLAVOR:Marlin
;TIME:8365
;Filament used: 6.93535m
;Layer height: 0.2
;MINX:43.66
;MINY:36.16
;MINZ:0.25
;MAXX:166.34
;MAXY:173.84
;MAXZ:14.85
;Generated with Cura_SteamEngine 4.7.1
M140 S60
M105
M190 S60
M104 S200
M105
M109 S200
M82 ;absolute extrusion mode
; Script based on an original created by tjjfvi (https://github.com/tjjfvi)
; An up-to-date version of the tjjfvi's original script can be found
; here:  https://csi.t6.fyi/
; Note - This script will only work in Cura V4.2 and above!
; --- Global Settings
; layer_height = 0.2
; smooth_spiralized_contours = True
; magic_mesh_surface_mode = normal
; machine_extruder_count = 1
; --- Single Extruder Settings
; speed_z_hop = 10
; retraction_amount = 5
; retraction_hop = 0.075
; retraction_hop_enabled = True
; retraction_enable = True
; retraction_speed = 50
; retraction_retract_speed = 50
; retraction_prime_speed = 50
; speed_travel = 120

G21 ;metric values
G90 ;absolute positioning
M82 ;set extruder to absolute mode
M107 ;start with the fan off
G28 X0 Y0 ;move X/Y to min endstops
G28 Z0 ;move Z to min endstops
G1 Z15.0 F120 ;move the platform down 15mm
G92 E0 ;zero the extruded length
G1 F200 E3 ;extrude 3mm of feed stock
G92 E0 ;zero the extruded length again
G1 F120
G0 Y20 F120
M117 Printing...
G5
G92 E0
G92 E0
G1 F3000 E-5
;LAYER_COUNT:74
;LAYER:0
M106 S51
M204 S3000
M205 X10 Y10
G1 F600 Z0.325
G0 F4200 X73.126 Y38.608 Z0.325
M204 S500
;TYPE:SKIRT
G1 F600 Z0.25
G1 F3000 E0.06236
G1 F1800 X73.424 Y38.097 E0.08677
G1 X73.789 Y37.63 E0.11123
G1 X74.213 Y37.216 E0.13568
G1 X74.689 Y36.864 E0.16011
G1 X75.208 Y36.579 E0.18454
G1 X75.761 Y36.366 E0.209
G1 X76.337 Y36.23 E0.23342
G1 X76.922 Y36.172 E0.25767
G1 X77.38 Y36.16 E0.27658
G1 X132.306 Y36.16 E2.54301
G1 X133.007 Y36.17 E2.57194
G1 X133.597 Y36.219 E2.59637
G1 X134.175 Y36.346 E2.62079
G1 X134.731 Y36.55 E2.64522
G1 X135.255 Y36.827 E2.66968
G1 X135.736 Y37.172 E2.69411
G1 X136.167 Y37.579 E2.71857
G1 X136.539 Y38.04 E2.74301
G1 X136.845 Y38.547 E2.76745
G1 X137.083 Y39.096 E2.79214
G1 X137.494 Y40.258 E2.843
G1 X137.555 Y40.405 E2.84956
G1 X138.036 Y41.76 E2.90889
G1 X139.02 Y44.303 E3.02141
G1 X140.05 Y46.755 E3.13115
G1 X141.175 Y49.236 E3.24356
G1 X142.356 Y51.656 E3.35467
G1 X143.611 Y54.052 E3.46628
G1 X144.923 Y56.394 E3.57705
G1 X146.323 Y58.734 E3.68957
G1 X147.781 Y61.024 E3.80159
G1 X149.298 Y63.263 E3.91319
G1 X150.868 Y65.445 E4.02411
G1 X152.497 Y67.578 E4.13485
G1 X154.215 Y69.703 E4.24761
G1 X155.967 Y71.748 E4.35873
G1 X157.79 Y73.756 E4.47064
G1 X160.096 Y76.143 E4.60759
G1 X161.081 Y77.129 E4.6651
G1 X161.535 Y77.595 E4.69194
G1 X161.948 Y78.085 E4.71838
G1 X162.491 Y78.836 E4.75662
G1 X162.917 Y79.445 E4.78729
G1 X163.329 Y80.053 E4.8176
G1 X163.641 Y80.593 E4.84333
G1 X164.042 Y81.416 E4.88111
G1 X164.365 Y82.11 E4.91269
G1 X164.655 Y82.755 E4.94188
G1 X164.873 Y83.354 E4.96818
G1 X165.125 Y84.24 E5.00619
G1 X165.312 Y84.937 E5.03597
G1 X165.49 Y85.636 E5.06573
G1 X165.602 Y86.263 E5.09201
G1 X165.697 Y87.178 E5.12997
G1 X165.769 Y88.008 E5.16435
G1 X165.817 Y88.669 E5.19169
G1 X165.822 Y89.236 E5.21509
G1 X165.676 Y91.805 E5.32127
G1 X165.599 Y94.491 E5.43215
G1 X165.599 Y97.213 E5.54447
G1 X165.674 Y99.899 E5.65534
G1 X165.827 Y102.615 E5.76759
G1 X166.056 Y105.31 E5.8792
G1 X166.213 Y106.784 E5.94036
G1 X166.301 Y107.547 E5.97206
G1 X166.338 Y108.247 E6.00098
G1 X166.34 Y108.38 E6.00647
G1 X166.34 Y117.285 E6.37392
G1 X166.313 Y119.226 E6.45402
G1 X166.297 Y119.813 E6.47825
G1 X166.329 Y123.933 E6.64826
G1 X166.34 Y124.379 E6.66667
G1 X166.34 Y133.285 E7.03416
G1 X166.33 Y134.005 E7.06387
G1 X166.281 Y134.595 E7.0883
G1 X166.154 Y135.174 E7.11276
G1 X165.95 Y135.73 E7.1372
G1 X165.673 Y136.253 E7.16162
G1 X165.329 Y136.735 E7.18605
G1 X164.706 Y137.353 E7.22226
G1 X164.364 Y137.63 E7.24042
G1 X162.734 Y138.909 E7.32592
G1 X160.675 Y140.621 E7.43641
G1 X158.648 Y142.407 E7.54789
G1 X156.647 Y144.272 E7.66076
G1 X154.749 Y146.143 E7.77073
G1 X152.87 Y148.105 E7.88283
G1 X151.038 Y150.129 E7.99548
G1 X149.309 Y152.152 E8.10529
G1 X147.589 Y154.282 E8.21826
G1 X145.956 Y156.429 E8.32956
G1 X144.386 Y158.616 E8.44065
G1 X142.859 Y160.876 E8.5532
G1 X141.423 Y163.137 E8.66372
G1 X140.029 Y165.476 E8.77608
G1 X138.721 Y167.817 E8.88673
G1 X137.414 Y170.323 E9.00335
G1 X136.863 Y171.416 E9.05386
G1 X136.562 Y171.925 E9.07826
G1 X136.194 Y172.39 E9.10273
G1 X135.768 Y172.801 E9.12716
G1 X135.29 Y173.15 E9.15158
G1 X134.769 Y173.432 E9.17602
G1 X134.215 Y173.642 E9.20047
G1 X133.638 Y173.775 E9.2249
G1 X133.079 Y173.828 E9.24807
G1 X132.62 Y173.84 E9.26702
G1 X77.694 Y173.84 E11.53345
G1 X76.993 Y173.83 E11.56238
G1 X76.403 Y173.781 E11.58681
G1 X75.825 Y173.654 E11.61123
G1 X75.269 Y173.45 E11.63567
G1 X74.745 Y173.173 E11.66012
G1 X74.264 Y172.828 E11.68455
G1 X73.833 Y172.421 E11.70901
G1 X73.461 Y171.96 E11.73345
G1 X73.138 Y171.42 E11.75942
G1 X71.899 Y168.968 E11.87278
G1 X70.62 Y166.604 E11.98369
G1 X69.247 Y164.231 E12.09681
G1 X67.836 Y161.943 E12.20773
G1 X66.368 Y159.705 E12.31817
G1 X64.798 Y157.457 E12.43132
G1 X63.202 Y155.302 E12.54197
G1 X61.535 Y153.18 E12.65332
G1 X59.789 Y151.083 E12.76591
G1 X58.015 Y149.069 E12.87666
G1 X56.169 Y147.09 E12.98833
G1 X54.253 Y145.149 E13.10087
G1 X52.3 Y143.28 E13.21242
G1 X50.325 Y141.494 E13.32229
G1 X48.261 Y139.729 E13.43435
G1 X46.146 Y138.022 E13.5465
G1 X45.344 Y137.391 E13.58861
G1 X44.905 Y136.994 E13.61304
G1 X44.522 Y136.542 E13.63748
G1 X44.205 Y136.042 E13.66191
G1 X43.957 Y135.504 E13.68636
G1 X43.784 Y134.938 E13.71078
G1 X43.671 Y134.064 E13.74714
G1 X43.66 Y133.62 E13.76547
G1 X43.66 Y124.695 E14.13374
G1 X43.687 Y122.773 E14.21306
G1 X43.703 Y122.187 E14.23725
G1 X43.671 Y118.067 E14.40726
G1 X43.66 Y117.621 E14.42567
G1 X43.66 Y108.694 E14.79403
G1 X43.67 Y107.997 E14.82279
G1 X43.691 Y107.631 E14.83792
G1 X43.789 Y106.634 E14.87925
G1 X44.017 Y103.945 E14.99061
G1 X44.171 Y101.223 E15.10311
G1 X44.246 Y98.542 E15.21378
G1 X44.246 Y95.826 E15.32585
G1 X44.202 Y93.972 E15.40237
G1 X44.163 Y92.825 E15.44973
G1 X44.161 Y92.679 E15.45575
G1 X44.16 Y85.69 E15.74414
G1 X44.17 Y84.987 E15.77316
G1 X44.219 Y84.396 E15.79763
G1 X44.346 Y83.818 E15.82204
G1 X44.55 Y83.262 E15.84648
G1 X44.827 Y82.738 E15.87094
G1 X45.172 Y82.257 E15.89537
G1 X45.619 Y81.79 E15.92204
G1 X45.744 Y81.677 E15.92899
G1 X47.777 Y79.783 E16.04365
G1 X49.703 Y77.882 E16.15531
G1 X51.539 Y75.966 E16.26481
G1 X53.387 Y73.924 E16.37845
G1 X55.116 Y71.901 E16.48826
G1 X56.841 Y69.764 E16.60158
G1 X58.467 Y67.629 E16.71232
G1 X60.04 Y65.438 E16.82362
G1 X61.557 Y63.194 E16.93539
G1 X63.013 Y60.901 E17.04747
G1 X64.391 Y58.59 E17.15849
G1 X65.726 Y56.199 E17.27149
G1 X66.957 Y53.842 E17.38121
G1 X68.155 Y51.379 E17.49423
G1 X69.253 Y48.949 E17.60426
G1 X70.293 Y46.467 E17.7153
G1 X71.276 Y43.917 E17.82807
G1 X72.174 Y41.378 E17.9392
G1 X72.721 Y39.682 E18.01273
G1 X72.899 Y39.155 E18.03568
G1 X73.126 Y38.608 E18.06012
M204 S3000
G0 F4200 X73.493 Y38.761
M204 S500
G1 F1800 X73.783 Y38.276 E18.08344
G1 X74.138 Y37.837 E18.10673
G1 X74.551 Y37.452 E18.13003
G1 X75.015 Y37.129 E18.15336
G1 X75.519 Y36.875 E18.17665
G1 X76.054 Y36.695 E18.19994
G1 X76.61 Y36.592 E18.22327
G1 X77.256 Y36.559 E18.24996
G1 X77.38 Y36.557 E18.25508
G1 X132.3 Y36.557 E20.52127
G1 X133.001 Y36.567 E20.55019
G1 X133.564 Y36.615 E20.57351
G1 X134.114 Y36.742 E20.5968
G1 X134.641 Y36.946 E20.62012
G1 X135.134 Y37.221 E20.64341
G1 X135.583 Y37.564 E20.66673
G1 X135.98 Y37.966 E20.69004
G1 X136.315 Y38.42 E20.71332
G1 X136.584 Y38.917 E20.73664
G1 X136.708 Y39.228 E20.75046
G1 X137.137 Y40.442 E20.80359
G1 X137.181 Y40.537 E20.80791
G1 X137.665 Y41.9 E20.86759
G1 X138.65 Y44.446 E20.98023
G1 X139.696 Y46.937 E21.09172
G1 X140.812 Y49.396 E21.20314
G1 X142.002 Y51.836 E21.31516
G1 X143.253 Y54.225 E21.42644
G1 X144.591 Y56.614 E21.53942
G1 X145.977 Y58.93 E21.6508
G1 X147.458 Y61.256 E21.76458
G1 X148.96 Y63.473 E21.87508
G1 X150.548 Y65.68 E21.98727
G1 X152.193 Y67.834 E22.0991
G1 X153.918 Y69.967 E22.2123
G1 X155.668 Y72.009 E22.32327
G1 X157.491 Y74.017 E22.43518
G1 X159.839 Y76.448 E22.57464
G1 X160.797 Y77.406 E22.63054
G1 X161.251 Y77.872 E22.65739
G1 X161.626 Y78.317 E22.6814
G1 X162.166 Y79.064 E22.71944
G1 X162.589 Y79.668 E22.74986
G1 X163.001 Y80.276 E22.78017
G1 X163.284 Y80.766 E22.80352
G1 X163.682 Y81.583 E22.84102
G1 X164.003 Y82.273 E22.87242
G1 X164.293 Y82.918 E22.9016
G1 X164.492 Y83.462 E22.9255
G1 X164.742 Y84.343 E22.96329
G1 X164.928 Y85.035 E22.99286
G1 X165.106 Y85.734 E23.02262
G1 X165.207 Y86.304 E23.04651
G1 X165.302 Y87.213 E23.08422
G1 X165.374 Y88.037 E23.11835
G1 X165.422 Y88.698 E23.1457
G1 X165.426 Y89.214 E23.16699
G1 X165.279 Y91.808 E23.2742
G1 X165.202 Y94.479 E23.38446
G1 X165.202 Y97.224 E23.49773
G1 X165.277 Y99.897 E23.60807
G1 X165.431 Y102.637 E23.72131
G1 X165.664 Y105.383 E23.83502
G1 X165.819 Y106.83 E23.89507
G1 X165.907 Y107.593 E23.92677
G1 X165.941 Y108.259 E23.95428
G1 X165.943 Y108.38 E23.95928
G1 X165.943 Y117.28 E24.32652
G1 X165.916 Y119.221 E24.40662
G1 X165.899 Y119.805 E24.43073
G1 X165.932 Y123.949 E24.60173
G1 X165.943 Y124.379 E24.61948
G1 X165.943 Y133.279 E24.98672
G1 X165.933 Y133.999 E25.01644
G1 X165.885 Y134.562 E25.03975
G1 X165.758 Y135.113 E25.06308
G1 X165.555 Y135.64 E25.08639
G1 X165.28 Y136.133 E25.10968
G1 X164.937 Y136.582 E25.133
G1 X164.456 Y137.045 E25.16054
G1 X164.119 Y137.318 E25.17844
G1 X162.478 Y138.605 E25.26449
G1 X160.42 Y140.317 E25.37496
G1 X158.359 Y142.133 E25.4883
G1 X156.397 Y143.962 E25.59898
G1 X154.447 Y145.884 E25.71196
G1 X152.585 Y147.828 E25.82304
G1 X150.755 Y149.849 E25.93554
G1 X148.983 Y151.923 E26.0481
G1 X147.277 Y154.036 E26.16016
G1 X145.643 Y156.184 E26.27153
G1 X144.053 Y158.4 E26.38407
G1 X142.536 Y160.644 E26.49584
G1 X141.088 Y162.925 E26.60732
G1 X139.689 Y165.272 E26.72007
G1 X138.363 Y167.644 E26.8322
G1 X137.062 Y170.139 E26.94831
G1 X136.509 Y171.237 E26.99903
G1 X136.22 Y171.722 E27.02233
G1 X135.865 Y172.162 E27.04566
G1 X135.452 Y172.547 E27.06896
G1 X134.988 Y172.87 E27.09229
G1 X134.484 Y173.124 E27.11557
G1 X133.949 Y173.304 E27.13887
G1 X133.393 Y173.408 E27.16221
G1 X132.744 Y173.441 E27.18902
G1 X132.62 Y173.443 E27.19414
G1 X77.7 Y173.443 E29.46032
G1 X76.999 Y173.433 E29.48925
G1 X76.436 Y173.385 E29.51257
G1 X75.886 Y173.258 E29.53586
G1 X75.359 Y173.054 E29.55918
G1 X74.866 Y172.779 E29.58247
G1 X74.417 Y172.436 E29.60578
G1 X74.02 Y172.034 E29.6291
G1 X73.685 Y171.58 E29.65238
G1 X73.492 Y171.241 E29.66848
G1 X72.247 Y168.778 E29.78235
G1 X70.958 Y166.394 E29.89418
G1 X69.604 Y164.054 E30.00574
G1 X68.169 Y161.728 E30.11851
G1 X66.69 Y159.472 E30.22983
G1 X65.124 Y157.231 E30.34264
G1 X63.52 Y155.064 E30.45389
G1 X61.839 Y152.924 E30.56617
G1 X60.094 Y150.828 E30.67871
G1 X58.306 Y148.8 E30.79027
G1 X56.444 Y146.803 E30.90294
G1 X54.53 Y144.864 E31.01536
G1 X52.596 Y143.013 E31.12583
G1 X50.567 Y141.178 E31.23871
G1 X48.525 Y139.432 E31.34957
G1 X46.353 Y137.679 E31.46475
G1 X45.59 Y137.079 E31.5048
G1 X45.172 Y136.699 E31.52811
G1 X44.812 Y136.264 E31.55141
G1 X44.516 Y135.783 E31.57471
G1 X44.292 Y135.265 E31.598
G1 X44.143 Y134.72 E31.62131
G1 X44.068 Y134.053 E31.64901
G1 X44.057 Y133.62 E31.66688
G1 X44.057 Y124.701 E32.03491
G1 X44.084 Y122.779 E32.11423
G1 X44.101 Y122.195 E32.13833
G1 X44.068 Y118.029 E32.31024
G1 X44.057 Y117.621 E32.32708
G1 X44.057 Y108.7 E32.69519
G1 X44.067 Y108.003 E32.72396
G1 X44.086 Y107.669 E32.73776
G1 X44.184 Y106.672 E32.7791
G1 X44.413 Y103.968 E32.89108
G1 X44.568 Y101.221 E33.00461
G1 X44.643 Y98.553 E33.11474
G1 X44.643 Y95.817 E33.22764
G1 X44.599 Y93.963 E33.30416
G1 X44.56 Y92.812 E33.35168
G1 X44.558 Y92.679 E33.35717
G1 X44.557 Y85.695 E33.64535
G1 X44.567 Y84.992 E33.67437
G1 X44.615 Y84.429 E33.69768
G1 X44.742 Y83.879 E33.72097
G1 X44.946 Y83.352 E33.74429
G1 X45.221 Y82.859 E33.76758
G1 X45.564 Y82.41 E33.7909
G1 X46.059 Y81.927 E33.81944
G1 X48.028 Y80.092 E33.9305
G1 X49.97 Y78.176 E34.04307
G1 X51.856 Y76.207 E34.15557
G1 X53.67 Y74.204 E34.26708
G1 X55.442 Y72.13 E34.37964
G1 X57.14 Y70.028 E34.49114
G1 X58.792 Y67.857 E34.60371
G1 X60.373 Y65.654 E34.7156
G1 X61.88 Y63.425 E34.82663
G1 X63.348 Y61.113 E34.93963
G1 X64.747 Y58.767 E35.05234
G1 X66.055 Y56.426 E35.163
G1 X67.325 Y53.994 E35.27621
G1 X68.512 Y51.552 E35.38825
G1 X69.612 Y49.118 E35.49846
G1 X70.663 Y46.61 E35.61067
G1 X71.647 Y44.057 E35.72357
G1 X72.557 Y41.485 E35.83614
G1 X73.097 Y39.809 E35.9088
G1 X73.275 Y39.282 E35.93176
G1 X73.493 Y38.761 E35.95506
M204 S3000
G0 F4200 X73.86 Y38.916
M204 S500
G1 F1800 X74.14 Y38.459 E35.97718
G1 X74.485 Y38.048 E35.99932
G1 X74.887 Y37.694 E36.02142
G1 X75.337 Y37.403 E36.04353
G1 X75.825 Y37.182 E36.06564
G1 X76.341 Y37.036 E36.08777
G1 X76.946 Y36.966 E36.1129
G1 X77.38 Y36.954 E36.13081
G1 X132.294 Y36.954 E38.39675
G1 X132.995 Y36.964 E38.42568
G1 X133.529 Y37.012 E38.4478
G1 X134.05 Y37.138 E38.46992
G1 X134.546 Y37.341 E38.49203
G1 X135.007 Y37.615 E38.51416
G1 X135.422 Y37.954 E38.53627
G1 X135.782 Y38.351 E38.55839
G1 X136.078 Y38.798 E38.58051
G1 X136.334 Y39.36 E38.60599
G1 X136.74 Y40.508 E38.65624
G1 X136.807 Y40.67 E38.66347
G1 X137.294 Y42.041 E38.72351
G1 X138.282 Y44.596 E38.83654
G1 X139.324 Y47.077 E38.94758
G1 X140.449 Y49.557 E39.05995
G1 X141.649 Y52.017 E39.17289
G1 X142.925 Y54.453 E39.28636
G1 X144.229 Y56.781 E39.39647
G1 X145.649 Y59.154 E39.51058
G1 X147.109 Y61.448 E39.62278
G1 X148.652 Y63.724 E39.73624
G1 X150.224 Y65.909 E39.84731
G1 X151.9 Y68.103 E39.96124
G1 X153.59 Y70.193 E40.07214
G1 X155.37 Y72.271 E40.18505
G1 X157.225 Y74.314 E40.29891
G1 X159.51 Y76.679 E40.43461
G1 X160.513 Y77.683 E40.49317
G1 X160.967 Y78.149 E40.52001
G1 X161.304 Y78.55 E40.54163
G1 X161.84 Y79.292 E40.5794
G1 X162.26 Y79.891 E40.60959
G1 X162.672 Y80.499 E40.63989
G1 X162.927 Y80.94 E40.66091
G1 X163.322 Y81.751 E40.69813
G1 X163.641 Y82.435 E40.72928
G1 X163.931 Y83.08 E40.75846
G1 X164.11 Y83.571 E40.78002
G1 X164.358 Y84.446 E40.81755
G1 X164.543 Y85.133 E40.84691
G1 X164.721 Y85.832 E40.87667
G1 X164.813 Y86.346 E40.89822
G1 X164.901 Y87.189 E40.93319
G1 X164.978 Y88.066 E40.96952
G1 X165.026 Y88.727 E40.99687
G1 X165.029 Y89.191 E41.01601
G1 X164.884 Y91.737 E41.12124
G1 X164.805 Y94.503 E41.23542
G1 X164.805 Y97.2 E41.34671
G1 X164.882 Y99.966 E41.46089
G1 X165.034 Y102.655 E41.57202
G1 X165.262 Y105.351 E41.68366
G1 X165.427 Y106.905 E41.74815
G1 X165.512 Y107.638 E41.7786
G1 X165.544 Y108.271 E41.80475
G1 X165.546 Y108.38 E41.80925
G1 X165.546 Y117.274 E42.17624
G1 X165.518 Y119.264 E42.25837
G1 X165.503 Y119.826 E42.28156
G1 X165.535 Y123.962 E42.45223
G1 X165.546 Y124.379 E42.46945
G1 X165.546 Y133.274 E42.83648
G1 X165.536 Y133.994 E42.8662
G1 X165.488 Y134.528 E42.88832
G1 X165.362 Y135.049 E42.91044
G1 X165.16 Y135.545 E42.93254
G1 X164.886 Y136.006 E42.95467
G1 X164.547 Y136.421 E42.97678
G1 X163.919 Y136.969 E43.01117
G1 X162.244 Y138.284 E43.09904
G1 X160.165 Y140.013 E43.21062
G1 X158.108 Y141.826 E43.32376
G1 X156.111 Y143.687 E43.4364
G1 X154.18 Y145.59 E43.54827
G1 X152.269 Y147.585 E43.66226
G1 X150.456 Y149.589 E43.77377
G1 X148.685 Y151.659 E43.88618
G1 X146.965 Y153.79 E43.99918
G1 X145.335 Y155.934 E44.11031
G1 X143.715 Y158.191 E44.22495
G1 X142.202 Y160.429 E44.33642
G1 X140.742 Y162.728 E44.4488
G1 X139.341 Y165.079 E44.56173
G1 X138.019 Y167.444 E44.67353
G1 X136.71 Y169.955 E44.79038
G1 X136.154 Y171.058 E44.84134
G1 X135.878 Y171.518 E44.86348
G1 X135.537 Y171.931 E44.88558
G1 X135.138 Y172.289 E44.9077
G1 X134.69 Y172.583 E44.92981
G1 X134.203 Y172.808 E44.95195
G1 X133.689 Y172.958 E44.97404
G1 X133.054 Y173.034 E45.00043
G1 X132.62 Y173.046 E45.01835
G1 X77.706 Y173.046 E47.28428
G1 X77.005 Y173.036 E47.31321
G1 X76.471 Y172.988 E47.33533
G1 X75.95 Y172.862 E47.35745
G1 X75.454 Y172.659 E47.37957
G1 X74.993 Y172.385 E47.40169
G1 X74.578 Y172.046 E47.42381
G1 X74.218 Y171.649 E47.44592
G1 X73.847 Y171.062 E47.47457
G1 X72.61 Y168.615 E47.58771
G1 X71.31 Y166.211 E47.70049
G1 X69.938 Y163.84 E47.81352
G1 X68.498 Y161.506 E47.92668
