;FLAVOR:Marlin
;TIME:4198
;Filament used: 4.57128m
;Layer height: 0.3
;MINX:42.293
;MINY:86.293
;MINZ:0.25
;MAXX:167.707
;MAXY:172.626
;MAXZ:12.85
;Generated with Cura_SteamEngine 4.7.1
M140 S60
M105
M190 S60
M104 S200
M105
M109 S200
M82 ;absolute extrusion mode
; Script based on an original created by tjjfvi (https://github.com/tjjfvi)
; An up-to-date version of the tjjfvi's original script can be found
; here:  https://csi.t6.fyi/
; Note - This script will only work in Cura V4.2 and above!
; --- Global Settings
; layer_height = 0.3
; smooth_spiralized_contours = True
; magic_mesh_surface_mode = normal
; machine_extruder_count = 1
; --- Single Extruder Settings
; speed_z_hop = 10
; retraction_amount = 5
; retraction_hop = 0.075
; retraction_hop_enabled = True
; retraction_enable = True
; retraction_speed = 50
; retraction_retract_speed = 50
; retraction_prime_speed = 50
; speed_travel = 120

G21 ;metric values
G90 ;absolute positioning
M82 ;set extruder to absolute mode
M107 ;start with the fan off
G28 X0 Y0 ;move X/Y to min endstops
G28 Z0 ;move Z to min endstops
G1 Z15.0 F120 ;move the platform down 15mm
G92 E0 ;zero the extruded length
G1 F200 E3 ;extrude 3mm of feed stock
G92 E0 ;zero the extruded length again
G1 F120
G0 Y20 F120
M117 Printing...
G5
G92 E0
G92 E0
G1 F3000 E-5
;LAYER_COUNT:43
;LAYER:0
M106 S51
M204 S3000
M205 X10 Y10
G1 F600 Z0.325
G0 F4200 X81.076 Y100.707 Z0.325
M204 S500
;TYPE:SKIRT
G1 F600 Z0.25
G1 F3000 E0.06236
G1 F1800 X81.149 Y101.036 E0.07627
G1 X81.217 Y101.711 E0.10426
G1 X81.205 Y102.389 E0.13224
G1 X81.114 Y103.061 E0.16023
G1 X80.944 Y103.718 E0.18823
G1 X80.698 Y104.35 E0.21621
G1 X80.379 Y104.949 E0.24422
G1 X80.339 Y105.006 E0.24709
G1 X80.489 Y105.241 E0.25859
G1 X80.785 Y105.852 E0.28661
G1 X81.006 Y106.493 E0.31459
G1 X81.151 Y107.155 E0.34255
G1 X81.217 Y107.831 E0.37058
G1 X81.203 Y108.509 E0.39856
G1 X81.109 Y109.181 E0.42656
G1 X81.08 Y109.293 E0.43133
G1 X90.293 Y109.293 E0.81149
G1 X90.293 Y108.05 E0.86278
G1 X90.333 Y107.373 E0.89076
G1 X90.452 Y106.705 E0.91876
G1 X90.649 Y106.056 E0.94675
G1 X90.921 Y105.435 E0.97472
G1 X91.178 Y104.998 E0.99564
G1 X91.025 Y104.759 E1.00735
G1 X90.729 Y104.148 E1.03537
G1 X90.508 Y103.507 E1.06335
G1 X90.363 Y102.845 E1.09131
G1 X90.293 Y101.95 E1.12835
G1 X90.293 Y100.707 E1.17964
G1 X81.076 Y100.707 E1.55997
M204 S3000
G0 F4200 X80.626 Y100.505
M204 S500
G1 F1800 X80.764 Y101.145 E1.58698
G1 X80.823 Y101.796 E1.61396
G1 X80.802 Y102.451 E1.641
G1 X80.701 Y103.097 E1.66798
G1 X80.522 Y103.727 E1.695
G1 X80.268 Y104.33 E1.722
G1 X79.942 Y104.898 E1.74902
G1 X79.866 Y104.999 E1.75424
G1 X79.908 Y105.053 E1.75706
G1 X80.24 Y105.617 E1.78407
G1 X80.501 Y106.218 E1.81111
G1 X80.687 Y106.845 E1.83809
G1 X80.795 Y107.491 E1.86512
G1 X80.823 Y108.145 E1.89213
G1 X80.772 Y108.797 E1.91911
G1 X80.641 Y109.438 E1.94611
G1 X80.555 Y109.69 E1.9571
G1 X90.69 Y109.69 E2.3753
G1 X90.69 Y108.05 E2.44297
G1 X90.73 Y107.397 E2.46997
G1 X90.849 Y106.753 E2.49699
G1 X91.046 Y106.129 E2.52399
G1 X91.318 Y105.533 E2.55103
G1 X91.646 Y104.999 E2.57689
G1 X91.606 Y104.947 E2.57959
G1 X91.274 Y104.383 E2.6066
G1 X91.013 Y103.782 E2.63364
G1 X90.827 Y103.155 E2.66062
G1 X90.719 Y102.509 E2.68765
G1 X90.69 Y101.95 E2.71075
G1 X90.69 Y100.31 E2.77842
G1 X80.559 Y100.31 E3.19646
G1 X80.626 Y100.505 E3.20496
M204 S3000
G0 F4200 X80.251 Y100.635
M204 S500
G1 F1800 X80.379 Y101.251 E3.23093
G1 X80.427 Y101.879 E3.25691
G1 X80.397 Y102.508 E3.2829
G1 X80.286 Y103.128 E3.30889
G1 X80.098 Y103.729 E3.33487
G1 X79.835 Y104.302 E3.36089
G1 X79.502 Y104.836 E3.38686
G1 X79.371 Y104.997 E3.39542
G1 X79.682 Y105.435 E3.41759
G1 X79.979 Y105.99 E3.44356
G1 X80.204 Y106.579 E3.46958
G1 X80.352 Y107.191 E3.49556
G1 X80.422 Y107.817 E3.52155
G1 X80.411 Y108.447 E3.54755
G1 X80.321 Y109.07 E3.57353
G1 X80.047 Y109.955 E3.61175
G1 X79.992 Y110.087 E3.61765
G1 X91.087 Y110.087 E4.07547
G1 X91.087 Y108.05 E4.15952
G1 X91.127 Y107.421 E4.18553
G1 X91.246 Y106.803 E4.2115
G1 X91.443 Y106.205 E4.23748
G1 X91.714 Y105.636 E4.26349
G1 X92.054 Y105.106 E4.28947
G1 X92.142 Y105.001 E4.29512
G1 X91.832 Y104.565 E4.3172
G1 X91.535 Y104.01 E4.34317
G1 X91.31 Y103.421 E4.36919
G1 X91.162 Y102.809 E4.39517
G1 X91.087 Y101.95 E4.43075
G1 X91.087 Y99.913 E4.5148
G1 X79.992 Y99.913 E4.97262
G1 X80.045 Y100.039 E4.97826
G1 X80.251 Y100.635 E5.00428
M204 S3000
G0 F4200 X79.874 Y100.764
M204 S500
G1 F1800 X79.992 Y101.356 E5.02919
G1 X80.031 Y101.959 E5.05412
G1 X79.99 Y102.562 E5.07906
G1 X79.87 Y103.153 E5.10395
G1 X79.672 Y103.724 E5.12888
G1 X79.401 Y104.264 E5.15382
G1 X79.061 Y104.764 E5.17876
G1 X78.85 Y105 E5.19183
G1 X79.115 Y105.308 E5.20859
G1 X79.445 Y105.814 E5.23352
G1 X79.705 Y106.359 E5.25844
G1 X79.892 Y106.934 E5.28339
G1 X80 Y107.528 E5.3083
G1 X80.029 Y108.132 E5.33325
G1 X79.979 Y108.734 E5.35818
G1 X79.849 Y109.324 E5.38311
G1 X79.68 Y109.803 E5.40407
G1 X79.397 Y110.484 E5.4345
G1 X91.484 Y110.484 E5.93325
G1 X91.484 Y108.05 E6.03368
G1 X91.524 Y107.447 E6.05862
G1 X91.643 Y106.855 E6.08353
G1 X91.839 Y106.284 E6.10844
G1 X92.109 Y105.743 E6.13339
G1 X92.448 Y105.243 E6.15832
G1 X92.665 Y105.001 E6.17173
G1 X92.399 Y104.692 E6.18856
G1 X92.069 Y104.186 E6.21348
G1 X91.809 Y103.641 E6.2384
G1 X91.622 Y103.066 E6.26335
G1 X91.514 Y102.472 E6.28826
G1 X91.484 Y101.95 E6.30984
G1 X91.484 Y99.516 E6.41027
G1 X79.397 Y99.516 E6.90902
G1 X79.679 Y100.192 E6.93925
G1 X79.874 Y100.764 E6.96418
M204 S3000
G0 F4200 X79.497 Y100.892
M204 S500
G1 F1800 X79.605 Y101.459 E6.988
G1 X79.633 Y102.035 E7.0118
G1 X79.581 Y102.61 E7.03562
G1 X79.451 Y103.172 E7.05942
G1 X79.244 Y103.711 E7.08325
G1 X78.964 Y104.216 E7.10707
G1 X78.618 Y104.678 E7.13089
G1 X78.295 Y105.002 E7.14977
G1 X78.544 Y105.24 E7.16398
G1 X78.903 Y105.693 E7.18783
G1 X79.195 Y106.19 E7.21162
G1 X79.416 Y106.723 E7.23543
G1 X79.562 Y107.282 E7.25927
G1 X79.628 Y107.855 E7.28307
G1 X79.615 Y108.432 E7.30688
G1 X79.523 Y109.002 E7.33071
G1 X79.314 Y109.65 E7.3588
G1 X78.802 Y110.881 E7.41381
G1 X91.881 Y110.881 E7.9535
G1 X91.881 Y108.05 E8.07031
G1 X91.921 Y107.474 E8.09414
G1 X92.04 Y106.909 E8.11796
G1 X92.236 Y106.367 E8.14175
G1 X92.505 Y105.856 E8.16558
G1 X92.842 Y105.387 E8.18941
G1 X93.216 Y104.995 E8.21176
G1 X92.97 Y104.76 E8.2258
G1 X92.611 Y104.307 E8.24965
G1 X92.319 Y103.81 E8.27344
G1 X92.098 Y103.277 E8.29724
G1 X91.952 Y102.718 E8.32108
G1 X91.881 Y101.95 E8.35291
G1 X91.881 Y99.119 E8.46973
G1 X78.802 Y99.119 E9.00941
G1 X79.313 Y100.345 E9.06422
G1 X79.497 Y100.892 E9.08803
M204 S3000
G0 F4200 X79.12 Y101.018
M204 S500
G1 F1800 X79.217 Y101.559 E9.11071
G1 X79.234 Y102.108 E9.13338
G1 X79.171 Y102.653 E9.15601
G1 X79.03 Y103.183 E9.17864
G1 X78.813 Y103.688 E9.20132
G1 X78.525 Y104.155 E9.22396
G1 X78.173 Y104.576 E9.24661
G1 X77.763 Y104.941 E9.26926
G1 X77.671 Y105.001 E9.27379
G1 X77.975 Y105.235 E9.28962
G1 X78.357 Y105.629 E9.31227
G1 X78.677 Y106.075 E9.33492
G1 X78.93 Y106.562 E9.35756
G1 X79.109 Y107.081 E9.38021
G1 X79.211 Y107.62 E9.40285
G1 X79.234 Y108.169 E9.42552
G1 X79.177 Y108.715 E9.44818
G1 X78.947 Y109.498 E9.48185
G1 X78.299 Y111.057 E9.55152
G1 X78.194 Y111.278 E9.56161
G1 X92.278 Y111.278 E10.14276
G1 X92.278 Y108.05 E10.27596
G1 X92.318 Y107.502 E10.29864
G1 X92.437 Y106.967 E10.32125
G1 X92.632 Y106.454 E10.3439
G1 X92.9 Y105.974 E10.36658
G1 X93.235 Y105.539 E10.38924
G1 X93.629 Y105.157 E10.41188
G1 X93.846 Y105.001 E10.42291
G1 X93.539 Y104.765 E10.43889
G1 X93.157 Y104.371 E10.46153
G1 X92.837 Y103.925 E10.48418
G1 X92.584 Y103.438 E10.50683
G1 X92.405 Y102.919 E10.52948
G1 X92.303 Y102.38 E10.55212
G1 X92.278 Y101.95 E10.56989
G1 X92.278 Y98.722 E10.70309
G1 X78.194 Y98.722 E11.28424
G1 X78.329 Y99.019 E11.2977
G1 X78.946 Y100.498 E11.36383
G1 X79.12 Y101.018 E11.38645
M204 S3000
G0 F4200 X78.742 Y101.144
M204 S500
G1 F1800 X78.827 Y101.656 E11.40787
G1 X78.832 Y102.175 E11.42929
G1 X78.758 Y102.689 E11.45072
G1 X78.606 Y103.185 E11.47212
G1 X78.379 Y103.653 E11.49358
G1 X78.083 Y104.079 E11.51499
G1 X77.726 Y104.456 E11.53641
G1 X77.315 Y104.773 E11.55783
G1 X76.9 Y105.001 E11.57737
G1 X76.968 Y105.029 E11.5804
G1 X77.414 Y105.295 E11.60183
G1 X77.813 Y105.627 E11.62325
G1 X78.157 Y106.016 E11.64468
G1 X78.437 Y106.453 E11.66609
G1 X78.647 Y106.928 E11.68752
G1 X78.782 Y107.43 E11.70897
G1 X78.837 Y107.946 E11.73039
G1 X78.813 Y108.465 E11.75183
G1 X78.71 Y108.974 E11.77325
G1 X78.581 Y109.345 E11.78946
G1 X77.933 Y110.904 E11.85913
G1 X77.611 Y111.514 E11.88759
G1 X77.506 Y111.675 E11.89552
G1 X92.675 Y111.675 E12.52144
G1 X92.675 Y108.05 E12.67102
G1 X92.715 Y107.532 E12.69246
G1 X92.834 Y107.027 E12.71387
G1 X93.029 Y106.546 E12.73529
G1 X93.295 Y106.1 E12.75672
G1 X93.627 Y105.701 E12.77813
G1 X94.016 Y105.357 E12.79956
G1 X94.453 Y105.077 E12.82098
G1 X94.623 Y105.002 E12.82864
G1 X94.546 Y104.971 E12.83207
G1 X94.1 Y104.705 E12.8535
G1 X93.701 Y104.373 E12.87492
G1 X93.357 Y103.984 E12.89634
G1 X93.077 Y103.547 E12.91776
G1 X92.867 Y103.072 E12.93919
G1 X92.732 Y102.57 E12.96064
G1 X92.675 Y101.95 E12.98633
G1 X92.675 Y98.325 E13.13591
G1 X77.507 Y98.325 E13.76179
G1 X77.847 Y98.914 E13.78986
G1 X77.963 Y99.172 E13.80153
G1 X78.58 Y100.651 E13.86765
G1 X78.742 Y101.144 E13.88907
M204 S3000
G0 F4200 X78.364 Y101.267
M204 S500
G1 F1800 X78.436 Y101.75 E13.90922
G1 X78.429 Y102.237 E13.92932
G1 X78.342 Y102.717 E13.94944
G1 X78.179 Y103.177 E13.96958
G1 X77.942 Y103.603 E13.9897
G1 X77.639 Y103.985 E14.00982
G1 X77.278 Y104.313 E14.02994
G1 X76.868 Y104.577 E14.05006
G1 X76.42 Y104.771 E14.07021
G1 X75.947 Y104.889 E14.09033
G1 X75.465 Y104.928 E14.11028
G1 X48.05 Y104.928 E15.24151
G1 X47.564 Y104.888 E15.26164
G1 X47.091 Y104.769 E15.28176
G1 X46.644 Y104.575 E15.30187
G1 X46.234 Y104.31 E15.32201
G1 X45.873 Y103.982 E15.34214
G1 X45.571 Y103.6 E15.36223
G1 X45.335 Y103.173 E15.38236
G1 X45.171 Y102.713 E15.40252
G1 X45.072 Y101.95 E15.43426
G1 X45.072 Y92.05 E15.84277
G1 X45.112 Y91.564 E15.86289
G1 X45.231 Y91.091 E15.88302
G1 X45.425 Y90.644 E15.90313
G1 X45.69 Y90.234 E15.92327
G1 X46.018 Y89.873 E15.9434
G1 X46.4 Y89.571 E15.96349
G1 X46.827 Y89.335 E15.98362
G1 X47.287 Y89.171 E16.00377
G1 X48.05 Y89.072 E16.03552
G1 X161.95 Y89.072 E20.73542
G1 X162.436 Y89.112 E20.75554
G1 X162.909 Y89.231 E20.77566
G1 X163.356 Y89.425 E20.79577
G1 X163.766 Y89.69 E20.81592
G1 X164.127 Y90.018 E20.83604
G1 X164.429 Y90.4 E20.85613
G1 X164.665 Y90.827 E20.87627
G1 X164.829 Y91.287 E20.89642
G1 X164.928 Y92.05 E20.92817
G1 X164.928 Y101.95 E21.33667
G1 X164.888 Y102.436 E21.35679
G1 X164.769 Y102.909 E21.37692
G1 X164.575 Y103.356 E21.39703
G1 X164.31 Y103.766 E21.41717
G1 X163.982 Y104.127 E21.4373
G1 X163.6 Y104.429 E21.45739
G1 X163.173 Y104.665 E21.47752
G1 X162.713 Y104.829 E21.49767
G1 X161.95 Y104.928 E21.52942
G1 X134.536 Y104.928 E22.66062
G1 X134.05 Y104.888 E22.68074
G1 X133.577 Y104.769 E22.70086
G1 X133.13 Y104.575 E22.72097
G1 X132.72 Y104.31 E22.74111
G1 X132.359 Y103.982 E22.76124
G1 X132.057 Y103.6 E22.78133
G1 X131.821 Y103.173 E22.80147
G1 X131.657 Y102.713 E22.82162
G1 X131.572 Y102.233 E22.84173
G1 X131.565 Y101.746 E22.86183
G1 X131.638 Y101.263 E22.88199
G1 X131.786 Y100.807 E22.90177
G1 X132.434 Y99.248 E22.97143
G1 X132.722 Y98.702 E22.99691
G1 X133.225 Y97.928 E23.03499
G1 X116.928 Y97.928 E23.70746
G1 X116.928 Y101.95 E23.87342
G1 X116.888 Y102.436 E23.89355
G1 X116.769 Y102.909 E23.91367
G1 X116.575 Y103.356 E23.93378
G1 X116.31 Y103.766 E23.95392
G1 X115.982 Y104.127 E23.97405
G1 X115.6 Y104.429 E23.99414
G1 X115.173 Y104.665 E24.01428
G1 X114.713 Y104.829 E24.03443
G1 X113.95 Y104.928 E24.06617
G1 X96.05 Y104.928 E24.80479
G1 X95.564 Y104.888 E24.82491
G1 X95.091 Y104.769 E24.84504
G1 X94.644 Y104.575 E24.86514
G1 X94.234 Y104.31 E24.88529
G1 X93.873 Y103.982 E24.90541
G1 X93.571 Y103.6 E24.92551
G1 X93.335 Y103.173 E24.94564
G1 X93.171 Y102.713 E24.96579
G1 X93.072 Y101.95 E24.99754
G1 X93.072 Y97.928 E25.1635
G1 X76.775 Y97.928 E25.83597
G1 X77.277 Y98.7 E25.87397
G1 X77.554 Y99.228 E25.89857
G1 X77.596 Y99.324 E25.90289
G1 X78.213 Y100.803 E25.96902
G1 X78.364 Y101.267 E25.98915
M204 S3000
G0 F4200 X77.984 Y101.389
M204 S500
G1 F1800 X78.044 Y101.839 E26.00789
G1 X78.023 Y102.293 E26.02664
G1 X77.924 Y102.735 E26.04533
G1 X77.748 Y103.154 E26.06408
G1 X77.502 Y103.535 E26.0828
G1 X77.192 Y103.868 E26.10157
G1 X76.83 Y104.141 E26.12028
G1 X76.425 Y104.346 E26.13901
G1 X75.99 Y104.477 E26.15775
G1 X75.465 Y104.531 E26.17953
G1 X48.05 Y104.531 E27.31077
G1 X47.598 Y104.491 E27.32949
G1 X47.16 Y104.373 E27.34821
G1 X46.749 Y104.179 E27.36696
G1 X46.379 Y103.917 E27.38567
G1 X46.06 Y103.593 E27.40443
G1 X45.803 Y103.219 E27.42316
G1 X45.615 Y102.806 E27.44188
G1 X45.503 Y102.366 E27.46062
G1 X45.469 Y101.95 E27.47784
G1 X45.469 Y92.05 E27.88635
G1 X45.509 Y91.598 E27.90507
G1 X45.627 Y91.16 E27.92379
G1 X45.821 Y90.749 E27.94254
G1 X46.083 Y90.379 E27.96125
G1 X46.407 Y90.06 E27.98001
G1 X46.781 Y89.803 E27.99874
G1 X47.194 Y89.615 E28.01746
G1 X47.634 Y89.503 E28.03619
G1 X48.05 Y89.469 E28.05342
G1 X161.95 Y89.469 E32.75331
G1 X162.402 Y89.509 E32.77204
G1 X162.84 Y89.627 E32.79076
G1 X163.251 Y89.821 E32.80951
G1 X163.621 Y90.083 E32.82822
G1 X163.94 Y90.407 E32.84698
G1 X164.197 Y90.781 E32.8657
G1 X164.385 Y91.194 E32.88443
G1 X164.497 Y91.634 E32.90316
G1 X164.531 Y92.05 E32.92038
G1 X164.531 Y101.95 E33.32889
G1 X164.491 Y102.402 E33.34762
G1 X164.373 Y102.84 E33.36633
G1 X164.179 Y103.251 E33.38509
G1 X163.917 Y103.621 E33.40379
G1 X163.593 Y103.94 E33.42256
G1 X163.219 Y104.197 E33.44128
G1 X162.806 Y104.385 E33.46001
G1 X162.366 Y104.497 E33.47874
G1 X161.95 Y104.531 E33.49596
G1 X134.536 Y104.531 E34.62716
G1 X134.084 Y104.491 E34.64588
G1 X133.646 Y104.373 E34.6646
G1 X133.235 Y104.179 E34.68335
G1 X132.865 Y103.917 E34.70206
G1 X132.546 Y103.593 E34.72082
G1 X132.289 Y103.219 E34.73955
G1 X132.101 Y102.806 E34.75827
G1 X131.989 Y102.366 E34.77701
G1 X131.955 Y101.913 E34.79575
G1 X132.002 Y101.462 E34.81446
G1 X132.153 Y100.959 E34.83613
G1 X132.801 Y99.4 E34.9058
G1 X133.055 Y98.918 E34.92828
G1 X133.956 Y97.531 E34.99653
G1 X116.531 Y97.531 E35.71554
G1 X116.531 Y101.95 E35.89788
G1 X116.491 Y102.402 E35.91661
G1 X116.373 Y102.84 E35.93532
G1 X116.179 Y103.251 E35.95408
G1 X115.917 Y103.621 E35.97279
G1 X115.593 Y103.94 E35.99155
G1 X115.219 Y104.197 E36.01027
G1 X114.806 Y104.385 E36.029
G1 X114.366 Y104.497 E36.04773
G1 X113.95 Y104.531 E36.06495
G1 X96.05 Y104.531 E36.80357
G1 X95.598 Y104.491 E36.82229
G1 X95.16 Y104.373 E36.84101
G1 X94.749 Y104.179 E36.85976
G1 X94.379 Y103.917 E36.87847
G1 X94.06 Y103.593 E36.89723
G1 X93.803 Y103.219 E36.91596
G1 X93.615 Y102.806 E36.93468
G1 X93.503 Y102.366 E36.95342
G1 X93.469 Y101.95 E36.97064
G1 X93.469 Y97.531 E37.15298
G1 X76.044 Y97.531 E37.872
G1 X76.944 Y98.916 E37.94015
G1 X77.193 Y99.393 E37.96236
G1 X77.23 Y99.477 E37.96614
G1 X77.847 Y100.956 E38.03227
G1 X77.984 Y101.389 E38.05101
M204 S3000
G0 F4200 X77.604 Y101.508
M204 S500
G1 F1800 X77.649 Y101.923 E38.06823
G1 X77.614 Y102.339 E38.08546
G1 X77.501 Y102.741 E38.10269
G1 X77.313 Y103.114 E38.11993
G1 X77.058 Y103.444 E38.13714
G1 X76.744 Y103.72 E38.15439
G1 X76.384 Y103.931 E38.1716
G1 X75.99 Y104.07 E38.18884
G1 X75.465 Y104.134 E38.21067
G1 X48.05 Y104.134 E39.3419
G1 X47.634 Y104.094 E39.35915
G1 X47.234 Y103.976 E39.37636
G1 X46.863 Y103.784 E39.39359
G1 X46.536 Y103.524 E39.41083
G1 X46.264 Y103.207 E39.42807
G1 X46.058 Y102.845 E39.44525
G1 X45.924 Y102.449 E39.4625
G1 X45.866 Y101.95 E39.48323
G1 X45.866 Y92.05 E39.89174
G1 X45.906 Y91.634 E39.90899
G1 X46.024 Y91.234 E39.92619
G1 X46.216 Y90.863 E39.94343
G1 X46.476 Y90.536 E39.96067
G1 X46.793 Y90.264 E39.9779
G1 X47.155 Y90.058 E39.99509
G1 X47.551 Y89.924 E40.01234
G1 X48.05 Y89.866 E40.03307
G1 X161.95 Y89.866 E44.73297
G1 X162.366 Y89.906 E44.75021
G1 X162.766 Y90.024 E44.76742
G1 X163.137 Y90.216 E44.78466
G1 X163.464 Y90.476 E44.8019
G1 X163.736 Y90.793 E44.81913
G1 X163.942 Y91.155 E44.83632
G1 X164.076 Y91.551 E44.85357
