;FLAVOR:Marlin
;TIME:2908
;Filament used: 2.4717m
;Layer height: 0.2
;MINX:44.454
;MINY:88.454
;MINZ:0.25
;MAXX:165.546
;MAXY:121.546
;MAXZ:7.85
;Generated with Cura_SteamEngine 4.7.1
M140 S60
M105
M190 S60
M104 S200
M105
M109 S200
M82 ;absolute extrusion mode
; Script based on an original created by tjjfvi (https://github.com/tjjfvi)
; An up-to-date version of the tjjfvi's original script can be found
; here:  https://csi.t6.fyi/
; Note - This script will only work in Cura V4.2 and above!
; --- Global Settings
; layer_height = 0.2
; smooth_spiralized_contours = True
; magic_mesh_surface_mode = normal
; machine_extruder_count = 1
; --- Single Extruder Settings
; speed_z_hop = 10
; retraction_amount = 5
; retraction_hop = 0.075
; retraction_hop_enabled = True
; retraction_enable = True
; retraction_speed = 50
; retraction_retract_speed = 50
; retraction_prime_speed = 50
; speed_travel = 120

G21 ;metric values
G90 ;absolute positioning
M82 ;set extruder to absolute mode
M107 ;start with the fan off
G28 X0 Y0 ;move X/Y to min endstops
G28 Z0 ;move Z to min endstops
G1 Z15.0 F120 ;move the platform down 15mm
G92 E0 ;zero the extruded length
G1 F200 E3 ;extrude 3mm of feed stock
G92 E0 ;zero the extruded length again
G1 F120
G0 Y20 F120
M117 Printing...
G5
G92 E0
G92 E0
G1 F3000 E-5
;LAYER_COUNT:39
;LAYER:0
M106 S51
M204 S3000
M205 X10 Y10
G1 F600 Z0.325
G0 F4200 X46.294 Y88.926 Z0.325
M204 S500
;TYPE:SKIRT
G1 F600 Z0.25
G1 F3000 E0.06236
G1 F1800 X46.78 Y88.698 E0.08451
G1 X47.293 Y88.545 E0.1066
G1 X47.958 Y88.464 E0.13425
G1 X48.38 Y88.454 E0.15166
G1 X161.295 Y88.454 E4.81092
G1 X161.993 Y88.464 E4.83972
G1 X162.526 Y88.512 E4.8618
G1 X163.047 Y88.638 E4.88392
G1 X163.544 Y88.841 E4.90607
G1 X164.004 Y89.115 E4.92817
G1 X164.419 Y89.454 E4.95028
G1 X164.779 Y89.851 E4.97239
G1 X165.076 Y90.298 E4.99454
G1 X165.303 Y90.783 E5.01663
G1 X165.455 Y91.297 E5.03875
G1 X165.536 Y91.959 E5.06627
G1 X165.546 Y92.38 E5.08365
G1 X165.546 Y101.274 E5.45064
G1 X165.518 Y103.264 E5.53277
G1 X165.503 Y103.826 E5.55596
G1 X165.535 Y107.962 E5.72663
G1 X165.546 Y108.379 E5.74385
G1 X165.546 Y117.259 E6.11027
G1 X165.537 Y117.986 E6.14027
G1 X165.49 Y118.519 E6.16235
G1 X165.365 Y119.041 E6.18449
G1 X165.163 Y119.537 E6.20659
G1 X164.89 Y119.998 E6.2287
G1 X164.552 Y120.414 E6.25082
G1 X164.155 Y120.775 E6.27296
G1 X163.709 Y121.072 E6.29507
G1 X163.224 Y121.3 E6.31718
G1 X162.711 Y121.454 E6.33929
G1 X162.042 Y121.536 E6.3671
G1 X161.62 Y121.546 E6.38451
G1 X48.711 Y121.546 E11.04352
G1 X48.013 Y121.537 E11.07232
G1 X47.479 Y121.49 E11.09444
G1 X46.958 Y121.364 E11.11656
G1 X46.461 Y121.162 E11.1387
G1 X46 Y120.889 E11.16081
G1 X45.585 Y120.55 E11.18292
G1 X45.224 Y120.154 E11.20503
G1 X44.927 Y119.708 E11.22714
G1 X44.699 Y119.223 E11.24925
G1 X44.546 Y118.709 E11.27138
G1 X44.464 Y118.038 E11.29928
G1 X44.454 Y117.608 E11.31702
G1 X44.454 Y108.706 E11.68435
G1 X44.482 Y106.736 E11.76565
G1 X44.497 Y106.174 E11.78885
G1 X44.465 Y102.026 E11.96001
G1 X44.454 Y101.621 E11.97673
G1 X44.454 Y92.675 E12.34587
G1 X44.463 Y92.01 E12.37331
G1 X44.511 Y91.476 E12.39544
G1 X44.637 Y90.955 E12.41755
G1 X44.839 Y90.459 E12.43965
G1 X45.112 Y89.998 E12.46176
G1 X45.451 Y89.583 E12.48387
G1 X45.848 Y89.223 E12.50599
G1 X46.294 Y88.926 E12.5281
M204 S3000
G0 F4200 X46.668 Y89.178
M204 S500
G1 F1800 X47.139 Y88.995 E12.54895
G1 X47.633 Y88.889 E12.5698
G1 X48.29 Y88.852 E12.59695
G1 X161.289 Y88.851 E17.25967
G1 X161.987 Y88.861 E17.28847
G1 X162.49 Y88.908 E17.30932
G1 X162.98 Y89.034 E17.33019
G1 X163.443 Y89.236 E17.35104
G1 X163.869 Y89.508 E17.37189
G1 X164.247 Y89.843 E17.39273
G1 X164.568 Y90.234 E17.41361
G1 X164.823 Y90.671 E17.43449
G1 X165.005 Y91.142 E17.45532
G1 X165.112 Y91.636 E17.47618
G1 X165.148 Y92.29 E17.50321
G1 X165.149 Y101.268 E17.87367
G1 X165.121 Y103.253 E17.95558
G1 X165.105 Y103.818 E17.97891
G1 X165.137 Y107.909 E18.14772
G1 X165.149 Y108.379 E18.16712
G1 X165.149 Y117.254 E18.53333
G1 X165.14 Y117.981 E18.56333
G1 X165.094 Y118.484 E18.58418
G1 X164.969 Y118.974 E18.60504
G1 X164.768 Y119.438 E18.62591
G1 X164.497 Y119.864 E18.64674
G1 X164.162 Y120.243 E18.66761
G1 X163.772 Y120.564 E18.68846
G1 X163.336 Y120.82 E18.70932
G1 X162.865 Y121.004 E18.73019
G1 X162.371 Y121.111 E18.75104
G1 X161.71 Y121.148 E18.77836
G1 X48.716 Y121.149 E23.44087
G1 X48.018 Y121.14 E23.46968
G1 X47.514 Y121.093 E23.49056
G1 X47.025 Y120.968 E23.51139
G1 X46.561 Y120.767 E23.53225
G1 X46.134 Y120.496 E23.55312
G1 X45.756 Y120.161 E23.57396
G1 X45.435 Y119.771 E23.59481
G1 X45.179 Y119.334 E23.61571
G1 X44.996 Y118.863 E23.63656
G1 X44.889 Y118.369 E23.65741
G1 X44.852 Y117.694 E23.68531
G1 X44.851 Y108.712 E24.05593
G1 X44.879 Y106.747 E24.13703
G1 X44.895 Y106.182 E24.16035
G1 X44.863 Y102.091 E24.32916
G1 X44.851 Y101.621 E24.34856
G1 X44.851 Y92.681 E24.71746
G1 X44.86 Y92.016 E24.7449
G1 X44.907 Y91.512 E24.76579
G1 X45.032 Y91.023 E24.78661
G1 X45.234 Y90.559 E24.80749
G1 X45.505 Y90.133 E24.82833
G1 X45.84 Y89.754 E24.8492
G1 X46.231 Y89.434 E24.87005
G1 X46.668 Y89.178 E24.89095
M204 S3000
G1 F3000 E19.89095
;MESH:test-bottom.stl
G0 F4200 X156.652 Y116.041
M204 S500
;TYPE:WALL-INNER
G1 F3000 E24.95331
G1 F1080 X156.916 Y116.174 E24.96551
G1 X157.177 Y116.305 E24.97756
G1 X157.753 Y116.434 E25.00191
G1 X158.342 Y116.422 E25.02622
G1 X158.913 Y116.271 E25.0506
G1 X159.091 Y116.173 E25.05898
G1 X159.434 Y115.984 E25.07514
G1 X159.865 Y115.581 E25.09949
G1 X160.169 Y115.122 E25.1222
G1 X160.189 Y115.091 E25.12373
G1 X160.385 Y114.538 E25.14794
G1 X160.446 Y113.955 E25.17212
G1 X160.366 Y113.368 E25.19657
G1 X160.174 Y112.894 E25.21767
G1 X160.142 Y112.817 E25.22111
G1 X159.799 Y112.34 E25.24536
G1 X159.348 Y111.959 E25.26972
G1 X158.823 Y111.695 E25.29397
G1 X158.247 Y111.566 E25.31832
G1 X157.658 Y111.578 E25.34263
G1 X157.087 Y111.729 E25.367
G1 X156.566 Y112.016 E25.39155
G1 X156.135 Y112.419 E25.41589
G1 X155.811 Y112.909 E25.44013
G1 X155.615 Y113.462 E25.46434
G1 X155.554 Y114.045 E25.48853
G1 X155.634 Y114.632 E25.51298
G1 X155.858 Y115.183 E25.53752
G1 X156.201 Y115.66 E25.56176
G1 X156.652 Y116.041 E25.58612
M204 S3000
G0 F4200 X156.872 Y115.707
M204 S500
G1 F1080 X157.312 Y115.928 E25.60644
G1 X157.793 Y116.036 E25.62678
G1 X158.287 Y116.026 E25.64717
G1 X158.764 Y115.9 E25.66753
G1 X159.199 Y115.66 E25.68803
G1 X159.56 Y115.323 E25.70841
G1 X159.831 Y114.913 E25.72869
G1 X159.995 Y114.45 E25.74896
G1 X160.046 Y113.961 E25.76924
G1 X159.979 Y113.471 E25.78965
G1 X159.792 Y113.01 E25.81018
G1 X159.505 Y112.612 E25.83043
G1 X159.128 Y112.293 E25.8508
G1 X158.688 Y112.072 E25.87112
G1 X158.207 Y111.964 E25.89146
G1 X157.713 Y111.974 E25.91185
G1 X157.236 Y112.1 E25.93221
G1 X156.801 Y112.34 E25.95271
G1 X156.44 Y112.677 E25.97309
G1 X156.169 Y113.087 E25.99337
G1 X156.005 Y113.55 E26.01363
G1 X155.954 Y114.039 E26.03392
G1 X156.021 Y114.529 E26.05433
G1 X156.208 Y114.99 E26.07486
G1 X156.495 Y115.388 E26.0951
G1 X156.872 Y115.707 E26.11548
M204 S3000
G0 F4200 X157.092 Y115.373
M204 S500
G1 F1080 X157.447 Y115.551 E26.13187
G1 X157.833 Y115.638 E26.1482
G1 X158.232 Y115.63 E26.16466
G1 X158.615 Y115.529 E26.18101
G1 X158.964 Y115.336 E26.19746
G1 X159.255 Y115.065 E26.21387
G1 X159.473 Y114.735 E26.23019
G1 X159.605 Y114.362 E26.24652
G1 X159.646 Y113.968 E26.26286
G1 X159.592 Y113.574 E26.27927
G1 X159.442 Y113.204 E26.29575
G1 X159.211 Y112.884 E26.31203
G1 X158.908 Y112.627 E26.32843
G1 X158.553 Y112.449 E26.34481
G1 X158.167 Y112.362 E26.36114
G1 X157.768 Y112.37 E26.37761
G1 X157.385 Y112.471 E26.39395
G1 X157.036 Y112.664 E26.41041
G1 X156.745 Y112.935 E26.42682
G1 X156.527 Y113.265 E26.44314
G1 X156.395 Y113.638 E26.45946
G1 X156.354 Y114.032 E26.47581
G1 X156.408 Y114.426 E26.49222
G1 X156.558 Y114.796 E26.50869
G1 X156.789 Y115.116 E26.52498
G1 X157.092 Y115.373 E26.54137
M204 S3000
G0 F4200 X157.309 Y115.045
M204 S500
;TYPE:WALL-OUTER
G1 F1080 X157.579 Y115.18 E26.55383
G1 X157.873 Y115.246 E26.56626
G1 X158.177 Y115.24 E26.57881
G1 X158.468 Y115.163 E26.59123
G1 X158.733 Y115.017 E26.60371
G1 X158.954 Y114.811 E26.61618
G1 X159.12 Y114.559 E26.62863
G1 X159.221 Y114.275 E26.64107
G1 X159.252 Y113.975 E26.65352
G1 X159.211 Y113.676 E26.66597
G1 X159.097 Y113.395 E26.67848
G1 X158.921 Y113.151 E26.6909
G1 X158.691 Y112.955 E26.70337
G1 X158.421 Y112.82 E26.71582
G1 X158.127 Y112.754 E26.72825
G1 X157.823 Y112.76 E26.7408
G1 X157.532 Y112.837 E26.75322
G1 X157.267 Y112.983 E26.76571
G1 X157.046 Y113.189 E26.77817
G1 X156.88 Y113.441 E26.79062
G1 X156.779 Y113.725 E26.80306
G1 X156.748 Y114.025 E26.81551
G1 X156.789 Y114.324 E26.82796
G1 X156.903 Y114.605 E26.84047
G1 X157.079 Y114.849 E26.85289
G1 X157.309 Y115.045 E26.86536
M204 S3000
G0 F4200 X157.488 Y115.134
G0 X157.292 Y115.525
G1 F3000 E21.86536
G0 F4200 X53.434 Y115.984
M204 S500
;TYPE:WALL-INNER
G1 F3000 E26.92772
G1 F1080 X53.865 Y115.581 E26.95207
G1 X54.189 Y115.091 E26.97631
G1 X54.385 Y114.538 E27.00052
G1 X54.446 Y113.955 E27.0247
G1 X54.366 Y113.368 E27.04915
G1 X54.142 Y112.817 E27.07369
G1 X53.799 Y112.34 E27.09794
G1 X53.348 Y111.959 E27.1223
G1 X52.823 Y111.695 E27.14655
G1 X52.247 Y111.566 E27.1709
G1 X51.658 Y111.578 E27.19521
G1 X51.087 Y111.729 E27.21958
G1 X50.566 Y112.016 E27.24413
G1 X50.135 Y112.419 E27.26847
G1 X49.831 Y112.878 E27.29119
G1 X49.811 Y112.909 E27.29271
G1 X49.615 Y113.462 E27.31692
G1 X49.554 Y114.045 E27.34111
G1 X49.634 Y114.632 E27.36556
G1 X49.826 Y115.106 E27.38666
G1 X49.858 Y115.183 E27.3901
G1 X50.201 Y115.66 E27.41434
G1 X50.652 Y116.041 E27.4387
G1 X50.916 Y116.174 E27.4509
G1 X51.177 Y116.305 E27.46295
G1 X51.753 Y116.434 E27.48731
G1 X52.342 Y116.422 E27.51162
G1 X52.913 Y116.271 E27.53599
G1 X53.091 Y116.173 E27.54437
G1 X53.434 Y115.984 E27.56053
M204 S3000
G0 F4200 X53.199 Y115.66
M204 S500
G1 F1080 X53.56 Y115.323 E27.58091
G1 X53.831 Y114.913 E27.60119
G1 X53.995 Y114.45 E27.62146
G1 X54.046 Y113.961 E27.64175
G1 X53.979 Y113.471 E27.66215
G1 X53.792 Y113.01 E27.68268
G1 X53.505 Y112.612 E27.70293
G1 X53.128 Y112.293 E27.72331
G1 X52.688 Y112.072 E27.74362
G1 X52.207 Y111.964 E27.76397
G1 X51.713 Y111.974 E27.78435
G1 X51.236 Y112.1 E27.80471
G1 X50.801 Y112.34 E27.82521
G1 X50.44 Y112.677 E27.84559
G1 X50.169 Y113.087 E27.86587
G1 X50.005 Y113.55 E27.88614
G1 X49.954 Y114.039 E27.90643
G1 X50.021 Y114.529 E27.92683
G1 X50.208 Y114.99 E27.94736
G1 X50.495 Y115.388 E27.96761
G1 X50.872 Y115.707 E27.98799
G1 X51.312 Y115.928 E28.0083
G1 X51.793 Y116.036 E28.02864
G1 X52.287 Y116.026 E28.04903
G1 X52.764 Y115.9 E28.06939
G1 X53.199 Y115.66 E28.08989
M204 S3000
G0 F4200 X52.964 Y115.336
M204 S500
G1 F1080 X53.255 Y115.065 E28.1063
G1 X53.473 Y114.735 E28.12262
G1 X53.605 Y114.362 E28.13895
G1 X53.646 Y113.968 E28.15529
G1 X53.592 Y113.574 E28.1717
G1 X53.442 Y113.204 E28.18818
G1 X53.211 Y112.884 E28.20446
G1 X52.908 Y112.627 E28.22086
G1 X52.553 Y112.449 E28.23724
G1 X52.167 Y112.362 E28.25357
G1 X51.768 Y112.37 E28.27004
G1 X51.385 Y112.471 E28.28638
G1 X51.036 Y112.664 E28.30284
G1 X50.745 Y112.935 E28.31925
G1 X50.527 Y113.265 E28.33556
G1 X50.395 Y113.638 E28.35189
G1 X50.354 Y114.032 E28.36824
G1 X50.408 Y114.426 E28.38465
G1 X50.558 Y114.796 E28.40112
G1 X50.789 Y115.116 E28.41741
G1 X51.092 Y115.373 E28.4338
G1 X51.447 Y115.551 E28.45019
G1 X51.833 Y115.638 E28.46651
G1 X52.232 Y115.63 E28.48298
G1 X52.615 Y115.529 E28.49933
G1 X52.964 Y115.336 E28.51578
M204 S3000
G0 F4200 X52.733 Y115.017
M204 S500
;TYPE:WALL-OUTER
G1 F1080 X52.954 Y114.811 E28.52825
G1 X53.12 Y114.559 E28.5407
G1 X53.221 Y114.275 E28.55314
G1 X53.252 Y113.975 E28.56558
G1 X53.211 Y113.676 E28.57804
G1 X53.097 Y113.395 E28.59055
G1 X52.921 Y113.151 E28.60296
G1 X52.691 Y112.955 E28.61543
G1 X52.421 Y112.82 E28.62789
G1 X52.127 Y112.754 E28.64032
G1 X51.823 Y112.76 E28.65287
G1 X51.532 Y112.837 E28.66529
G1 X51.267 Y112.983 E28.67777
G1 X51.046 Y113.189 E28.69024
G1 X50.88 Y113.441 E28.70269
G1 X50.779 Y113.725 E28.71513
G1 X50.748 Y114.025 E28.72758
G1 X50.789 Y114.324 E28.74003
G1 X50.903 Y114.605 E28.75254
G1 X51.079 Y114.849 E28.76496
G1 X51.309 Y115.045 E28.77742
G1 X51.579 Y115.18 E28.78988
G1 X51.873 Y115.246 E28.80231
G1 X52.177 Y115.24 E28.81486
G1 X52.468 Y115.163 E28.82728
G1 X52.733 Y115.017 E28.83977
M204 S3000
G0 F4200 X52.879 Y114.881
G0 X53.175 Y115.2
G1 F3000 E23.83977
G0 F4200 X104.753 Y116.434
M204 S500
;TYPE:WALL-INNER
G1 F3000 E28.90213
G1 F1080 X105.342 Y116.422 E28.92644
G1 X105.913 Y116.271 E28.95081
G1 X106.091 Y116.173 E28.95919
G1 X106.434 Y115.984 E28.97535
G1 X106.865 Y115.581 E28.9997
G1 X107.189 Y115.091 E29.02394
G1 X107.385 Y114.538 E29.04815
G1 X107.446 Y113.955 E29.07234
G1 X107.366 Y113.368 E29.09678
G1 X107.142 Y112.817 E29.12133
G1 X106.799 Y112.34 E29.14557
G1 X106.348 Y111.959 E29.16993
G1 X105.823 Y111.695 E29.19418
G1 X105.247 Y111.566 E29.21854
G1 X104.658 Y111.578 E29.24284
G1 X104.087 Y111.729 E29.26722
G1 X103.566 Y112.016 E29.29176
G1 X103.135 Y112.419 E29.31611
G1 X102.811 Y112.909 E29.34035
G1 X102.615 Y113.462 E29.36456
G1 X102.554 Y114.045 E29.38875
G1 X102.634 Y114.632 E29.41319
G1 X102.858 Y115.183 E29.43773
G1 X103.201 Y115.66 E29.46198
G1 X103.652 Y116.041 E29.48634
G1 X103.916 Y116.174 E29.49854
G1 X104.177 Y116.305 E29.51059
G1 X104.753 Y116.434 E29.53494
M204 S3000
G0 F4200 X104.793 Y116.036
M204 S500
G1 F1080 X105.287 Y116.026 E29.55533
G1 X105.764 Y115.9 E29.57569
G1 X106.199 Y115.66 E29.59619
G1 X106.56 Y115.323 E29.61657
G1 X106.831 Y114.913 E29.63685
G1 X106.995 Y114.45 E29.65711
G1 X107.046 Y113.961 E29.6774
G1 X106.979 Y113.471 E29.69781
G1 X106.792 Y113.01 E29.71834
G1 X106.505 Y112.612 E29.73858
G1 X106.128 Y112.293 E29.75896
G1 X105.688 Y112.072 E29.77928
G1 X105.207 Y111.964 E29.79962
G1 X104.713 Y111.974 E29.82001
G1 X104.236 Y112.1 E29.84037
G1 X103.801 Y112.34 E29.86087
G1 X103.44 Y112.677 E29.88125
G1 X103.169 Y113.087 E29.90153
G1 X103.005 Y113.55 E29.92179
G1 X102.954 Y114.039 E29.94208
G1 X103.021 Y114.529 E29.96249
G1 X103.208 Y114.99 E29.98302
G1 X103.495 Y115.388 E30.00326
G1 X103.872 Y115.707 E30.02364
G1 X104.312 Y115.928 E30.04396
G1 X104.793 Y116.036 E30.0643
M204 S3000
G0 F4200 X104.833 Y115.638
M204 S500
G1 F1080 X105.232 Y115.63 E30.08077
G1 X105.615 Y115.529 E30.09711
G1 X105.964 Y115.336 E30.11357
G1 X106.255 Y115.065 E30.12998
G1 X106.473 Y114.735 E30.1463
G1 X106.605 Y114.362 E30.16262
G1 X106.646 Y113.968 E30.17897
G1 X106.592 Y113.574 E30.19538
G1 X106.442 Y113.204 E30.21185
G1 X106.211 Y112.884 E30.22814
G1 X105.908 Y112.627 E30.24453
G1 X105.553 Y112.449 E30.26092
G1 X105.167 Y112.362 E30.27725
G1 X104.768 Y112.37 E30.29371
G1 X104.385 Y112.471 E30.31006
G1 X104.036 Y112.664 E30.32651
G1 X103.745 Y112.935 E30.34292
G1 X103.527 Y113.265 E30.35924
G1 X103.395 Y113.638 E30.37557
G1 X103.354 Y114.032 E30.39191
G1 X103.408 Y114.426 E30.40832
G1 X103.558 Y114.796 E30.4248
G1 X103.789 Y115.116 E30.44108
G1 X104.092 Y115.373 E30.45748
G1 X104.447 Y115.551 E30.47386
G1 X104.833 Y115.638 E30.49019
M204 S3000
G0 F4200 X104.873 Y115.246
M204 S500
;TYPE:WALL-OUTER
G1 F1080 X105.177 Y115.24 E30.50274
G1 X105.468 Y115.163 E30.51516
G1 X105.733 Y115.017 E30.52764
G1 X105.954 Y114.811 E30.54011
G1 X106.12 Y114.559 E30.55256
G1 X106.221 Y114.275 E30.565
G1 X106.252 Y113.975 E30.57744
G1 X106.211 Y113.676 E30.5899
G1 X106.097 Y113.395 E30.60241
G1 X105.921 Y113.151 E30.61482
G1 X105.691 Y112.955 E30.62729
G1 X105.421 Y112.82 E30.63975
G1 X105.127 Y112.754 E30.65218
G1 X104.823 Y112.76 E30.66473
G1 X104.532 Y112.837 E30.67715
G1 X104.267 Y112.983 E30.68964
G1 X104.046 Y113.189 E30.7021
G1 X103.88 Y113.441 E30.71455
G1 X103.779 Y113.725 E30.72699
G1 X103.748 Y114.025 E30.73944
G1 X103.789 Y114.324 E30.75189
G1 X103.903 Y114.605 E30.7644
G1 X104.079 Y114.849 E30.77682
G1 X104.309 Y115.045 E30.78929
G1 X104.579 Y115.18 E30.80174
G1 X104.873 Y115.246 E30.81418
M204 S3000
G0 F4200 X105.073 Y115.243
G0 X105.08 Y115.679
G1 F3000 E25.81418
G0 F4200 X97.438 Y116.438
M204 S500
;TYPE:WALL-INNER
G1 F3000 E30.87654
G1 F1080 X97.438 Y109.438 E31.16538
