;FLAVOR:Marlin
;TIME:4036
;Filament used: 3.4893m
;Layer height: 0.2
;MINX:61.454
;MINY:84.7
;MINZ:0.25
;MAXX:148.546
;MAXY:160.046
;MAXZ:12.85
;Generated with Cura_SteamEngine 4.7.1
M140 S60
M105
M190 S60
M104 S200
M105
M109 S200
M82 ;absolute extrusion mode
; Script based on an original created by tjjfvi (https://github.com/tjjfvi)
; An up-to-date version of the tjjfvi's original script can be found
; here:  https://csi.t6.fyi/
; Note - This script will only work in Cura V4.2 and above!
; --- Global Settings
; layer_height = 0.2
; smooth_spiralized_contours = True
; magic_mesh_surface_mode = normal
; machine_extruder_count = 1
; --- Single Extruder Settings
; speed_z_hop = 10
; retraction_amount = 5
; retraction_hop = 0.075
; retraction_hop_enabled = True
; retraction_enable = True
; retraction_speed = 50
; retraction_retract_speed = 50
; retraction_prime_speed = 50
; speed_travel = 120

G21 ;metric values
G90 ;absolute positioning
M82 ;set extruder to absolute mode
M107 ;start with the fan off
G28 X0 Y0 ;move X/Y to min endstops
G28 Z0 ;move Z to min endstops
G1 Z15.0 F120 ;move the platform down 15mm
G92 E0 ;zero the extruded length
G1 F200 E3 ;extrude 3mm of feed stock
G92 E0 ;zero the extruded length again
G1 F120
G0 Y20 F120
M117 Printing...
G5
G92 E0
G92 E0
G1 F3000 E-5
;LAYER_COUNT:64
;LAYER:0
M106 S51
M204 S3000
M205 X10 Y10
G1 F600 Z0.325
G0 F4200 X62.853 Y86.718 Z0.325
M204 S500
;TYPE:SKIRT
G1 F600 Z0.25
G1 F3000 E0.06236
G1 F1800 X63.3 Y86.421 E0.08451
G1 X63.569 Y86.284 E0.09696
G1 X64.052 Y86.065 E0.11885
G1 X65.889 Y85.201 E0.20261
G1 X66.279 Y85.026 E0.22025
G1 X66.98 Y84.795 E0.25071
G1 X67.658 Y84.71 E0.2789
G1 X68.078 Y84.7 E0.29624
G1 X71.596 Y84.7 E0.4414
G1 X72.293 Y84.71 E0.47017
G1 X72.682 Y84.736 E0.48625
G1 X75.441 Y85.049 E0.60083
G1 X78.169 Y85.281 E0.7138
G1 X80.855 Y85.433 E0.82481
G1 X83.624 Y85.511 E0.93912
G1 X86.317 Y85.511 E1.05024
G1 X89.083 Y85.433 E1.16442
G1 X91.775 Y85.28 E1.27568
G1 X94.489 Y85.049 E1.38807
G1 X95.954 Y84.892 E1.44887
G1 X97.352 Y84.732 E1.50693
G1 X97.977 Y84.701 E1.53275
G1 X101.595 Y84.7 E1.68204
G1 X102.298 Y84.71 E1.71106
G1 X102.807 Y84.754 E1.73214
G1 X102.98 Y84.781 E1.73936
G1 X105.701 Y85.169 E1.85278
G1 X108.418 Y85.478 E1.96561
G1 X111.144 Y85.711 E2.0785
G1 X113.835 Y85.865 E2.18973
G1 X116.612 Y85.944 E2.30436
G1 X118 Y85.954 E2.36164
G1 X144.3 Y85.954 E3.44686
G1 X144.998 Y85.965 E3.47567
G1 X145.531 Y86.014 E3.49775
G1 X146.052 Y86.141 E3.51988
G1 X146.548 Y86.344 E3.542
G1 X147.008 Y86.619 E3.56411
G1 X147.423 Y86.959 E3.58625
G1 X147.782 Y87.356 E3.60833
G1 X148.078 Y87.803 E3.63046
G1 X148.305 Y88.289 E3.65259
G1 X148.456 Y88.803 E3.6747
G1 X148.536 Y89.46 E3.70201
G1 X148.546 Y89.88 E3.71934
G1 X148.546 Y119.782 E4.9532
G1 X148.518 Y121.751 E5.03445
G1 X148.518 Y124.501 E5.14793
G1 X148.546 Y125.863 E5.20414
G1 X148.546 Y155.759 E6.43775
G1 X148.537 Y156.486 E6.46775
G1 X148.49 Y157.019 E6.48983
G1 X148.365 Y157.541 E6.51198
G1 X148.163 Y158.037 E6.53408
G1 X147.89 Y158.498 E6.55618
G1 X147.552 Y158.914 E6.5783
G1 X147.155 Y159.275 E6.60044
G1 X146.709 Y159.572 E6.62255
G1 X146.224 Y159.8 E6.64467
G1 X145.711 Y159.954 E6.66677
G1 X145.042 Y160.036 E6.69458
G1 X144.62 Y160.046 E6.712
G1 X89.678 Y160.046 E8.97909
G1 X88.991 Y160.036 E9.00744
G1 X88.457 Y159.988 E9.02956
G1 X87.936 Y159.861 E9.05169
G1 X87.44 Y159.659 E9.07379
G1 X86.979 Y159.385 E9.09592
G1 X86.564 Y159.045 E9.11806
G1 X86.361 Y158.835 E9.13011
G1 X85.613 Y157.996 E9.17649
G1 X62.781 Y131.359 E10.62414
G1 X62.299 Y130.781 E10.65519
G1 X61.988 Y130.345 E10.67729
G1 X61.744 Y129.867 E10.69944
G1 X61.575 Y129.359 E10.72153
G1 X61.482 Y128.831 E10.74365
G1 X61.465 Y128.532 E10.75601
G1 X61.454 Y127.803 E10.78609
G1 X61.454 Y126.201 E10.8522
G1 X61.465 Y125.492 E10.88146
G1 X61.508 Y124.991 E10.90221
G1 X61.666 Y123.983 E10.94431
G1 X62.052 Y121.279 E11.05701
G1 X62.361 Y118.57 E11.16952
G1 X62.593 Y115.849 E11.28221
G1 X62.747 Y113.155 E11.39355
G1 X62.826 Y110.393 E11.50757
G1 X62.826 Y107.695 E11.6189
G1 X62.749 Y104.928 E11.73312
G1 X62.598 Y102.242 E11.84412
G1 X62.367 Y99.518 E11.95693
G1 X62.061 Y96.82 E12.06897
G1 X61.642 Y93.887 E12.19123
G1 X61.509 Y93.039 E12.22665
G1 X61.465 Y92.535 E12.24752
G1 X61.454 Y91.803 E12.27773
G1 X61.454 Y90.17 E12.34511
G1 X61.464 Y89.503 E12.37264
G1 X61.512 Y88.969 E12.39476
G1 X61.639 Y88.448 E12.41689
G1 X61.842 Y87.952 E12.439
G1 X62.116 Y87.492 E12.4611
G1 X62.456 Y87.077 E12.48323
G1 X62.853 Y86.718 E12.50532
M204 S3000
G0 F4200 X63.236 Y86.929
M204 S500
G1 F1800 X63.734 Y86.646 E12.52896
G1 X64.186 Y86.44 E12.54945
G1 X66.051 Y85.563 E12.63449
G1 X66.441 Y85.388 E12.65213
G1 X67.066 Y85.182 E12.67929
G1 X67.669 Y85.107 E12.70436
G1 X68.078 Y85.097 E12.72124
G1 X71.59 Y85.097 E12.86616
G1 X72.287 Y85.107 E12.89492
G1 X72.638 Y85.13 E12.90944
G1 X75.437 Y85.448 E13.02568
G1 X78.112 Y85.675 E13.13645
G1 X80.858 Y85.83 E13.24994
G1 X83.613 Y85.908 E13.36367
G1 X86.329 Y85.908 E13.47574
G1 X89.082 Y85.83 E13.58938
G1 X91.831 Y85.674 E13.703
G1 X94.521 Y85.445 E13.8144
G1 X96.01 Y85.286 E13.87619
G1 X97.397 Y85.127 E13.93379
G1 X97.988 Y85.098 E13.95821
G1 X101.59 Y85.097 E14.10684
G1 X102.293 Y85.107 E14.13585
G1 X102.928 Y85.175 E14.1622
G1 X105.671 Y85.566 E14.27653
G1 X108.375 Y85.873 E14.38883
G1 X111.089 Y86.106 E14.50123
G1 X113.835 Y86.262 E14.61472
G1 X116.598 Y86.341 E14.72878
G1 X117.997 Y86.351 E14.78651
G1 X144.293 Y86.351 E15.87157
G1 X144.991 Y86.362 E15.90037
G1 X145.495 Y86.41 E15.92126
G1 X145.984 Y86.537 E15.94211
G1 X146.447 Y86.739 E15.96295
G1 X146.873 Y87.011 E15.98381
G1 X147.251 Y87.348 E16.00471
G1 X147.57 Y87.739 E16.02553
G1 X147.825 Y88.176 E16.04641
G1 X148.007 Y88.647 E16.06724
G1 X148.112 Y89.142 E16.08812
G1 X148.148 Y89.79 E16.1149
G1 X148.149 Y119.776 E17.35222
G1 X148.121 Y121.745 E17.43348
G1 X148.121 Y124.528 E17.54832
G1 X148.149 Y125.863 E17.60341
G1 X148.149 Y155.754 E18.83682
G1 X148.14 Y156.481 E18.86682
G1 X148.094 Y156.984 E18.88766
G1 X147.969 Y157.474 E18.90853
G1 X147.768 Y157.938 E18.92939
G1 X147.497 Y158.364 E18.95023
G1 X147.162 Y158.743 E18.9711
G1 X146.772 Y159.064 E18.99194
G1 X146.336 Y159.32 E19.0128
G1 X145.865 Y159.504 E19.03367
G1 X145.371 Y159.611 E19.05453
G1 X144.71 Y159.648 E19.08184
G1 X89.683 Y159.649 E21.35244
G1 X88.996 Y159.639 E21.38079
G1 X88.493 Y159.591 E21.40164
G1 X88.004 Y159.465 E21.42248
G1 X87.54 Y159.264 E21.44335
G1 X87.114 Y158.992 E21.4642
G1 X86.657 Y158.571 E21.48984
G1 X85.914 Y157.738 E21.5359
G1 X63.086 Y131.105 E22.98332
G1 X62.604 Y130.527 E23.01437
G1 X62.312 Y130.114 E23.03524
G1 X62.089 Y129.661 E23.05608
G1 X61.939 Y129.178 E23.07695
G1 X61.862 Y128.526 E23.10404
G1 X61.851 Y127.797 E23.13412
G1 X61.851 Y126.207 E23.19973
G1 X61.862 Y125.498 E23.22899
G1 X61.901 Y125.053 E23.24742
G1 X62.052 Y124.088 E23.28773
G1 X62.448 Y121.314 E23.40335
G1 X62.755 Y118.616 E23.5154
G1 X62.988 Y115.902 E23.6278
G1 X63.144 Y113.155 E23.74133
G1 X63.223 Y110.404 E23.85489
G1 X63.223 Y107.684 E23.96713
G1 X63.146 Y104.931 E24.08077
G1 X62.994 Y102.22 E24.19281
G1 X62.762 Y99.479 E24.30632
G1 X62.452 Y96.752 E24.41957
G1 X62.035 Y93.831 E24.54132
G1 X61.901 Y92.978 E24.57695
G1 X61.862 Y92.529 E24.59555
G1 X61.851 Y91.797 E24.62576
G1 X61.851 Y90.176 E24.69264
G1 X61.861 Y89.509 E24.72017
G1 X61.909 Y89.006 E24.74102
G1 X62.035 Y88.516 E24.7619
G1 X62.237 Y88.053 E24.78274
G1 X62.509 Y87.627 E24.8036
G1 X62.845 Y87.249 E24.82447
G1 X63.236 Y86.929 E24.84531
M204 S3000
G1 F3000 E19.84531
G0 F4200 X72.053 Y88.657
M204 S500
;TYPE:SUPPORT
G1 F3000 E24.90768
G1 F1080 X67.946 Y88.657 E25.07715
G1 X67.946 Y88.494 E25.08387
G1 X72.053 Y88.494 E25.25334
G1 X72.053 Y88.657 E25.26007
M204 S3000
G1 F3000 E20.26007
G0 F4200 X97.976 Y88.657
M204 S500
G1 F3000 E25.32243
G1 F1080 X97.947 Y88.657 E25.32363
G1 X97.947 Y88.494 E25.33035
G1 X98.139 Y88.494 E25.33827
G1 X97.976 Y88.657 E25.34779
M204 S3000
G1 F3000 E20.34779
G0 F4200 X102.053 Y124.657
M204 S500
G1 F3000 E25.41015
G1 F1080 X100.584 Y124.657 E25.47076
G1 X100.747 Y124.494 E25.48028
G1 X102.053 Y124.494 E25.53417
G1 X102.053 Y124.657 E25.54089
M204 S3000
G1 F3000 E20.54089
;MESH:TestStand.stl(1)
G0 F4200 X140.271 Y98.415
M204 S500
;TYPE:WALL-INNER
G1 F3000 E25.60325
G1 F1080 X140.751 Y98.534 E25.62366
G1 X141.249 Y98.534 E25.64421
G1 X141.729 Y98.415 E25.66462
G1 X142.164 Y98.185 E25.68492
G1 X142.534 Y97.858 E25.7053
G1 X142.814 Y97.452 E25.72565
G1 X142.991 Y96.989 E25.7461
G1 X143.048 Y96.5 E25.76641
G1 X142.991 Y96.011 E25.78673
G1 X142.814 Y95.548 E25.80718
G1 X142.534 Y95.142 E25.82753
G1 X142.164 Y94.815 E25.84791
G1 X141.729 Y94.585 E25.86821
G1 X141.249 Y94.466 E25.88862
G1 X140.751 Y94.466 E25.90917
G1 X140.272 Y94.585 E25.92953
G1 X139.865 Y94.799 E25.94851
G1 X139.472 Y95.133 E25.96979
G1 X139.186 Y95.548 E25.99059
G1 X139.009 Y96.011 E26.01104
G1 X138.952 Y96.5 E26.03135
G1 X139.009 Y96.989 E26.05167
G1 X139.186 Y97.452 E26.07212
G1 X139.466 Y97.858 E26.09247
G1 X139.836 Y98.185 E26.11285
G1 X140.271 Y98.415 E26.13315
M204 S3000
G0 F4200 X140.414 Y98.041
M204 S500
G1 F1080 X140.8 Y98.137 E26.14956
G1 X141.2 Y98.137 E26.16607
G1 X141.586 Y98.041 E26.18248
G1 X141.937 Y97.856 E26.19886
G1 X142.235 Y97.593 E26.21526
G1 X142.46 Y97.266 E26.23163
G1 X142.602 Y96.894 E26.24806
G1 X142.648 Y96.5 E26.26443
G1 X142.602 Y96.106 E26.2808
G1 X142.46 Y95.734 E26.29723
G1 X142.235 Y95.407 E26.31361
G1 X141.937 Y95.144 E26.33001
G1 X141.586 Y94.959 E26.34638
G1 X141.2 Y94.863 E26.3628
G1 X140.8 Y94.863 E26.3793
G1 X140.414 Y94.959 E26.39571
G1 X140.089 Y95.13 E26.41087
G1 X139.769 Y95.402 E26.4282
G1 X139.54 Y95.734 E26.44484
G1 X139.398 Y96.106 E26.46127
G1 X139.352 Y96.5 E26.47764
G1 X139.398 Y96.894 E26.49401
G1 X139.54 Y97.266 E26.51044
G1 X139.765 Y97.593 E26.52681
G1 X140.063 Y97.856 E26.54322
G1 X140.414 Y98.041 E26.55959
M204 S3000
G0 F4200 X140.554 Y97.673
M204 S500
;TYPE:WALL-OUTER
G1 F1080 X140.848 Y97.746 E26.57209
G1 X141.152 Y97.746 E26.58463
G1 X141.446 Y97.673 E26.59713
G1 X141.713 Y97.532 E26.60959
G1 X141.94 Y97.332 E26.62207
G1 X142.111 Y97.083 E26.63454
G1 X142.219 Y96.8 E26.64704
G1 X142.254 Y96.5 E26.6595
G1 X142.219 Y96.2 E26.67196
G1 X142.111 Y95.917 E26.68446
G1 X141.94 Y95.668 E26.69693
G1 X141.713 Y95.468 E26.70941
G1 X141.446 Y95.327 E26.72187
G1 X141.152 Y95.254 E26.73437
G1 X140.848 Y95.254 E26.74691
G1 X140.554 Y95.327 E26.75941
G1 X140.309 Y95.456 E26.77084
G1 X140.062 Y95.666 E26.78422
G1 X139.889 Y95.917 E26.79679
G1 X139.781 Y96.2 E26.80929
G1 X139.746 Y96.5 E26.82176
G1 X139.781 Y96.8 E26.83422
G1 X139.889 Y97.083 E26.84672
G1 X140.06 Y97.332 E26.85918
G1 X140.287 Y97.532 E26.87167
G1 X140.554 Y97.673 E26.88413
M204 S3000
G0 F4200 X140.748 Y97.721
G0 X140.642 Y98.145
G1 F3000 E21.88413
G0 F4200 X140.271 Y118.415
M204 S500
;TYPE:WALL-INNER
G1 F3000 E26.94649
G1 F1080 X140.751 Y118.534 E26.96689
G1 X141.249 Y118.534 E26.98744
G1 X141.729 Y118.415 E27.00785
G1 X142.164 Y118.185 E27.02815
G1 X142.534 Y117.858 E27.04853
G1 X142.814 Y117.452 E27.06888
G1 X142.991 Y116.989 E27.08933
G1 X143.048 Y116.5 E27.10965
G1 X142.991 Y116.011 E27.12996
G1 X142.814 Y115.548 E27.15042
G1 X142.534 Y115.142 E27.17077
G1 X142.164 Y114.815 E27.19114
G1 X141.729 Y114.585 E27.21145
G1 X141.249 Y114.466 E27.23185
G1 X140.751 Y114.466 E27.2524
G1 X140.272 Y114.585 E27.27277
G1 X139.865 Y114.799 E27.29174
G1 X139.472 Y115.133 E27.31302
G1 X139.186 Y115.548 E27.33382
G1 X139.009 Y116.011 E27.35427
G1 X138.952 Y116.5 E27.37459
G1 X139.009 Y116.989 E27.3949
G1 X139.186 Y117.452 E27.41536
G1 X139.466 Y117.858 E27.43571
G1 X139.836 Y118.185 E27.45608
G1 X140.271 Y118.415 E27.47639
M204 S3000
G0 F4200 X140.414 Y118.041
M204 S500
G1 F1080 X140.8 Y118.137 E27.4928
G1 X141.2 Y118.137 E27.5093
G1 X141.586 Y118.041 E27.52572
G1 X141.937 Y117.856 E27.54209
G1 X142.235 Y117.593 E27.55849
G1 X142.46 Y117.266 E27.57487
G1 X142.602 Y116.894 E27.5913
G1 X142.648 Y116.5 E27.60767
G1 X142.602 Y116.106 E27.62403
G1 X142.46 Y115.734 E27.64046
G1 X142.235 Y115.407 E27.65684
G1 X141.937 Y115.144 E27.67324
G1 X141.586 Y114.959 E27.68962
G1 X141.2 Y114.863 E27.70603
G1 X140.8 Y114.863 E27.72253
G1 X140.414 Y114.959 E27.73895
G1 X140.089 Y115.13 E27.7541
G1 X139.769 Y115.402 E27.77143
G1 X139.54 Y115.734 E27.78807
G1 X139.398 Y116.106 E27.8045
G1 X139.352 Y116.5 E27.82087
G1 X139.398 Y116.894 E27.83724
G1 X139.54 Y117.266 E27.85367
G1 X139.765 Y117.593 E27.87005
G1 X140.063 Y117.856 E27.88645
G1 X140.414 Y118.041 E27.90282
M204 S3000
G0 F4200 X140.554 Y117.673
M204 S500
;TYPE:WALL-OUTER
G1 F1080 X140.848 Y117.746 E27.91532
G1 X141.152 Y117.746 E27.92786
G1 X141.446 Y117.673 E27.94036
G1 X141.713 Y117.532 E27.95282
G1 X141.94 Y117.332 E27.96531
G1 X142.111 Y117.083 E27.97777
G1 X142.219 Y116.8 E27.99027
G1 X142.254 Y116.5 E28.00273
G1 X142.219 Y116.2 E28.0152
G1 X142.111 Y115.917 E28.0277
G1 X141.94 Y115.668 E28.04016
G1 X141.713 Y115.468 E28.05264
G1 X141.446 Y115.327 E28.0651
G1 X141.152 Y115.254 E28.0776
G1 X140.848 Y115.254 E28.09015
G1 X140.554 Y115.327 E28.10265
G1 X140.309 Y115.456 E28.11407
G1 X140.062 Y115.666 E28.12745
G1 X139.889 Y115.917 E28.14003
G1 X139.781 Y116.2 E28.15253
G1 X139.746 Y116.5 E28.16499
G1 X139.781 Y116.8 E28.17745
G1 X139.889 Y117.083 E28.18995
G1 X140.06 Y117.332 E28.20242
G1 X140.287 Y117.532 E28.2149
G1 X140.554 Y117.673 E28.22736
M204 S3000
G0 F4200 X140.748 Y117.721
G0 X140.642 Y118.145
G1 F3000 E23.22736
G0 F4200 X136.681 Y118.727
M204 S500
;TYPE:WALL-INNER
G1 F3000 E28.28972
G1 F1080 X138.041 Y118.224 E28.34955
G1 X138.041 Y93.459 E29.37144
G1 X116.623 Y93.459 E30.25522
G1 X116.059 Y94.668 E30.31027
G1 X136.681 Y118.727 E31.6178
M204 S3000
G0 F4200 X136.803 Y118.259
M204 S500
G1 F1080 X137.644 Y117.948 E31.6548
G1 X137.644 Y93.856 E32.64892
G1 X116.876 Y93.856 E33.50588
G1 X116.527 Y94.604 E33.53994
G1 X136.803 Y118.259 E34.82552
M204 S3000
G0 F4200 X136.923 Y117.798
M204 S500
;TYPE:WALL-OUTER
G1 F1080 X137.253 Y117.676 E34.84004
G1 X137.253 Y117.614 E34.8426
G1 X137.253 Y94.247 E35.8068
G1 X117.204 Y94.247 E36.63409
G1 X117.125 Y94.247 E36.63735
G1 X116.988 Y94.541 E36.65073
G1 X117.039 Y94.6 E36.65395
G1 X136.883 Y117.751 E37.91215
G1 X136.923 Y117.798 E37.91469
M204 S3000
G0 F4200 X137.111 Y117.729
G0 X137.261 Y118.138
G1 F3000 E32.91469
G0 F4200 X120.187 Y118.541
M204 S500
;TYPE:WALL-INNER
G1 F3000 E37.97706
G1 F1080 X133.712 Y118.541 E38.53514
G1 X134.276 Y117.332 E38.59019
G1 X113.813 Y93.459 E39.88763
G1 X100.288 Y93.459 E40.44572
G1 X99.724 Y94.668 E40.50077
G1 X120.187 Y118.541 E41.79821
M204 S3000
G0 F4200 X120.37 Y118.144
M204 S500
G1 F1080 X133.459 Y118.144 E42.3383
G1 X133.808 Y117.396 E42.37236
G1 X113.63 Y93.856 E43.65171
G1 X100.541 Y93.856 E44.19181
G1 X100.192 Y94.604 E44.22587
G1 X120.37 Y118.144 E45.50522
M204 S3000
G0 F4200 X120.55 Y117.753
M204 S500
;TYPE:WALL-OUTER
G1 F1080 X133.131 Y117.753 E46.02436
G1 X133.21 Y117.753 E46.02762
G1 X133.347 Y117.459 E46.041
G1 X133.296 Y117.4 E46.04422
G1 X113.45 Y94.247 E47.30253
G1 X100.869 Y94.247 E47.82166
G1 X100.79 Y94.247 E47.82492
G1 X100.653 Y94.541 E47.83831
G1 X100.704 Y94.6 E47.84153
G1 X120.55 Y117.753 E49.09984
M204 S3000
G0 F4200 X120.75 Y117.753
G0 X120.75 Y118.189
G1 F3000 E44.09984
G0 F4200 X93.249 Y118.534
M204 S500
;TYPE:WALL-INNER
G1 F3000 E49.1622
G1 F1080 X93.729 Y118.415 E49.18261
G1 X94.164 Y118.185 E49.20291
G1 X94.534 Y117.858 E49.22329
G1 X94.814 Y117.452 E49.24364
G1 X94.991 Y116.989 E49.26409
G1 X95.048 Y116.5 E49.28441
G1 X94.991 Y116.011 E49.30472
G1 X94.814 Y115.548 E49.32517
G1 X94.534 Y115.142 E49.34552
G1 X94.164 Y114.815 E49.3659
G1 X93.729 Y114.585 E49.3862
G1 X93.249 Y114.466 E49.40661
G1 X92.751 Y114.466 E49.42716
G1 X92.272 Y114.585 E49.44752
G1 X91.865 Y114.799 E49.4665
G1 X91.472 Y115.133 E49.48778
G1 X91.186 Y115.548 E49.50858
G1 X91.009 Y116.011 E49.52903
G1 X90.952 Y116.5 E49.54935
G1 X91.009 Y116.989 E49.56966
G1 X91.186 Y117.452 E49.59011
G1 X91.466 Y117.858 E49.61046
G1 X91.836 Y118.185 E49.63084
G1 X92.271 Y118.415 E49.65114
G1 X92.751 Y118.534 E49.67155
