;FLAVOR:Marlin
;TIME:2477
;Filament used: 2.86912m
;Layer height: 0.3
;MINX:43.454
;MINY:73.954
;MINZ:0.25
;MAXX:166.546
;MAXY:136.046
;MAXZ:7.75
;Generated with Cura_SteamEngine 4.7.1
M140 S60
M105
M190 S60
M104 S200
M105
M109 S200
M82 ;absolute extrusion mode
; Script based on an original created by tjjfvi (https://github.com/tjjfvi)
; An up-to-date version of the tjjfvi's original script can be found
; here:  https://csi.t6.fyi/
; Note - This script will only work in Cura V4.2 and above!
; --- Global Settings
; layer_height = 0.3
; smooth_spiralized_contours = True
; magic_mesh_surface_mode = normal
; machine_extruder_count = 1
; --- Single Extruder Settings
; speed_z_hop = 10
; retraction_amount = 5
; retraction_hop = 0.075
; retraction_hop_enabled = True
; retraction_enable = True
; retraction_speed = 50
; retraction_retract_speed = 50
; retraction_prime_speed = 50
; speed_travel = 120

G21 ;metric values
G90 ;absolute positioning
M82 ;set extruder to absolute mode
M107 ;start with the fan off
G28 X0 Y0 ;move X/Y to min endstops
G28 Z0 ;move Z to min endstops
G1 Z15.0 F120 ;move the platform down 15mm
G92 E0 ;zero the extruded length
G1 F200 E3 ;extrude 3mm of feed stock
G92 E0 ;zero the extruded length again
G1 F120
G0 Y20 F120
M117 Printing...
G5
G92 E0
G92 E0
G1 F3000 E-5
;LAYER_COUNT:26
;LAYER:0
M106 S51
M204 S3000
M205 X10 Y10
G1 F600 Z0.325
G0 F4200 X45.293 Y74.427 Z0.325
M204 S500
;TYPE:SKIRT
G1 F600 Z0.25
G1 F3000 E0.06236
G1 F1800 X45.778 Y74.199 E0.08448
G1 X46.292 Y74.046 E0.10661
G1 X46.958 Y73.964 E0.13429
G1 X47.38 Y73.954 E0.15171
G1 X122.334 Y73.954 E3.24457
G1 X123.016 Y73.964 E3.27271
G1 X123.55 Y74.012 E3.29483
G1 X124.07 Y74.139 E3.31692
G1 X124.505 Y74.311 E3.33622
G1 X125.407 Y74.739 E3.37742
G1 X164.006 Y94.039 E5.15815
G1 X164.591 Y94.342 E5.18533
G1 X165.047 Y94.623 E5.20744
G1 X165.456 Y94.969 E5.22954
G1 X165.81 Y95.372 E5.25168
G1 X166.099 Y95.823 E5.27378
G1 X166.319 Y96.312 E5.2959
G1 X166.463 Y96.828 E5.31801
G1 X166.533 Y97.476 E5.3449
G1 X166.546 Y98.268 E5.37759
G1 X166.546 Y111.783 E5.93526
G1 X166.536 Y112.509 E5.96522
G1 X166.488 Y113.042 E5.98731
G1 X166.362 Y113.563 E6.00942
G1 X166.16 Y114.06 E6.03156
G1 X165.886 Y114.521 E6.05369
G1 X165.547 Y114.936 E6.0758
G1 X165.15 Y115.296 E6.09791
G1 X164.601 Y115.648 E6.12482
G1 X163.803 Y116.063 E6.16194
G1 X125.152 Y135.388 E7.94505
G1 X124.566 Y135.67 E7.97188
G1 X124.067 Y135.866 E7.99401
G1 X123.545 Y135.986 E8.01611
G1 X123.08 Y136.025 E8.03536
G1 X122.016 Y136.046 E8.07927
G1 X47.705 Y136.046 E11.1456
G1 X47.007 Y136.036 E11.1744
G1 X46.474 Y135.988 E11.19648
G1 X45.953 Y135.862 E11.2186
G1 X45.456 Y135.659 E11.24075
G1 X44.996 Y135.385 E11.26285
G1 X44.581 Y135.046 E11.28496
G1 X44.221 Y134.649 E11.30707
G1 X43.924 Y134.202 E11.32922
G1 X43.697 Y133.717 E11.35131
G1 X43.545 Y133.203 E11.37343
G1 X43.464 Y132.537 E11.40111
G1 X43.454 Y132.108 E11.41882
G1 X43.454 Y78.201 E13.6432
G1 X43.463 Y77.512 E13.67164
G1 X43.51 Y76.978 E13.69376
G1 X43.636 Y76.457 E13.71587
G1 X43.838 Y75.961 E13.73797
G1 X44.111 Y75.5 E13.76008
G1 X44.45 Y75.084 E13.78222
G1 X44.847 Y74.724 E13.80434
G1 X45.293 Y74.427 E13.82645
M204 S3000
G0 F4200 X45.666 Y74.679
M204 S500
G1 F1800 X46.137 Y74.496 E13.8473
G1 X46.631 Y74.389 E13.86816
G1 X47.29 Y74.352 E13.89539
G1 X122.328 Y74.351 E16.99171
G1 X123.01 Y74.361 E17.01986
G1 X123.513 Y74.409 E17.04071
G1 X124.003 Y74.535 E17.06158
G1 X124.334 Y74.67 E17.07633
G1 X125.296 Y75.127 E17.12028
G1 X163.823 Y94.391 E18.89769
G1 X164.408 Y94.694 E18.92487
G1 X164.837 Y94.962 E18.94574
G1 X165.219 Y95.293 E18.9666
G1 X165.544 Y95.681 E18.98749
G1 X165.803 Y96.114 E19.00831
G1 X165.991 Y96.584 E19.02919
G1 X166.103 Y97.077 E19.05005
G1 X166.136 Y97.482 E19.06682
G1 X166.149 Y98.274 E19.09951
G1 X166.149 Y111.777 E19.65669
G1 X166.139 Y112.503 E19.68665
G1 X166.092 Y113.006 E19.70749
G1 X165.966 Y113.496 E19.72837
G1 X165.765 Y113.96 E19.74923
G1 X165.493 Y114.386 E19.77009
G1 X165.158 Y114.764 E19.79093
G1 X164.767 Y115.085 E19.81181
G1 X164.418 Y115.296 E19.82863
G1 X163.626 Y115.708 E19.86547
G1 X124.98 Y135.031 E21.64836
G1 X124.394 Y135.313 E21.67519
G1 X123.923 Y135.495 E21.69603
G1 X123.429 Y135.601 E21.71688
G1 X123.072 Y135.628 E21.73165
G1 X122.016 Y135.649 E21.77523
G1 X47.711 Y135.649 E24.84131
G1 X47.013 Y135.639 E24.87011
G1 X46.51 Y135.592 E24.89096
G1 X46.02 Y135.466 E24.91183
G1 X45.557 Y135.264 E24.93268
G1 X45.131 Y134.992 E24.95353
G1 X44.753 Y134.657 E24.97438
G1 X44.432 Y134.266 E24.99525
G1 X44.177 Y133.829 E25.01613
G1 X43.995 Y133.358 E25.03696
G1 X43.888 Y132.864 E25.05782
G1 X43.852 Y132.195 E25.08547
G1 X43.851 Y78.206 E27.31323
G1 X43.86 Y77.517 E27.34167
G1 X43.907 Y77.014 E27.36251
G1 X44.032 Y76.524 E27.38338
G1 X44.233 Y76.06 E27.40424
G1 X44.504 Y75.634 E27.42508
G1 X44.839 Y75.255 E27.44595
G1 X45.23 Y74.934 E27.46682
G1 X45.666 Y74.679 E27.48767
M204 S3000
G1 F3000 E22.48767
;MESH:tip-midpart-test.stl
G0 F4200 X50.099 Y130.258
M204 S500
;TYPE:WALL-INNER
G1 F3000 E27.55003
G1 F1080 X78.169 Y106.704 E29.06205
G1 X77.861 Y105.856 E29.09927
G1 X49.356 Y105.856 E30.27549
G1 X49.356 Y129.909 E31.26799
G1 X50.099 Y130.258 E31.30187
M204 S3000
G0 F4200 X50.039 Y129.798
M204 S500
;TYPE:WALL-OUTER
G1 F1080 X50.1 Y129.747 E31.30515
G1 X77.663 Y106.617 E32.78989
G1 X77.708 Y106.58 E32.79229
G1 X77.587 Y106.247 E32.80691
G1 X77.528 Y106.247 E32.80935
G1 X49.747 Y106.247 E33.95569
G1 X49.747 Y129.581 E34.91853
G1 X49.747 Y129.661 E34.92183
G1 X50.039 Y129.798 E34.93514
M204 S3000
G0 F4200 X50.1 Y129.747
G0 X50.192 Y129.67
G0 X50.471 Y130.003
G1 F3000 E29.93514
G0 F4200 X117.989 Y104.144
M204 S500
;TYPE:WALL-INNER
G1 F3000 E34.9975
G1 F1080 X160.644 Y104.144 E36.75759
G1 X160.644 Y98.956 E36.97166
G1 X122.444 Y79.856 E38.73397
G1 X90.362 Y79.856 E40.05778
G1 X90.054 Y80.704 E40.09501
G1 X117.989 Y104.144 E41.59974
M204 S3000
G0 F4200 X118.131 Y103.753
M204 S500
;TYPE:WALL-OUTER
G1 F1080 X160.253 Y103.753 E43.33783
G1 X160.253 Y99.198 E43.52579
G1 X122.352 Y80.247 E45.27432
G1 X90.695 Y80.247 E46.58059
G1 X90.636 Y80.247 E46.58302
G1 X90.515 Y80.58 E46.59764
G1 X90.56 Y80.617 E46.60005
G1 X118.131 Y103.753 E48.0852
M204 S3000
G0 F4200 X118.331 Y103.753
G0 X118.331 Y104.189
G1 F3000 E43.0852
G0 F4200 X114.007 Y104.144
M204 S500
;TYPE:WALL-INNER
G1 F3000 E48.14757
G1 F1080 X114.315 Y103.296 E48.18479
G1 X86.38 Y79.856 E49.68952
G1 X54.216 Y79.856 E51.01671
G1 X53.908 Y80.704 E51.05394
G1 X81.844 Y104.144 E52.5587
G1 X114.007 Y104.144 E53.88585
M204 S3000
G0 F4200 X113.733 Y103.753
M204 S500
;TYPE:WALL-OUTER
G1 F1080 X113.854 Y103.42 E53.90047
G1 X113.809 Y103.383 E53.90288
G1 X86.238 Y80.247 E55.38803
G1 X54.549 Y80.247 E56.69563
G1 X54.49 Y80.247 E56.69806
G1 X54.369 Y80.58 E56.71268
G1 X54.414 Y80.617 E56.71509
G1 X81.986 Y103.753 E58.20027
G1 X113.674 Y103.753 E59.50783
G1 X113.733 Y103.753 E59.51026
M204 S3000
G0 F4200 X113.801 Y103.565
G0 X114.211 Y103.715
G1 F3000 E54.51026
G0 F4200 X77.861 Y104.144
M204 S500
;TYPE:WALL-INNER
G1 F3000 E59.57263
G1 F1080 X78.169 Y103.296 E59.60985
G1 X50.099 Y79.742 E61.12187
G1 X49.356 Y80.091 E61.15574
G1 X49.356 Y104.144 E62.14825
G1 X77.861 Y104.144 E63.32446
M204 S3000
G0 F4200 X77.587 Y103.753
M204 S500
;TYPE:WALL-OUTER
G1 F1080 X77.708 Y103.42 E63.33908
G1 X77.663 Y103.383 E63.34149
G1 X50.1 Y80.253 E64.82623
G1 X50.039 Y80.202 E64.82951
G1 X49.747 Y80.339 E64.84282
G1 X49.747 Y80.419 E64.84612
G1 X49.747 Y103.753 E65.80896
G1 X77.528 Y103.753 E66.9553
G1 X77.587 Y103.753 E66.95773
M204 S3000
G0 F4200 X77.655 Y103.565
G0 X78.065 Y103.715
G1 F3000 E61.95773
G0 F4200 X86.38 Y130.144
M204 S500
;TYPE:WALL-INNER
G1 F3000 E67.02009
G1 F1080 X114.315 Y106.704 E68.52482
G1 X114.007 Y105.856 E68.56205
G1 X81.844 Y105.856 E69.8892
G1 X53.908 Y129.296 E71.39396
G1 X54.216 Y130.144 E71.43119
G1 X86.38 Y130.144 E72.75838
M204 S3000
G0 F4200 X86.238 Y129.753
M204 S500
;TYPE:WALL-OUTER
G1 F1080 X113.809 Y106.617 E74.24354
G1 X113.854 Y106.58 E74.24594
G1 X113.733 Y106.247 E74.26056
G1 X113.674 Y106.247 E74.263
G1 X81.986 Y106.247 E75.57055
G1 X54.414 Y129.383 E77.05574
G1 X54.369 Y129.42 E77.05814
G1 X54.49 Y129.753 E77.07276
G1 X54.549 Y129.753 E77.0752
G1 X86.238 Y129.753 E78.38279
M204 S3000
G0 F4200 X86.391 Y129.625
G0 X86.67 Y129.958
G1 F3000 E73.38279
G0 F4200 X90.362 Y130.144
M204 S500
;TYPE:WALL-INNER
G1 F3000 E78.44515
G1 F1080 X122.444 Y130.144 E79.76896
G1 X160.644 Y111.044 E81.53128
G1 X160.644 Y105.856 E81.74535
G1 X117.989 Y105.856 E83.50544
G1 X90.054 Y129.296 E85.01016
G1 X90.362 Y130.144 E85.04739
M204 S3000
G0 F4200 X90.636 Y129.753
M204 S500
;TYPE:WALL-OUTER
G1 F1080 X90.695 Y129.753 E85.04983
G1 X122.352 Y129.753 E86.3561
G1 X160.253 Y110.802 E88.10463
G1 X160.253 Y106.247 E88.29258
G1 X118.131 Y106.247 E90.03068
G1 X90.56 Y129.383 E91.51584
G1 X90.515 Y129.42 E91.51824
G1 X90.636 Y129.753 E91.53286
M204 S3000
G0 F4200 X90.695 Y129.753
G0 X90.836 Y129.753
G0 X90.836 Y130.189
G1 F3000 E86.53286
G0 F4200 X122.846 Y131.856
M204 S500
;TYPE:WALL-INNER
G1 F3000 E91.59522
G1 F1080 X47.644 Y131.856 E94.69831
G1 X47.644 Y78.144 E96.91465
G1 X122.846 Y78.144 E100.01773
G1 X162.356 Y97.899 E101.84048
G1 X162.356 Y112.101 E102.4265
G1 X122.846 Y131.856 E104.24925
M204 S3000
G0 F4200 X122.939 Y132.247
M204 S500
;TYPE:WALL-OUTER
G1 F1080 X47.253 Y132.247 E107.37231
G1 X47.253 Y77.753 E109.62091
G1 X122.939 Y77.753 E112.74397
G1 X162.747 Y97.657 E114.58047
G1 X162.747 Y112.343 E115.18646
G1 X122.939 Y132.247 E117.02296
M204 S3000
G0 F4200 X122.739 Y132.247
G0 X122.739 Y131.811
G0 X122.752 Y131.464
M204 S500
;TYPE:SKIN
G1 F1080 X48.036 Y131.464 E120.19141
G1 X48.036 Y78.536 E122.43591
G1 X122.752 Y78.536 E125.60437
G1 X161.964 Y98.142 E127.46349
G1 X161.964 Y111.858 E128.04514
G1 X122.752 Y131.464 E129.90427
M204 S3000
G0 F4200 X122.537 Y130.536
M204 S500
G1 F1080 X161.036 Y111.286 E131.7296
G1 X161.036 Y105.464 E131.97649
G1 X117.846 Y105.464 E133.80803
G1 X89.592 Y129.172 E135.37212
G1 X90.087 Y130.536 E135.43365
G1 X122.537 Y130.536 E136.80975
M204 S3000
G1 F3000 E131.80975
G0 F4200 X114.777 Y106.828
M204 S500
G1 F3000 E136.87211
G1 F1080 X114.282 Y105.464 E136.93364
G1 X81.701 Y105.464 E138.3153
G1 X53.446 Y129.172 E139.87942
G1 X53.941 Y130.536 E139.94095
G1 X86.523 Y130.536 E141.32264
G1 X114.777 Y106.828 E142.88673
M204 S3000
G1 F3000 E137.88673
G0 F4200 X114.282 Y104.536
M204 S500
G1 F3000 E142.94909
G1 F1080 X114.777 Y103.172 E143.01063
G1 X86.523 Y79.464 E144.57471
G1 X53.941 Y79.464 E145.95641
G1 X53.446 Y80.828 E146.01794
G1 X81.701 Y104.536 E147.58206
G1 X114.282 Y104.536 E148.96371
M204 S3000
G1 F3000 E143.96371
G0 F4200 X117.846 Y104.536
M204 S500
G1 F3000 E149.02607
G1 F1080 X161.036 Y104.536 E150.85762
G1 X161.036 Y98.714 E151.10451
G1 X122.537 Y79.464 E152.92984
G1 X90.087 Y79.464 E154.30593
G1 X89.592 Y80.828 E154.36747
G1 X117.846 Y104.536 E155.93156
M204 S3000
G1 F3000 E150.93156
G0 F4200 X78.631 Y106.828
M204 S500
G1 F3000 E155.99392
G1 F1080 X78.136 Y105.464 E156.05545
G1 X48.964 Y105.464 E157.29254
G1 X48.964 Y130.158 E158.33973
G1 X50.159 Y130.719 E158.39571
G1 X78.631 Y106.828 E159.97187
M204 S3000
G1 F3000 E154.97187
G0 F4200 X78.136 Y104.536
M204 S500
G1 F3000 E160.03423
G1 F1080 X78.631 Y103.172 E160.09577
G1 X50.159 Y79.281 E161.67192
G1 X48.964 Y79.842 E161.7279
G1 X48.964 Y104.536 E162.77509
G1 X78.136 Y104.536 E164.01218
M204 S3000
G1 F3000 E159.01218
G0 F4200 X48.78 Y131.291
M204 S500
G1 F3000 E164.07454
G1 F1080 X48.207 Y130.718 E164.10891
M204 S3000
G0 F4200 X48.207 Y130.141
M204 S500
G1 F1080 X49.357 Y131.291 E164.17788
M204 S3000
G0 F4200 X49.934 Y131.291
M204 S500
G1 F1080 X49.013 Y130.369 E164.23314
M204 S3000
G0 F4200 X48.791 Y130.148
M204 S500
G1 F1080 X48.207 Y129.564 E164.26816
M204 S3000
G0 F4200 X48.207 Y128.987
M204 S500
G1 F1080 X48.791 Y129.571 E164.30319
M204 S3000
G0 F4200 X48.791 Y128.994
M204 S500
G1 F1080 X48.207 Y128.41 E164.33821
M204 S3000
G0 F4200 X48.207 Y127.833
M204 S500
G1 F1080 X48.791 Y128.417 E164.37324
M204 S3000
G0 F4200 X48.791 Y127.84
M204 S500
G1 F1080 X48.207 Y127.256 E164.40826
M204 S3000
G0 F4200 X48.207 Y126.679
M204 S500
G1 F1080 X48.791 Y127.263 E164.44328
M204 S3000
G0 F4200 X48.791 Y126.686
M204 S500
G1 F1080 X48.207 Y126.102 E164.47831
M204 S3000
G0 F4200 X48.207 Y125.525
M204 S500
G1 F1080 X48.791 Y126.109 E164.51333
M204 S3000
G0 F4200 X48.791 Y125.532
M204 S500
G1 F1080 X48.207 Y124.948 E164.54835
M204 S3000
G0 F4200 X48.207 Y124.371
M204 S500
G1 F1080 X48.791 Y124.955 E164.58338
M204 S3000
G0 F4200 X48.791 Y124.378
M204 S500
G1 F1080 X48.207 Y123.794 E164.6184
M204 S3000
G0 F4200 X48.207 Y123.217
M204 S500
G1 F1080 X48.791 Y123.801 E164.65343
M204 S3000
G0 F4200 X48.791 Y123.224
M204 S500
G1 F1080 X48.207 Y122.64 E164.68845
M204 S3000
G0 F4200 X48.207 Y122.063
M204 S500
G1 F1080 X48.791 Y122.647 E164.72347
M204 S3000
G0 F4200 X48.791 Y122.07
M204 S500
G1 F1080 X48.207 Y121.486 E164.7585
M204 S3000
G0 F4200 X48.207 Y120.909
M204 S500
G1 F1080 X48.791 Y121.493 E164.79352
M204 S3000
G0 F4200 X48.791 Y120.916
M204 S500
G1 F1080 X48.207 Y120.332 E164.82854
M204 S3000
G0 F4200 X48.207 Y119.755
M204 S500
G1 F1080 X48.791 Y120.339 E164.86357
M204 S3000
G0 F4200 X48.791 Y119.762
M204 S500
G1 F1080 X48.207 Y119.178 E164.89859
M204 S3000
G0 F4200 X48.207 Y118.601
M204 S500
G1 F1080 X48.791 Y119.185 E164.93361
M204 S3000
G0 F4200 X48.791 Y118.608
M204 S500
G1 F1080 X48.207 Y118.024 E164.96864
M204 S3000
G0 F4200 X48.207 Y117.447
M204 S500
G1 F1080 X48.791 Y118.031 E165.00366
M204 S3000
G0 F4200 X48.791 Y117.454
M204 S500
G1 F1080 X48.207 Y116.87 E165.03869
M204 S3000
G0 F4200 X48.207 Y116.293
M204 S500
G1 F1080 X48.791 Y116.877 E165.07371
M204 S3000
G0 F4200 X48.791 Y116.3
M204 S500
G1 F1080 X48.207 Y115.716 E165.10873
M204 S3000
G0 F4200 X48.207 Y115.139
M204 S500
G1 F1080 X48.791 Y115.723 E165.14376
M204 S3000
G0 F4200 X48.791 Y115.146
M204 S500
G1 F1080 X48.207 Y114.562 E165.17878
M204 S3000
G0 F4200 X48.207 Y113.985
M204 S500
G1 F1080 X48.791 Y114.569 E165.2138
M204 S3000
G0 F4200 X48.791 Y113.992
M204 S500
G1 F1080 X48.207 Y113.408 E165.24883
M204 S3000
G0 F4200 X48.207 Y112.831
M204 S500
G1 F1080 X48.791 Y113.415 E165.28385
M204 S3000
G0 F4200 X48.791 Y112.838
M204 S500
G1 F1080 X48.207 Y112.254 E165.31888
M204 S3000
G0 F4200 X48.207 Y111.677
M204 S500
G1 F1080 X48.791 Y112.261 E165.3539
M204 S3000
G0 F4200 X48.791 Y111.684
M204 S500
G1 F1080 X48.207 Y111.1 E165.38892
M204 S3000
G0 F4200 X48.207 Y110.523
M204 S500
G1 F1080 X48.791 Y111.107 E165.42395
M204 S3000
G0 F4200 X48.791 Y110.53
M204 S500
G1 F1080 X48.207 Y109.946 E165.45897
M204 S3000
G0 F4200 X48.207 Y109.369
M204 S500
G1 F1080 X48.791 Y109.953 E165.49399
M204 S3000
G0 F4200 X48.791 Y109.376
M204 S500
G1 F1080 X48.207 Y108.792 E165.52902
M204 S3000
G0 F4200 X48.207 Y108.215
M204 S500
G1 F1080 X48.791 Y108.799 E165.56404
M204 S3000
G0 F4200 X48.791 Y108.222
M204 S500
G1 F1080 X48.207 Y107.638 E165.59907
M204 S3000
G0 F4200 X48.207 Y107.061
M204 S500
G1 F1080 X48.791 Y107.645 E165.63409
M204 S3000
G0 F4200 X48.791 Y107.068
M204 S500
G1 F1080 X48.207 Y106.484 E165.66911
M204 S3000
G0 F4200 X48.207 Y105.907
M204 S500
G1 F1080 X48.791 Y106.491 E165.70414
M204 S3000
G0 F4200 X48.791 Y105.914
M204 S500
G1 F1080 X48.207 Y105.33 E165.73916
M204 S3000
G0 F4200 X48.207 Y104.753
M204 S500
G1 F1080 X48.791 Y105.337 E165.77418
M204 S3000
G0 F4200 X49.322 Y105.291
M204 S500
G1 F1080 X48.207 Y104.176 E165.84105
M204 S3000
G0 F4200 X48.207 Y103.599
M204 S500
G1 F1080 X48.791 Y104.183 E165.87608
M204 S3000
G0 F4200 X48.791 Y103.606
M204 S500
G1 F1080 X48.207 Y103.022 E165.9111
M204 S3000
G0 F4200 X48.207 Y102.445
M204 S500
G1 F1080 X48.791 Y103.029 E165.94612
M204 S3000
G0 F4200 X48.791 Y102.452
M204 S500
G1 F1080 X48.207 Y101.868 E165.98115
M204 S3000
G0 F4200 X48.207 Y101.291
M204 S500
G1 F1080 X48.791 Y101.875 E166.01617
M204 S3000
G0 F4200 X48.791 Y101.298
M204 S500
G1 F1080 X48.207 Y100.714 E166.05119
M204 S3000
G0 F4200 X48.207 Y100.137
M204 S500
G1 F1080 X48.791 Y100.721 E166.08622
M204 S3000
