;FLAVOR:Marlin
;TIME:3964
;Filament used: 3.37787m
;Layer height: 0.2
;MINX:45.589
;MINY:60.174
;MINZ:0.25
;MAXX:166.733
;MAXY:120.923
;MAXZ:5.85
;Generated with Cura_SteamEngine 4.8.0
M140 S60
M105
M190 S60
M104 S200
M105
M109 S200
M82 ;absolute extrusion mode
G21 ;metric values
G90 ;absolute positioning
M82 ;set extruder to absolute mode
M107 ;start with the fan off
G28 X0 Y0 ;move X/Y to min endstops
G28 Z0 ;move Z to min endstops
G1 Z15.0 F120 ;move the platform down 15mm
G92 E0 ;zero the extruded length
G1 F200 E3 ;extrude 3mm of feed stock
G92 E0 ;zero the extruded length again
G1 F120
G0 Y20 F120
M117 Printing...
G5
G92 E0
G92 E0
G1 F3000 E-5
;LAYER_COUNT:29
;LAYER:0
M106 S51
M204 S3000
M205 X10 Y10
G1 F600 Z0.325
G0 F4200 X49.109 Y69.816 Z0.325
M204 S400
;TYPE:SKIRT
G1 F600 Z0.25
G1 F3000 E0.06236
G1 F1800 X49.513 Y69.542 E0.08251
G1 X49.956 Y69.338 E0.10263
G1 X50.652 Y69.175 E0.13213
G1 X132.511 Y60.192 E3.53018
G1 X132.836 Y60.174 E3.54361
G1 X150.823 Y60.174 E4.28582
G1 X151.085 Y60.186 E4.29664
G1 X153.342 Y60.385 E4.39013
G1 X153.849 Y60.474 E4.41137
G1 X156.01 Y61.052 E4.50368
G1 X156.498 Y61.23 E4.52511
G1 X158.546 Y62.184 E4.61834
G1 X158.996 Y62.443 E4.63976
G1 X160.843 Y63.735 E4.73277
G1 X161.24 Y64.068 E4.75415
G1 X162.834 Y65.66 E4.84711
G1 X163.169 Y66.058 E4.86858
G1 X164.475 Y67.922 E4.96249
G1 X164.735 Y68.373 E4.98397
G1 X165.688 Y70.417 E5.07703
G1 X165.866 Y70.906 E5.0985
G1 X166.444 Y73.067 E5.19081
G1 X166.537 Y73.593 E5.21285
G1 X166.733 Y75.827 E5.30539
G1 X166.732 Y76.367 E5.32767
G1 X166.533 Y78.619 E5.42096
G1 X166.444 Y79.127 E5.44224
G1 X165.867 Y81.284 E5.53437
G1 X165.69 Y81.771 E5.55575
G1 X164.736 Y83.82 E5.64902
G1 X164.476 Y84.27 E5.67046
G1 X163.185 Y86.115 E5.76338
G1 X162.853 Y86.512 E5.78473
G1 X161.257 Y88.111 E5.87796
G1 X160.858 Y88.446 E5.89945
G1 X158.998 Y89.749 E5.99316
G1 X158.547 Y90.009 E6.01464
G1 X156.498 Y90.964 E6.10793
G1 X156.009 Y91.142 E6.1294
G1 X153.851 Y91.719 E6.22157
G1 X153.345 Y91.808 E6.24277
G1 X151.086 Y92.008 E6.33635
G1 X150.823 Y92.02 E6.34721
G1 X132.825 Y92.019 E7.08987
G1 X132.5 Y92.001 E7.1033
G1 X50.652 Y83.019 E10.5009
G1 X50.173 Y82.927 E10.52103
G1 X49.716 Y82.757 E10.54115
G1 X49.293 Y82.515 E10.56126
G1 X48.756 Y82.042 E10.59079
G1 X48.362 Y81.541 E10.61709
G1 X48.135 Y81.109 E10.63722
G1 X47.982 Y80.646 E10.65734
G1 X47.899 Y79.947 E10.68639
G1 X47.899 Y72.247 E11.00412
G1 X47.939 Y71.761 E11.02424
G1 X48.058 Y71.288 E11.04436
G1 X48.252 Y70.841 E11.06447
G1 X48.656 Y70.264 E11.09354
G1 X49.109 Y69.816 E11.11983
M204 S3000
G0 F4200 X49.383 Y70.105
M204 S400
G1 F1800 X49.763 Y69.857 E11.13855
G1 X50.181 Y69.68 E11.15728
G1 X50.695 Y69.569 E11.17898
G1 X132.554 Y60.586 E14.57703
G1 X132.836 Y60.571 E14.58869
G1 X150.823 Y60.571 E15.33089
G1 X151.05 Y60.581 E15.34027
G1 X153.307 Y60.78 E15.43376
G1 X153.747 Y60.858 E15.4522
G1 X155.908 Y61.436 E15.5445
G1 X156.331 Y61.589 E15.56306
G1 X158.379 Y62.543 E15.65629
G1 X158.768 Y62.768 E15.67483
G1 X160.615 Y64.06 E15.76784
G1 X160.96 Y64.349 E15.78641
G1 X162.554 Y65.941 E15.87937
G1 X162.844 Y66.286 E15.89797
G1 X164.15 Y68.15 E15.99188
G1 X164.375 Y68.54 E16.01046
G1 X165.328 Y70.584 E16.10352
G1 X165.482 Y71.008 E16.12214
G1 X166.06 Y73.169 E16.21444
G1 X166.141 Y73.627 E16.23363
G1 X166.337 Y75.861 E16.32617
G1 X166.337 Y76.332 E16.3456
G1 X166.138 Y78.584 E16.43889
G1 X166.06 Y79.024 E16.45733
G1 X165.483 Y81.181 E16.54946
G1 X165.33 Y81.603 E16.56799
G1 X164.376 Y83.652 E16.66125
G1 X164.151 Y84.043 E16.67986
G1 X162.86 Y85.888 E16.77278
G1 X162.572 Y86.231 E16.79126
G1 X160.976 Y87.83 E16.88449
G1 X160.63 Y88.121 E16.90314
G1 X158.77 Y89.424 E16.99685
G1 X158.379 Y89.649 E17.01546
G1 X156.33 Y90.604 E17.10875
G1 X155.907 Y90.758 E17.12732
G1 X153.749 Y91.335 E17.2195
G1 X153.31 Y91.413 E17.23789
G1 X151.051 Y91.613 E17.33147
G1 X150.823 Y91.623 E17.34089
G1 X132.825 Y91.622 E18.08355
G1 X132.543 Y91.607 E18.0952
G1 X50.695 Y82.625 E21.4928
G1 X50.25 Y82.536 E21.51152
G1 X49.828 Y82.37 E21.53024
G1 X49.441 Y82.133 E21.54896
G1 X49.052 Y81.778 E21.57069
G1 X48.68 Y81.302 E21.59562
G1 X48.477 Y80.896 E21.61435
G1 X48.348 Y80.461 E21.63307
G1 X48.296 Y79.947 E21.65439
G1 X48.296 Y72.247 E21.97212
G1 X48.336 Y71.795 E21.99084
G1 X48.454 Y71.357 E22.00956
G1 X48.648 Y70.946 E22.02831
G1 X48.952 Y70.528 E22.04964
G1 X49.383 Y70.105 E22.07456
M204 S3000
G0 F4200 X49.654 Y70.397
M204 S400
G1 F1800 X50.009 Y70.177 E22.09179
G1 X50.4 Y70.029 E22.10904
G1 X50.739 Y69.964 E22.12329
G1 X132.598 Y60.981 E25.52134
G1 X132.836 Y60.968 E25.53118
G1 X150.823 Y60.968 E26.27338
G1 X151.015 Y60.976 E26.28131
G1 X153.272 Y61.175 E26.3748
G1 X153.644 Y61.241 E26.39039
G1 X155.805 Y61.819 E26.4827
G1 X156.163 Y61.949 E26.49841
G1 X158.211 Y62.903 E26.59164
G1 X158.541 Y63.093 E26.60735
G1 X160.388 Y64.385 E26.70036
G1 X160.679 Y64.63 E26.71606
G1 X162.273 Y66.222 E26.80902
G1 X162.519 Y66.514 E26.82477
G1 X163.825 Y68.378 E26.91869
G1 X164.015 Y68.708 E26.9344
G1 X164.968 Y70.752 E27.02746
G1 X165.099 Y71.111 E27.04323
G1 X165.677 Y73.272 E27.13553
G1 X165.746 Y73.662 E27.15188
G1 X165.942 Y75.896 E27.24441
G1 X165.942 Y76.297 E27.26096
G1 X165.743 Y78.549 E27.35425
G1 X165.677 Y78.921 E27.36983
G1 X165.1 Y81.078 E27.46197
G1 X164.97 Y81.436 E27.47769
G1 X164.016 Y83.485 E27.57095
G1 X163.825 Y83.815 E27.58668
G1 X162.534 Y85.66 E27.6796
G1 X162.291 Y85.951 E27.69524
G1 X160.695 Y87.55 E27.78847
G1 X160.402 Y87.796 E27.80425
G1 X158.542 Y89.099 E27.89796
G1 X158.212 Y89.29 E27.91369
G1 X156.163 Y90.245 E28.00698
G1 X155.804 Y90.375 E28.02273
G1 X153.646 Y90.952 E28.1149
G1 X153.275 Y91.017 E28.13045
G1 X151.016 Y91.217 E28.22403
G1 X150.823 Y91.226 E28.232
G1 X132.825 Y91.225 E28.97466
G1 X132.587 Y91.212 E28.98449
G1 X50.739 Y82.23 E32.38209
G1 X50.33 Y82.145 E32.39933
G1 X49.945 Y81.984 E32.41655
G1 X49.597 Y81.752 E32.4338
G1 X49.248 Y81.402 E32.4542
G1 X49.001 Y81.065 E32.47144
G1 X48.822 Y80.688 E32.48866
G1 X48.719 Y80.283 E32.5059
G1 X48.693 Y79.947 E32.51981
G1 X48.693 Y72.247 E32.83754
G1 X48.733 Y71.831 E32.85478
G1 X48.851 Y71.431 E32.87199
G1 X49.043 Y71.06 E32.88923
G1 X49.348 Y70.68 E32.90934
G1 X49.654 Y70.397 E32.92653
M204 S3000
G0 F4200 X49.924 Y70.691
M204 S400
G1 F1800 X50.251 Y70.502 E32.94212
G1 X50.782 Y70.359 E32.96481
G1 X132.641 Y61.376 E36.36286
G1 X132.836 Y61.365 E36.37092
G1 X150.823 Y61.365 E37.11313
G1 X150.98 Y61.372 E37.11961
G1 X153.237 Y61.571 E37.21311
G1 X153.542 Y61.625 E37.22589
G1 X155.703 Y62.203 E37.31819
G1 X155.996 Y62.309 E37.33105
G1 X158.044 Y63.263 E37.42427
G1 X158.313 Y63.419 E37.43711
G1 X160.16 Y64.711 E37.53011
G1 X160.399 Y64.911 E37.54297
G1 X161.993 Y66.503 E37.63593
G1 X162.194 Y66.742 E37.64882
G1 X163.5 Y68.606 E37.74273
G1 X163.656 Y68.876 E37.7556
G1 X164.609 Y70.92 E37.84866
G1 X164.715 Y71.213 E37.86152
G1 X165.293 Y73.374 E37.95382
G1 X165.35 Y73.697 E37.96736
G1 X165.546 Y75.931 E38.05989
G1 X165.546 Y76.262 E38.07355
G1 X165.347 Y78.514 E38.16684
G1 X165.293 Y78.819 E38.17962
G1 X164.716 Y80.976 E38.27175
G1 X164.61 Y81.268 E38.28457
G1 X163.656 Y83.317 E38.37784
G1 X163.5 Y83.588 E38.39074
G1 X162.209 Y85.433 E38.48366
G1 X162.01 Y85.67 E38.49643
G1 X160.414 Y87.269 E38.58965
G1 X160.174 Y87.471 E38.60259
G1 X158.314 Y88.774 E38.6963
G1 X158.044 Y88.93 E38.70917
G1 X155.995 Y89.885 E38.80245
G1 X155.702 Y89.991 E38.81531
G1 X153.544 Y90.568 E38.90748
G1 X153.24 Y90.622 E38.92022
G1 X150.981 Y90.822 E39.0138
G1 X150.823 Y90.829 E39.02033
G1 X132.825 Y90.828 E39.76298
G1 X132.63 Y90.817 E39.77104
G1 X50.782 Y81.835 E43.16864
G1 X50.413 Y81.755 E43.18422
G1 X50.07 Y81.598 E43.19979
G1 X49.644 Y81.249 E43.22251
G1 X49.324 Y80.831 E43.24423
G1 X49.173 Y80.484 E43.25985
G1 X49.09 Y79.947 E43.28227
G1 X49.09 Y72.247 E43.6
G1 X49.13 Y71.872 E43.61556
G1 X49.248 Y71.513 E43.63115
G1 X49.544 Y71.057 E43.65358
G1 X49.924 Y70.691 E43.67535
M204 S3000
G0 F4200 X50.19 Y70.989
M204 S400
G1 F1800 X50.485 Y70.835 E43.68909
G1 X50.825 Y70.753 E43.70352
G1 X132.684 Y61.77 E47.10157
G1 X132.836 Y61.762 E47.10785
G1 X150.823 Y61.762 E47.85006
G1 X150.945 Y61.767 E47.8551
G1 X153.202 Y61.966 E47.94859
G1 X153.439 Y62.008 E47.95852
G1 X155.6 Y62.586 E48.05082
G1 X155.828 Y62.669 E48.06084
G1 X157.876 Y63.623 E48.15406
G1 X158.086 Y63.744 E48.16406
G1 X159.933 Y65.036 E48.25707
G1 X160.118 Y65.192 E48.26706
G1 X161.712 Y66.784 E48.36002
G1 X161.868 Y66.969 E48.37
G1 X163.174 Y68.833 E48.46392
G1 X163.296 Y69.044 E48.47398
G1 X164.249 Y71.088 E48.56703
G1 X164.332 Y71.316 E48.57705
G1 X164.91 Y73.477 E48.66935
G1 X164.955 Y73.732 E48.68004
G1 X165.151 Y75.966 E48.77257
G1 X165.151 Y76.227 E48.78334
G1 X164.952 Y78.479 E48.87663
G1 X164.91 Y78.716 E48.88656
G1 X164.333 Y80.873 E48.9787
G1 X164.25 Y81.101 E48.98871
G1 X163.296 Y83.15 E49.08197
G1 X163.175 Y83.36 E49.09197
G1 X161.884 Y85.205 E49.18489
G1 X161.729 Y85.39 E49.19485
G1 X160.133 Y86.989 E49.28807
G1 X159.947 Y87.145 E49.29809
G1 X158.087 Y88.448 E49.3918
G1 X157.876 Y88.57 E49.40185
G1 X155.827 Y89.525 E49.49514
G1 X155.599 Y89.608 E49.50515
G1 X153.441 Y90.185 E49.59732
G1 X153.205 Y90.227 E49.60721
G1 X150.946 Y90.427 E49.70079
G1 X150.823 Y90.432 E49.70587
G1 X132.825 Y90.431 E50.44853
G1 X132.673 Y90.423 E50.45481
G1 X50.825 Y81.441 E53.85241
G1 X50.501 Y81.365 E53.86614
G1 X50.204 Y81.214 E53.87989
G1 X49.84 Y80.873 E53.90047
G1 X49.65 Y80.6 E53.91419
G1 X49.53 Y80.289 E53.92795
G1 X49.487 Y79.947 E53.94217
G1 X49.487 Y72.247 E54.2599
G1 X49.527 Y71.917 E54.27362
G1 X49.644 Y71.605 E54.28737
G1 X49.94 Y71.209 E54.30777
G1 X50.19 Y70.989 E54.32151
M204 S3000
G0 F4200 X50.451 Y71.293
M204 S400
G1 F1800 X50.869 Y71.148 E54.33976
G1 X132.728 Y62.165 E57.73782
G1 X132.836 Y62.159 E57.74228
G1 X150.823 Y62.159 E58.48449
G1 X150.91 Y62.163 E58.48808
G1 X153.167 Y62.362 E58.58157
G1 X153.337 Y62.392 E58.5887
G1 X155.498 Y62.97 E58.681
G1 X155.66 Y63.029 E58.68811
G1 X157.708 Y63.983 E58.78134
G1 X157.858 Y64.069 E58.78848
G1 X159.705 Y65.361 E58.88148
G1 X159.838 Y65.472 E58.88863
G1 X161.432 Y67.064 E58.98159
G1 X161.543 Y67.197 E58.98874
G1 X162.849 Y69.061 E59.08266
G1 X162.936 Y69.211 E59.08981
G1 X163.889 Y71.255 E59.18287
G1 X163.948 Y71.418 E59.19002
G1 X164.526 Y73.579 E59.28233
G1 X164.559 Y73.766 E59.29016
G1 X164.755 Y76 E59.3827
G1 X164.755 Y76.192 E59.39062
G1 X164.556 Y78.444 E59.48391
G1 X164.526 Y78.614 E59.49103
G1 X163.949 Y80.771 E59.58317
G1 X163.89 Y80.933 E59.59028
G1 X162.936 Y82.982 E59.68354
G1 X162.85 Y83.132 E59.69068
G1 X161.559 Y84.977 E59.7836
G1 X161.448 Y85.109 E59.79071
G1 X159.852 Y86.708 E59.88394
G1 X159.719 Y86.82 E59.89111
G1 X157.859 Y88.123 E59.98482
G1 X157.708 Y88.21 E59.99201
G1 X155.659 Y89.165 E60.08529
G1 X155.496 Y89.224 E60.09244
G1 X153.338 Y89.801 E60.18462
G1 X153.17 Y89.831 E60.19166
G1 X150.911 Y90.031 E60.28524
G1 X150.823 Y90.035 E60.28887
G1 X132.825 Y90.034 E61.03153
G1 X132.717 Y90.028 E61.036
G1 X50.869 Y81.046 E64.43359
G1 X50.596 Y80.976 E64.44522
G1 X50.236 Y80.72 E64.46345
G1 X49.981 Y80.374 E64.48119
G1 X49.884 Y79.947 E64.49926
G1 X49.884 Y72.247 E64.81698
G1 X49.924 Y71.969 E64.82857
G1 X50.136 Y71.586 E64.84664
G1 X50.451 Y71.293 E64.86439
M204 S3000
G0 F4200 X50.532 Y71.738
M204 S400
G1 F1800 X50.704 Y71.605 E64.87336
G1 X50.912 Y71.543 E64.88231
G1 X132.771 Y62.56 E68.28037
G1 X132.836 Y62.556 E68.28306
G1 X150.823 Y62.556 E69.02526
G1 X150.875 Y62.558 E69.02741
G1 X153.132 Y62.757 E69.1209
G1 X153.234 Y62.775 E69.12517
G1 X155.395 Y63.353 E69.21748
G1 X155.493 Y63.389 E69.22179
G1 X157.541 Y64.343 E69.31501
G1 X157.631 Y64.395 E69.3193
G1 X159.478 Y65.687 E69.41231
G1 X159.557 Y65.753 E69.41656
G1 X161.151 Y67.345 E69.50952
G1 X161.218 Y67.425 E69.51382
G1 X162.524 Y69.289 E69.60774
G1 X162.576 Y69.379 E69.61203
G1 X163.529 Y71.423 E69.70509
G1 X163.565 Y71.521 E69.7094
G1 X164.143 Y73.682 E69.8017
G1 X164.164 Y73.801 E69.80669
G1 X164.36 Y76.035 E69.89922
G1 X164.36 Y76.157 E69.90426
G1 X164.161 Y78.409 E69.99754
G1 X164.143 Y78.511 E70.00182
G1 X163.566 Y80.668 E70.09395
G1 X163.53 Y80.766 E70.09826
G1 X162.576 Y82.815 E70.19152
G1 X162.524 Y82.905 E70.19581
G1 X161.233 Y84.75 E70.28873
G1 X161.167 Y84.829 E70.29298
G1 X159.571 Y86.428 E70.3862
G1 X159.491 Y86.495 E70.39051
G1 X157.631 Y87.798 E70.48422
G1 X157.541 Y87.85 E70.4885
G1 X155.492 Y88.805 E70.58179
G1 X155.394 Y88.841 E70.58609
G1 X153.236 Y89.418 E70.67827
G1 X153.135 Y89.436 E70.6825
G1 X150.876 Y89.636 E70.77608
G1 X150.823 Y89.638 E70.77827
G1 X132.825 Y89.637 E71.52093
G1 X132.76 Y89.633 E71.52361
G1 X50.912 Y80.651 E74.92121
G1 X50.704 Y80.589 E74.93017
G1 X50.432 Y80.344 E74.94527
G1 X50.32 Y80.158 E74.95423
G1 X50.281 Y79.947 E74.96309
G1 X50.281 Y72.247 E75.28081
G1 X50.321 Y72.033 E75.2898
G1 X50.532 Y71.738 E75.30476
M204 S3000
G0 F4200 X50.829 Y72.002
M204 S400
G1 F1800 X50.955 Y71.937 E75.31061
G1 X132.836 Y62.953 E78.70957
G1 X150.823 Y62.953 E79.45178
G1 X153.097 Y63.153 E79.54597
G1 X153.131 Y63.159 E79.5474
G1 X155.292 Y63.737 E79.6397
G1 X155.325 Y63.749 E79.64115
G1 X157.373 Y64.703 E79.73438
G1 X157.403 Y64.72 E79.7358
G1 X159.25 Y66.012 E79.82881
G1 X159.277 Y66.034 E79.83025
G1 X160.871 Y67.626 E79.92321
G1 X160.893 Y67.653 E79.92464
G1 X162.199 Y69.517 E80.01856
G1 X162.216 Y69.547 E80.01998
G1 X163.169 Y71.591 E80.11304
G1 X163.181 Y71.624 E80.11449
G1 X163.763 Y73.801 E80.20747
G1 X163.768 Y73.836 E80.20893
G1 X163.965 Y76.087 E80.30217
G1 X163.964 Y76.123 E80.30366
G1 X163.765 Y78.375 E80.39695
G1 X163.759 Y78.408 E80.39833
G1 X163.182 Y80.565 E80.49046
G1 X163.17 Y80.598 E80.49191
G1 X162.216 Y82.647 E80.58518
G1 X162.199 Y82.677 E80.5866
G1 X160.908 Y84.522 E80.67952
G1 X160.886 Y84.549 E80.68095
G1 X159.29 Y86.148 E80.77418
G1 X159.263 Y86.17 E80.77561
G1 X157.403 Y87.473 E80.86932
G1 X157.373 Y87.49 E80.87075
G1 X155.324 Y88.445 E80.96403
G1 X155.291 Y88.457 E80.96548
G1 X153.133 Y89.034 E81.05765
G1 X153.1 Y89.04 E81.05903
G1 X150.823 Y89.241 E81.15336
G1 X132.803 Y89.239 E81.89692
G1 X50.955 Y80.257 E85.29452
G1 X50.829 Y80.192 E85.30037
G1 X50.729 Y80.08 E85.30657
G1 X50.678 Y79.947 E85.31244
G1 X50.678 Y72.247 E85.63017
G1 X50.729 Y72.114 E85.63605
G1 X50.829 Y72.002 E85.64224
M204 S3000
G1 F3000 E80.64224
G0 F4200 X56.312 Y89.955
M204 S400
G1 F3000 E85.70461
G1 F1800 X58.473 Y89.377 E85.79691
G1 X58.98 Y89.288 E85.81815
G1 X61.237 Y89.089 E85.91165
G1 X61.499 Y89.077 E85.92247
G1 X79.486 Y89.077 E86.66467
G1 X79.811 Y89.095 E86.6781
G1 X161.67 Y98.078 E90.07616
G1 X162.149 Y98.17 E90.09628
G1 X162.606 Y98.34 E90.1164
G1 X163.029 Y98.582 E90.13651
G1 X163.566 Y99.055 E90.16604
G1 X163.96 Y99.556 E90.19234
G1 X164.187 Y99.988 E90.21248
G1 X164.34 Y100.451 E90.2326
G1 X164.423 Y101.15 E90.26164
G1 X164.423 Y108.85 E90.57937
G1 X164.383 Y109.336 E90.59949
G1 X164.264 Y109.809 E90.61962
G1 X164.07 Y110.256 E90.63973
G1 X163.666 Y110.833 E90.66879
G1 X163.213 Y111.281 E90.69508
G1 X162.809 Y111.555 E90.71522
G1 X162.366 Y111.759 E90.73535
G1 X161.67 Y111.922 E90.76484
G1 X79.811 Y120.905 E94.1629
G1 X79.486 Y120.923 E94.17633
G1 X61.499 Y120.923 E94.91853
G1 X61.237 Y120.911 E94.92936
G1 X58.98 Y120.712 E95.02285
G1 X58.473 Y120.623 E95.04409
G1 X56.312 Y120.045 E95.13639
G1 X55.822 Y119.867 E95.15791
G1 X53.774 Y118.912 E95.25115
G1 X53.327 Y118.654 E95.27245
G1 X51.483 Y117.365 E95.36528
G1 X51.085 Y117.032 E95.3867
G1 X49.483 Y115.433 E95.48009
G1 X49.147 Y115.033 E95.50165
G1 X47.846 Y113.174 E95.59528
G1 X47.587 Y112.723 E95.61674
G1 X46.633 Y110.675 E95.70996
G1 X46.455 Y110.188 E95.73136
G1 X45.877 Y108.028 E95.82362
G1 X45.787 Y107.519 E95.84495
G1 X45.589 Y105.271 E95.93807
G1 X45.589 Y104.734 E95.96023
G1 X45.783 Y102.499 E96.0528
G1 X45.873 Y101.987 E96.07425
G1 X46.455 Y99.812 E96.16716
G1 X46.633 Y99.325 E96.18855
G1 X47.587 Y97.277 E96.28178
G1 X47.845 Y96.828 E96.30315
G1 X49.135 Y94.983 E96.39604
G1 X49.468 Y94.585 E96.41745
G1 X51.065 Y92.985 E96.51073
G1 X51.465 Y92.649 E96.53229
G1 X53.325 Y91.347 E96.62597
G1 X53.774 Y91.088 E96.64736
G1 X55.822 Y90.133 E96.74061
G1 X56.312 Y89.955 E96.76212
