;FLAVOR:Marlin
;TIME:3710
;Filament used: 3.26999m
;Layer height: 0.2
;MINX:44.077
;MINY:77.077
;MINZ:0.25
;MAXX:164.597
;MAXY:132.923
;MAXZ:7.85
;Generated with Cura_SteamEngine 4.8.0
M140 S60
M105
M190 S60
M104 S200
M105
M109 S200
M82 ;absolute extrusion mode
G21 ;metric values
G90 ;absolute positioning
M82 ;set extruder to absolute mode
M107 ;start with the fan off
G28 X0 Y0 ;move X/Y to min endstops
G28 Z0 ;move Z to min endstops
G1 Z15.0 F120 ;move the platform down 15mm
G92 E0 ;zero the extruded length
G1 F200 E3 ;extrude 3mm of feed stock
G92 E0 ;zero the extruded length again
G1 F120
G0 Y20 F120
M117 Printing...
G5
G92 E0
G92 E0
G1 F3000 E-5
;LAYER_COUNT:39
;LAYER:0
M106 S51
M204 S3000
M205 X10 Y10
G1 F600 Z0.325
G0 F4200 X45.856 Y77.383 Z0.325
M204 S400
;TYPE:SKIRT
G1 F600 Z0.25
G1 F3000 E0.06236
G1 F1800 X46.309 Y77.204 E0.08246
G1 X46.786 Y77.102 E0.10259
G1 X47.171 Y77.077 E0.11851
G1 X122.965 Y77.077 E3.24602
G1 X123.549 Y77.135 E3.27024
G1 X123.594 Y77.144 E3.27213
G1 X124.204 Y77.336 E3.29852
G1 X162.747 Y94.199 E5.03449
G1 X163.176 Y94.43 E5.0546
G1 X163.562 Y94.728 E5.07472
G1 X164.038 Y95.287 E5.10501
G1 X164.339 Y95.814 E5.13006
G1 X164.5 Y96.274 E5.15017
G1 X164.597 Y97.027 E5.18149
G1 X164.596 Y112.974 E5.83952
G1 X164.556 Y113.46 E5.85964
G1 X164.437 Y113.933 E5.87977
G1 X164.103 Y114.614 E5.91107
G1 X163.736 Y115.098 E5.93613
G1 X163.377 Y115.427 E5.95622
G1 X162.746 Y115.802 E5.98651
G1 X124.204 Y132.664 E7.72243
G1 X123.594 Y132.856 E7.74881
G1 X123.549 Y132.865 E7.75071
G1 X122.965 Y132.923 E7.77492
G1 X47.171 Y132.923 E10.90244
G1 X46.685 Y132.883 E10.92256
G1 X46.212 Y132.764 E10.94269
G1 X45.765 Y132.57 E10.96279
G1 X45.355 Y132.305 E10.98294
G1 X44.949 Y131.935 E11.0056
G1 X44.634 Y131.563 E11.02572
G1 X44.383 Y131.144 E11.04587
G1 X44.204 Y130.691 E11.06597
G1 X44.102 Y130.214 E11.0861
G1 X44.077 Y129.829 E11.10202
G1 X44.077 Y127.171 E11.2117
G1 X44.117 Y126.685 E11.23182
G1 X44.236 Y126.212 E11.25194
G1 X44.43 Y125.765 E11.27205
G1 X44.695 Y125.355 E11.29219
G1 X45.065 Y124.949 E11.31486
G1 X45.437 Y124.634 E11.33497
G1 X45.856 Y124.383 E11.35513
G1 X46.309 Y124.204 E11.37523
G1 X46.786 Y124.102 E11.39535
G1 X47.171 Y124.077 E11.41127
G1 X91.337 Y124.077 E13.23371
G1 X99.834 Y105.853 E14.06342
G1 X99.834 Y104.147 E14.13381
G1 X91.337 Y85.923 E14.96352
G1 X47.171 Y85.923 E16.78595
G1 X46.685 Y85.883 E16.80608
G1 X46.212 Y85.764 E16.8262
G1 X45.765 Y85.57 E16.84631
G1 X45.355 Y85.305 E16.86645
G1 X44.949 Y84.935 E16.88912
G1 X44.634 Y84.563 E16.90923
G1 X44.383 Y84.144 E16.92939
G1 X44.204 Y83.691 E16.94948
G1 X44.102 Y83.214 E16.96961
G1 X44.077 Y82.829 E16.98553
G1 X44.077 Y80.171 E17.09521
G1 X44.117 Y79.685 E17.11533
G1 X44.236 Y79.212 E17.13546
G1 X44.43 Y78.765 E17.15556
G1 X44.695 Y78.355 E17.17571
G1 X45.065 Y77.949 E17.19838
G1 X45.437 Y77.634 E17.21849
G1 X45.856 Y77.383 E17.23864
M204 S3000
G0 F4200 X46.088 Y77.712
M204 S400
G1 F1800 X46.515 Y77.559 E17.25736
G1 X47.171 Y77.474 E17.28465
G1 X122.965 Y77.474 E20.41217
G1 X123.471 Y77.524 E20.43315
G1 X123.516 Y77.533 E20.43504
G1 X124.045 Y77.699 E20.45792
G1 X162.588 Y94.562 E22.19389
G1 X162.986 Y94.78 E22.21262
G1 X163.34 Y95.064 E22.23134
G1 X163.707 Y95.505 E22.25502
G1 X163.989 Y96.005 E22.2787
G1 X164.131 Y96.436 E22.29743
G1 X164.2 Y97.027 E22.32198
G1 X164.199 Y112.974 E22.98001
G1 X164.159 Y113.426 E22.99873
G1 X164.04 Y113.865 E23.0175
G1 X163.772 Y114.396 E23.04204
G1 X163.424 Y114.851 E23.06568
G1 X163.083 Y115.152 E23.08445
G1 X162.587 Y115.439 E23.10809
G1 X124.045 Y132.301 E24.84401
G1 X123.516 Y132.467 E24.86689
G1 X123.471 Y132.476 E24.86878
G1 X122.965 Y132.526 E24.88976
G1 X47.171 Y132.526 E28.01727
G1 X46.719 Y132.486 E28.036
G1 X46.281 Y132.368 E28.05472
G1 X45.87 Y132.174 E28.07347
G1 X45.346 Y131.77 E28.10077
G1 X44.938 Y131.306 E28.12627
G1 X44.712 Y130.912 E28.14501
G1 X44.559 Y130.485 E28.16373
G1 X44.474 Y129.829 E28.19102
G1 X44.474 Y127.171 E28.3007
G1 X44.514 Y126.719 E28.31942
G1 X44.632 Y126.281 E28.33814
G1 X44.826 Y125.87 E28.35689
G1 X45.23 Y125.346 E28.3842
G1 X45.694 Y124.938 E28.40969
G1 X46.088 Y124.712 E28.42843
G1 X46.515 Y124.559 E28.44715
G1 X47.171 Y124.474 E28.47445
G1 X91.59 Y124.474 E30.30732
G1 X100.231 Y105.941 E31.15109
G1 X100.231 Y104.059 E31.22875
G1 X91.59 Y85.526 E32.07252
G1 X47.171 Y85.526 E33.9054
G1 X46.719 Y85.486 E33.92412
G1 X46.281 Y85.368 E33.94284
G1 X45.87 Y85.174 E33.9616
G1 X45.346 Y84.77 E33.9889
G1 X44.938 Y84.306 E34.01439
G1 X44.712 Y83.912 E34.03314
G1 X44.559 Y83.485 E34.05185
G1 X44.474 Y82.829 E34.07915
G1 X44.474 Y80.171 E34.18883
G1 X44.514 Y79.719 E34.20755
G1 X44.632 Y79.281 E34.22627
G1 X44.826 Y78.87 E34.24502
G1 X45.23 Y78.346 E34.27232
G1 X45.694 Y77.938 E34.29782
G1 X46.088 Y77.712 E34.31656
M204 S3000
G0 F4200 X46.316 Y78.046
M204 S400
G1 F1800 X46.714 Y77.919 E34.3338
G1 X47.171 Y77.871 E34.35276
G1 X122.965 Y77.871 E37.48028
G1 X123.438 Y77.922 E37.49991
G1 X123.885 Y78.063 E37.51925
G1 X162.428 Y94.926 E39.25521
G1 X162.793 Y95.129 E39.27245
G1 X163.113 Y95.398 E39.2897
G1 X163.442 Y95.824 E39.31191
G1 X163.637 Y96.193 E39.32913
G1 X163.759 Y96.592 E39.34635
G1 X163.803 Y97.027 E39.36439
G1 X163.802 Y112.974 E40.02241
G1 X163.762 Y113.39 E40.03966
G1 X163.644 Y113.79 E40.05687
G1 X163.375 Y114.277 E40.07982
G1 X163.113 Y114.602 E40.09705
G1 X162.793 Y114.871 E40.1143
G1 X162.427 Y115.075 E40.13159
G1 X123.885 Y131.937 E41.8675
G1 X123.393 Y132.087 E41.88873
G1 X122.965 Y132.129 E41.90647
G1 X47.171 Y132.129 E45.03399
G1 X46.755 Y132.089 E45.05123
G1 X46.355 Y131.971 E45.06844
G1 X45.984 Y131.779 E45.08568
G1 X45.511 Y131.373 E45.1114
G1 X45.245 Y131.051 E45.12863
G1 X45.046 Y130.684 E45.14586
G1 X44.919 Y130.286 E45.1631
G1 X44.871 Y129.829 E45.18206
G1 X44.871 Y127.171 E45.29174
G1 X44.911 Y126.755 E45.30898
G1 X45.029 Y126.355 E45.32619
G1 X45.221 Y125.984 E45.34343
G1 X45.627 Y125.511 E45.36915
G1 X45.949 Y125.245 E45.38639
G1 X46.316 Y125.046 E45.40361
G1 X46.714 Y124.919 E45.42085
G1 X47.171 Y124.871 E45.43981
G1 X91.843 Y124.871 E47.28313
G1 X100.628 Y106.03 E48.14093
G1 X100.628 Y103.97 E48.22593
G1 X91.843 Y85.129 E49.08373
G1 X47.171 Y85.129 E50.92705
G1 X46.755 Y85.089 E50.94429
G1 X46.355 Y84.971 E50.9615
G1 X45.984 Y84.779 E50.97874
G1 X45.511 Y84.373 E51.00446
G1 X45.245 Y84.051 E51.0217
G1 X45.046 Y83.684 E51.03892
G1 X44.919 Y83.286 E51.05616
G1 X44.871 Y82.829 E51.07512
G1 X44.871 Y80.171 E51.1848
G1 X44.911 Y79.755 E51.20204
G1 X45.029 Y79.355 E51.21925
G1 X45.221 Y78.984 E51.23649
G1 X45.627 Y78.511 E51.26221
G1 X45.949 Y78.245 E51.27945
G1 X46.316 Y78.046 E51.29667
M204 S3000
G0 F4200 X46.538 Y78.384
M204 S400
G1 F1800 X46.903 Y78.288 E51.31225
G1 X47.171 Y78.268 E51.32334
G1 X122.965 Y78.268 E54.45085
G1 X123.36 Y78.312 E54.46725
G1 X123.726 Y78.427 E54.48308
G1 X162.269 Y95.29 E56.21905
G1 X162.597 Y95.477 E56.23463
G1 X162.879 Y95.729 E56.25023
G1 X163.11 Y96.043 E56.26632
G1 X163.284 Y96.378 E56.2819
G1 X163.383 Y96.742 E56.29746
G1 X163.406 Y97.027 E56.30926
G1 X163.405 Y112.974 E56.96729
G1 X163.365 Y113.35 E56.98289
G1 X163.247 Y113.708 E56.99844
G1 X163.043 Y114.058 E57.01516
G1 X162.803 Y114.35 E57.03076
G1 X162.507 Y114.584 E57.04632
G1 X162.268 Y114.711 E57.05749
G1 X123.726 Y131.573 E58.79341
G1 X123.315 Y131.697 E58.81112
G1 X122.965 Y131.732 E58.82563
G1 X47.171 Y131.732 E61.95315
G1 X46.796 Y131.692 E61.96871
G1 X46.437 Y131.574 E61.9843
G1 X46.111 Y131.384 E61.99987
G1 X45.791 Y131.093 E62.01772
G1 X45.554 Y130.799 E62.0333
G1 X45.384 Y130.462 E62.04888
G1 X45.288 Y130.097 E62.06445
G1 X45.268 Y129.829 E62.07554
G1 X45.268 Y127.171 E62.18522
G1 X45.308 Y126.796 E62.20078
G1 X45.426 Y126.437 E62.21637
G1 X45.616 Y126.111 E62.23194
G1 X45.907 Y125.791 E62.24979
G1 X46.201 Y125.554 E62.26537
G1 X46.538 Y125.384 E62.28095
G1 X46.903 Y125.288 E62.29652
G1 X47.171 Y125.268 E62.30761
G1 X92.095 Y125.268 E64.16133
G1 X101.025 Y106.116 E65.03329
G1 X101.025 Y103.884 E65.12539
G1 X92.095 Y84.732 E65.99735
G1 X47.171 Y84.732 E67.85106
G1 X46.796 Y84.692 E67.86662
G1 X46.437 Y84.574 E67.88222
G1 X46.111 Y84.384 E67.89779
G1 X45.791 Y84.093 E67.91563
G1 X45.554 Y83.799 E67.93122
G1 X45.384 Y83.462 E67.94679
G1 X45.288 Y83.097 E67.96236
G1 X45.268 Y82.829 E67.97345
G1 X45.268 Y80.171 E68.08313
G1 X45.308 Y79.796 E68.09869
G1 X45.426 Y79.437 E68.11429
G1 X45.616 Y79.111 E68.12986
G1 X45.907 Y78.791 E68.1477
G1 X46.201 Y78.554 E68.16329
G1 X46.538 Y78.384 E68.17886
M204 S3000
G0 F4200 X46.45 Y78.867
M204 S400
G1 F1800 X46.753 Y78.729 E68.1926
G1 X47.171 Y78.665 E68.21005
G1 X122.965 Y78.665 E71.33756
G1 X123.283 Y78.701 E71.35077
G1 X123.567 Y78.791 E71.36306
G1 X162.11 Y95.654 E73.09903
G1 X162.397 Y95.823 E73.11277
G1 X162.779 Y96.261 E73.13676
G1 X162.928 Y96.559 E73.1505
G1 X163.009 Y97.027 E73.1701
G1 X163.008 Y112.974 E73.82813
G1 X162.968 Y113.305 E73.84189
G1 X162.712 Y113.84 E73.86636
G1 X162.497 Y114.094 E73.88009
G1 X162.109 Y114.347 E73.8992
G1 X123.567 Y131.209 E75.63512
G1 X123.238 Y131.308 E75.64929
G1 X122.965 Y131.335 E75.66061
G1 X47.171 Y131.335 E78.78813
G1 X46.841 Y131.295 E78.80185
G1 X46.529 Y131.178 E78.8156
G1 X46.072 Y130.812 E78.83975
G1 X45.867 Y130.55 E78.85348
G1 X45.729 Y130.247 E78.86722
G1 X45.665 Y129.829 E78.88467
G1 X45.665 Y127.171 E78.99435
G1 X45.705 Y126.841 E79.00806
G1 X45.822 Y126.529 E79.02181
G1 X46.188 Y126.072 E79.04597
G1 X46.45 Y125.867 E79.0597
G1 X46.753 Y125.729 E79.07344
G1 X47.171 Y125.665 E79.09089
G1 X92.348 Y125.665 E80.95504
G1 X101.422 Y106.205 E81.84103
G1 X101.422 Y103.795 E81.94048
G1 X92.348 Y84.335 E82.82647
G1 X47.171 Y84.335 E84.69062
G1 X46.841 Y84.295 E84.70434
G1 X46.529 Y84.178 E84.71809
G1 X46.072 Y83.812 E84.74225
G1 X45.867 Y83.55 E84.75597
G1 X45.729 Y83.247 E84.76971
G1 X45.665 Y82.829 E84.78716
G1 X45.665 Y80.171 E84.89684
G1 X45.705 Y79.841 E84.91056
G1 X45.822 Y79.529 E84.92431
G1 X46.188 Y79.072 E84.94846
G1 X46.45 Y78.867 E84.96219
M204 S3000
G0 F4200 X46.694 Y79.184
M204 S400
G1 F1800 X46.957 Y79.085 E84.97379
G1 X47.171 Y79.062 E84.98267
G1 X122.965 Y79.062 E88.11018
G1 X123.408 Y79.154 E88.12885
G1 X161.951 Y96.017 E89.86482
G1 X162.19 Y96.165 E89.87642
G1 X162.448 Y96.48 E89.89322
G1 X162.568 Y96.734 E89.90481
G1 X162.612 Y97.027 E89.91704
G1 X162.611 Y112.974 E90.57507
G1 X162.571 Y113.252 E90.58666
G1 X162.381 Y113.621 E90.60378
G1 X162.194 Y113.831 E90.61539
G1 X161.95 Y113.984 E90.62727
G1 X123.408 Y130.846 E92.36318
G1 X122.965 Y130.938 E92.38185
G1 X47.171 Y130.938 E95.50937
G1 X46.893 Y130.898 E95.52096
G1 X46.637 Y130.782 E95.53255
G1 X46.353 Y130.531 E95.54819
G1 X46.184 Y130.306 E95.55981
G1 X46.085 Y130.043 E95.5714
G1 X46.062 Y129.829 E95.58028
G1 X46.062 Y127.171 E95.68996
G1 X46.102 Y126.893 E95.70155
G1 X46.218 Y126.637 E95.71315
G1 X46.469 Y126.353 E95.72879
G1 X46.694 Y126.184 E95.7404
G1 X46.957 Y126.085 E95.75199
G1 X47.171 Y126.062 E95.76087
G1 X92.601 Y126.062 E97.63547
G1 X101.819 Y106.292 E98.53556
G1 X101.819 Y103.708 E98.64219
G1 X92.601 Y83.938 E99.54228
G1 X47.171 Y83.938 E101.41688
G1 X46.893 Y83.898 E101.42847
G1 X46.637 Y83.782 E101.44006
G1 X46.353 Y83.531 E101.4557
G1 X46.184 Y83.306 E101.46731
G1 X46.085 Y83.043 E101.47891
G1 X46.062 Y82.829 E101.48779
G1 X46.062 Y80.171 E101.59747
G1 X46.102 Y79.893 E101.60906
G1 X46.218 Y79.637 E101.62066
G1 X46.469 Y79.353 E101.63629
G1 X46.694 Y79.184 E101.64791
M204 S3000
G0 F4200 X46.929 Y79.51
M204 S400
G1 F1800 X47.171 Y79.459 E101.65811
G1 X122.965 Y79.459 E104.78563
G1 X123.249 Y79.518 E104.7976
G1 X161.792 Y96.381 E106.53356
G1 X162.05 Y96.599 E106.5475
G1 X162.201 Y96.899 E106.56136
G1 X162.215 Y97.027 E106.56667
G1 X162.214 Y112.974 E107.2247
G1 X162.115 Y113.302 E107.23884
G1 X161.899 Y113.559 E107.25269
G1 X161.791 Y113.62 E107.25781
G1 X123.249 Y130.482 E108.99372
G1 X122.965 Y130.541 E109.00569
G1 X47.171 Y130.541 E112.13321
G1 X46.957 Y130.501 E112.14219
G1 X46.634 Y130.25 E112.15907
G1 X46.51 Y130.071 E112.16805
G1 X46.459 Y129.829 E112.17826
G1 X46.459 Y127.171 E112.28794
G1 X46.499 Y126.957 E112.29692
G1 X46.75 Y126.634 E112.3138
G1 X46.929 Y126.51 E112.32278
G1 X47.171 Y126.459 E112.33299
G1 X92.854 Y126.459 E114.21802
G1 X102.216 Y106.381 E115.13215
G1 X102.216 Y103.619 E115.24612
G1 X92.854 Y83.541 E116.16024
G1 X47.171 Y83.541 E118.04527
G1 X46.957 Y83.501 E118.05426
G1 X46.634 Y83.25 E118.07114
G1 X46.51 Y83.071 E118.08012
G1 X46.459 Y82.829 E118.09033
G1 X46.459 Y80.171 E118.2
G1 X46.499 Y79.957 E118.20899
G1 X46.75 Y79.634 E118.22587
G1 X46.929 Y79.51 E118.23485
M204 S3000
G0 F4200 X47.03 Y79.914
M204 S400
G1 F1800 X47.171 Y79.856 E118.24114
G1 X122.965 Y79.856 E121.36866
G1 X123.09 Y79.882 E121.37393
G1 X161.633 Y96.745 E123.10989
G1 X161.785 Y96.917 E123.11937
G1 X161.818 Y97.027 E123.12411
G1 X161.817 Y112.974 E123.78213
G1 X161.718 Y113.184 E123.79171
G1 X161.632 Y113.256 E123.79634
G1 X123.09 Y130.118 E125.53225
G1 X122.965 Y130.144 E125.53752
G1 X47.171 Y130.144 E128.66504
G1 X47.03 Y130.086 E128.67133
G1 X46.914 Y129.97 E128.6781
G1 X46.856 Y129.829 E128.68439
G1 X46.856 Y127.171 E128.79407
G1 X46.914 Y127.03 E128.80036
G1 X47.03 Y126.914 E128.80713
G1 X47.171 Y126.856 E128.81342
G1 X93.108 Y126.856 E130.70893
G1 X102.613 Y106.47 E131.63707
G1 X102.613 Y103.53 E131.75838
G1 X93.108 Y83.144 E132.68652
G1 X47.171 Y83.144 E134.58203
G1 X47.03 Y83.086 E134.58832
G1 X46.914 Y82.97 E134.59509
G1 X46.856 Y82.829 E134.60138
G1 X46.856 Y80.171 E134.71106
G1 X46.914 Y80.03 E134.71735
G1 X47.03 Y79.914 E134.72412
M204 S3000
G1 F3000 E129.72412
;MESH:TipMidpart-v2.stl
G0 F4200 X122.947 Y129.747
M204 S400
;TYPE:WALL-OUTER
G1 F3000 E134.78649
G1 F1080 X47.253 Y129.747 E137.90987
G1 X47.253 Y127.253 E138.01278
G1 X93.359 Y127.253 E139.91527
G1 X103.01 Y106.556 E140.85759
G1 X103.01 Y103.444 E140.986
G1 X93.359 Y82.747 E141.92831
G1 X47.253 Y82.747 E143.8308
G1 X47.253 Y80.253 E143.93371
G1 X122.947 Y80.253 E147.0571
G1 X161.421 Y97.086 E148.78996
G1 X161.42 Y112.915 E149.44312
G1 X122.947 Y129.747 E151.17593
M204 S3000
G0 F4200 X122.747 Y129.747
G0 X122.747 Y129.311
G1 F3000 E146.17593
G0 F4200 X142.767 Y103.753
M204 S400
G1 F3000 E151.23829
G1 F1080 X160.253 Y103.753 E151.95982
G1 X160.253 Y99.296 E152.14373
G1 X122.282 Y82.685 E153.85391
G1 X122.044 Y83.03 E153.8712
G1 X142.767 Y103.753 E155.0805
M204 S3000
G0 F4200 X142.967 Y103.753
G0 X142.605 Y104.144
M204 S400
;TYPE:WALL-INNER
G1 F1080 X160.644 Y104.144 E155.82485
G1 X160.644 Y99.04 E156.03546
G1 X160.638 Y99.038 E156.03572
G1 X122.143 Y82.198 E157.76949
G1 X121.537 Y83.076 E157.81351
G1 X142.605 Y104.144 E159.04294
M204 S3000
G1 F3000 E154.04294
G0 F4200 X106.839 Y103.753
M204 S400
;TYPE:WALL-OUTER
G1 F3000 E159.1053
G1 F1080 X138.727 Y103.753 E160.42111
G1 X138.798 Y103.753 E160.42404
G1 X138.929 Y103.441 E160.438
G1 X138.879 Y103.391 E160.44092
G1 X118.235 Y82.747 E161.6456
G1 X97.355 Y82.747 E162.50718
G1 X97.354 Y82.747 E162.50722
G1 X97.044 Y82.747 E162.52001
G1 X97.175 Y83.028 E162.52742
G1 X106.839 Y103.753 E163.47101
M204 S3000
G0 F4200 X107.039 Y103.753
G0 X106.59 Y104.144
M204 S400
;TYPE:WALL-INNER
G1 F1080 X139.058 Y104.144 E164.81075
G1 X139.391 Y103.35 E164.84627
G1 X118.397 Y82.356 E166.07138
G1 X96.74 Y82.356 E166.96502
G1 X96.739 Y82.356 E166.96506
G1 X96.43 Y82.356 E166.97782
G1 X96.561 Y82.636 E166.98519
G1 X106.59 Y104.144 E167.96443
M204 S3000
G1 F3000 E162.96443
G0 F4200 X122.282 Y127.315
M204 S400
;TYPE:WALL-OUTER
G1 F3000 E168.02679
G1 F1080 X160.253 Y110.704 E169.73697
G1 X160.253 Y106.247 E169.92088
G1 X142.767 Y106.247 E170.64241
G1 X122.044 Y126.97 E171.8517
G1 X122.282 Y127.315 E171.869
M204 S3000
G0 F4200 X122.465 Y127.235
G0 X122.143 Y127.802
M204 S400
;TYPE:WALL-INNER
G1 F1080 X160.638 Y110.962 E173.60277
G1 X160.644 Y110.96 E173.60303
G1 X160.644 Y105.856 E173.81364
G1 X142.605 Y105.856 E174.55799
G1 X121.537 Y126.924 E175.78742
G1 X122.143 Y127.802 E175.83144
M204 S3000
G1 F3000 E170.83144
G0 F4200 X97.044 Y127.253
M204 S400
;TYPE:WALL-OUTER
G1 F3000 E175.8938
G1 F1080 X97.354 Y127.253 E175.90659
G1 X97.355 Y127.253 E175.90663
